ElementForever2022/RoboticsDiffusionTransformer_UR5e/cam_and_arm/rtde_examples/robot_data.csv
timestamp target_q_0 target_q_1 target_q_2 target_q_3 target_q_4 target_q_5 target_qd_0 target_qd_1 target_qd_2 target_qd_3 target_qd_4 target_qd_5 target_qdd_0 target_qdd_1 target_qdd_2 target_qdd_3 target_qdd_4 target_qdd_5 target_current_0 target_current_1 target_current_2 target_current_3 target_current_4 target_current_5 target_moment_0 target_moment_1 target_moment_2 target_moment_3 target_moment_4 target_moment_5 actual_q_0 actual_q_1 actual_q_2 actual_q_3 actual_q_4 actual_q_5 actual_qd_0 actual_qd_1 actual_qd_2 actual_qd_3 actual_qd_4 actual_qd_5 actual_current_0 actual_current_1 actual_current_2 actual_current_3 actual_current_4 actual_current_5 joint_control_output_0 joint_control_output_1 joint_control_output_2 joint_control_output_3 joint_control_output_4 joint_control_output_5 actual_TCP_pose_0 actual_TCP_pose_1 actual_TCP_pose_2 actual_TCP_pose_3 actual_TCP_pose_4 actual_TCP_pose_5 actual_TCP_speed_0 actual_TCP_speed_1 actual_TCP_speed_2 actual_TCP_speed_3 actual_TCP_speed_4 actual_TCP_speed_5 actual_TCP_force_0 actual_TCP_force_1 actual_TCP_force_2 actual_TCP_force_3 actual_TCP_force_4 actual_TCP_force_5 target_TCP_pose_0 target_TCP_pose_1 target_TCP_pose_2 target_TCP_pose_3 target_TCP_pose_4 target_TCP_pose_5 target_TCP_speed_0 target_TCP_speed_1 target_TCP_speed_2 target_TCP_speed_3 target_TCP_speed_4 target_TCP_speed_5 actual_digital_input_bits joint_temperatures_0 joint_temperatures_1 joint_temperatures_2 joint_temperatures_3 joint_temperatures_4 joint_temperatures_5 actual_execution_time robot_mode joint_mode_0 joint_mode_1 joint_mode_2 joint_mode_3 joint_mode_4 joint_mode_5 safety_status actual_tool_accelerometer_0 actual_tool_accelerometer_1 actual_tool_accelerometer_2 speed_scaling target_speed_fraction actual_momentum actual_main_voltage actual_robot_voltage actual_robot_current actual_joint_voltage_0 actual_joint_voltage_1 actual_joint_voltage_2 actual_joint_voltage_3 actual_joint_voltage_4 actual_joint_voltage_5 actual_digital_output_bits runtime_state joint_position_deviation_ratio
22871.764 -0.22010685908503014 -1.2989025724420191 2.031305554574984 -2.315813777167422 -1.557940764354476 3.699607440198088 0.0 0.0 0.0 0.0 0.0 0.0 0.0 0.0 0.0 0.0 0.0 0.0 3.880349913856066e-17 -2.393329620361328 -1.4057834148406982 -0.22860582172870636 0.0009124650969170034 0.0 4.3139871656165676e-16 -26.665381221961916 -15.558578308683664 -1.833906329739412 0.007208526063923776 0.0 -0.2201164404498499 -1.2988811296275635 2.0313108603106897 -2.315782686273092 -1.557962719594137 3.699610710144043 0.0 0.0 -0.0 -0.0 0.0 0.0 0.1733800172805786 -2.3691084384918213 -1.615012764930725 -0.339178204536438 -0.06467980891466141 0.11507310718297958 3.880349913856066e-17 -2.393329620361328 -1.4057834148406982 -0.22860582172870636 0.0009124650969170034 0.0 -0.5239958612071604 -0.01899370157027225 0.21098389786380897 1.2080039128322655 -2.8830631864147565 -0.0009757485360346647 0.0 0.0 0.0 0.0 0.0 0.0 8.115106399877641 2.745473149750903 -3.6607492184873673 -0.1643766885368762 0.1618546362812286 -0.3787604408538864 -0.5240000037310102 -0.018999999974275813 0.21100001968055238 1.208000021118936 -2.882999906338287 -0.0009999510312804151 0.0 0.0 0.0 0.0 0.0 0.0 0 27.6875 28.75 28.1875 32.0 35.375 36.125 0.670069 7 253 253 253 253 253 253 1 0.038307227194309235 0.1149216815829277 -9.404424667358398 0.0 1.0 0.0 47.6421012878418 47.737037658691406 0.39276546239852905 47.5275993347168 47.57059860229492 47.44160079956055 47.55626678466797 47.55626678466797 47.48460006713867 0 1 0.00021457672119140625
22871.863999999998 -0.22010685908503014 -1.2989025724420191 2.031305554574984 -2.315813777167422 -1.557940764354476 3.699607440198088 0.0 0.0 0.0 0.0 0.0 0.0 0.0 0.0 0.0 0.0 0.0 0.0 5.336197056372255e-17 -2.393339157104492 -1.405780553817749 -0.22860713303089142 0.0009124648640863597 0.0 5.932528235922882e-16 -26.665485940524327 -15.558546484472467 -1.833916805535192 0.0072085242940139 0.0 -0.22012406984438115 -1.298881159429886 2.031287495289938 -2.3158065281310023 -1.557917896901266 3.6995952129364014 0.0 0.0 -0.0 -0.0 0.0 0.0 0.1352081298828125 -2.3713555335998535 -1.6297954320907593 -0.3330802321434021 -0.049940843135118484 0.09673211723566055 5.336197056372255e-17 -2.393339157104492 -1.405780553817749 -0.22860713303089142 0.0009124648640863597 0.0 -0.5240075058527109 -0.018991712959344896 0.21099553539603402 1.2079912322102908 -2.8829986869185538 -0.0009616013778682907 0.0 0.0 0.0 0.0 0.0 0.0 8.102880493646996 2.7365851531697287 -3.488909254302634 -0.1657477597166999 0.1632790780433276 -0.3774510673128438 -0.5240000037310102 -0.018999999974275813 0.21100001968055238 1.208000021118936 -2.882999906338287 -0.0009999510312804151 0.0 0.0 0.0 0.0 0.0 0.0 0 27.6875 28.75 28.1875 32.0 35.375 36.125 0.668796 7 253 253 253 253 253 253 1 0.0 0.038307227194309235 -9.346963882446289 0.0 1.0 0.0 47.656429290771484 47.723602294921875 0.3301037549972534 47.513267517089844 47.57059860229492 47.44160079956055 47.55626678466797 47.57059860229492 47.498931884765625 0 1 0.00014188551479795328
22871.964 -0.22010685908503014 -1.2989025724420191 2.031305554574984 -2.315813777167422 -1.557940764354476 3.699607440198088 0.0 0.0 0.0 0.0 0.0 0.0 0.0 0.0 0.0 0.0 0.0 0.0 -1.2587603104424467e-16 -2.3934128284454346 -1.405824065208435 -0.2286083996295929 0.0009122274932451546 0.0 -1.3994293566658203e-15 -26.66630549525537 -15.559028838478056 -1.833926879915852 0.0072066488903119634 0.0 -0.22014314333070928 -1.2989240449718018 2.0313265959369105 -2.3158022365965785 -1.557955567036764 3.6996142864227295 0.0 0.0 -0.0 -0.0 0.0 0.0 0.1681402325630188 -2.3948144912719727 -1.6324864625930786 -0.35820674896240234 -0.058305855840444565 0.10316299647092819 -1.2587603104424467e-16 -2.3934128284454346 -1.405824065208435 -0.2286083996295929 0.0009122274932451546 0.0 -0.523990832310719 -0.018981673127871832 0.21100146968958497 1.207944321091224 -2.8830423229228477 -0.0010091044277096535 0.0 0.0 0.0 0.0 0.0 0.0 7.859789633671991 2.743313894120184 -3.52414175366019 -0.16054084980262787 0.15422109680715254 -0.37856934332161696 -0.5240000037310102 -0.018999999974275813 0.21100001968055238 1.208000021118936 -2.882999906338287 -0.0009999510312804151 0.0 0.0 0.0 0.0 0.0 0.0 0 27.6875 28.75 28.1875 31.9375 35.375 36.125 0.667932 7 253 253 253 253 253 253 1 0.019153613597154617 0.05746084079146385 -9.481039047241211 0.0 1.0 0.0 47.63225173950195 47.71554183959961 0.4106680452823639 47.498931884765625 47.54193115234375 47.427268981933594 47.54193115234375 47.5275993347168 47.48460006713867 0 1 0.0001696480952280884
22872.064 -0.22010685908503014 -1.2989025724420191 2.031305554574984 -2.315813777167422 -1.557940764354476 3.699607440198088 0.0 0.0 0.0 0.0 0.0 0.0 0.0 0.0 0.0 0.0 0.0 0.0 4.167924878638291e-17 -2.393380641937256 -1.405779242515564 -0.22860534489154816 0.0009143964853137732 0.0 4.633699023638764e-16 -26.665946494106784 -15.558532107684561 -1.8339024287472858 0.007223783990718782 0.0 -0.2201164404498499 -1.2989275318435212 2.0313265959369105 -2.315848489800924 -1.5579436461078089 3.699610710144043 0.0 0.0 -0.0 -0.0 0.0 0.0 0.1436733901500702 -2.428845167160034 -1.6156541109085083 -0.34100741147994995 -0.05744628235697746 0.1037631630897522 4.167924878638291e-17 -2.393380641937256 -1.405779242515564 -0.22860534489154816 0.0009143964853137732 0.0 -0.5239948646822605 -0.018995886576995746 0.21100792385394518 1.2079703124227326 -2.882979955933464 -0.0010385648895480512 0.0 0.0 0.0 0.0 0.0 0.0 7.784493566892216 2.8064354403705716 -3.6038862169313295 -0.16298160162422942 0.15500063596917762 -0.38191782658886586 -0.5240000037310102 -0.018999999974275813 0.21100001968055238 1.208000021118936 -2.882999906338287 -0.0009999510312804151 0.0 0.0 0.0 0.0 0.0 0.0 0 27.6875 28.75 28.1875 31.9375 35.375 36.125 0.668893 7 253 253 253 253 253 253 1 0.0 0.13407529890537262 -9.346963882446289 0.0 1.0 0.0 47.625083923339844 47.711063385009766 0.3636730909347534 47.498931884765625 47.54193115234375 47.44160079956055 47.54193115234375 47.54193115234375 47.48460006713867 0 1 5.923373464611359e-05
22872.164 -0.22010685908503014 -1.2989025724420191 2.031305554574984 -2.315813777167422 -1.557940764354476 3.699607440198088 0.0 0.0 0.0 0.0 0.0 0.0 0.0 0.0 0.0 0.0 0.0 0.0 1.7609571782316813e-17 -2.3934202194213867 -1.405819058418274 -0.2286066859960556 0.0009135492146015167 0.0 1.9577477803844564e-16 -26.66638688949334 -15.55897250307111 -1.8339132106897074 0.0072170903842218555 0.0 -0.22011214891542608 -1.2988966566375275 2.0313108603106897 -2.315829416314596 -1.557936970387594 3.699591636657715 0.0 0.0 -0.0 -0.0 0.0 0.0 0.15698027610778809 -2.404069423675537 -1.5948587656021118 -0.3516342043876648 -0.0493227057158947 0.07773548364639282 1.7609571782316813e-17 -2.3934202194213867 -1.405819058418274 -0.2286066859960556 0.0009135492146015167 0.0 -0.524000097669867 -0.018997628720765186 0.21099651880059014 1.2080130931216935 -2.8829881457470723 -0.0009993473889592253 0.0 0.0 0.0 0.0 0.0 0.0 8.123279056077568 2.7349433055715773 -3.3544109391505312 -0.1627331424521329 0.16339687846789389 -0.3820848074867389 -0.5240000037310102 -0.018999999974275813 0.21100001968055238 1.208000021118936 -2.882999906338287 -0.0009999510312804151 0.0 0.0 0.0 0.0 0.0 0.0 0 27.6875 28.75 28.1875 31.9375 35.375 36.125 0.669048 7 253 253 253 253 253 253 1 0.019153613597154617 0.038307227194309235 -9.27034854888916 0.0 1.0 0.0 47.6627082824707 47.72002029418945 0.3412935435771942 47.48460006713867 47.54193115234375 47.427268981933594 47.54193115234375 47.54193115234375 47.47026824951172 0 1 0.0001696480952280884
22872.264 -0.22010685908503014 -1.2989025724420191 2.031305554574984 -2.315813777167422 -1.557940764354476 3.699607440198088 0.0 0.0 0.0 0.0 0.0 0.0 0.0 0.0 0.0 0.0 0.0 0.0 -3.656744465437261e-17 -2.393341064453125 -1.4057519435882568 -0.22860422730445862 0.0009157180902548134 0.0 -4.065393327083281e-16 -26.665507048305866 -15.55823039152855 -1.833893506624559 0.007234224680942776 0.0 -0.22013599077333623 -1.298881159429886 2.031341854725973 -2.3158022365965785 -1.557962719594137 3.699591636657715 0.0 0.0 -0.0 -0.0 0.0 0.0 0.12459968775510788 -2.4385159015655518 -1.5921677350997925 -0.3518982529640198 -0.059132955968379974 0.11122847348451614 -3.656744465437261e-17 -2.393341064453125 -1.4057519435882568 -0.22860422730445862 0.0009157180902548134 0.0 -0.5239871819385759 -0.01898550163080297 0.21097371637206397 1.208006818126852 -2.88307203989169 -0.0009658214379033023 0.0 0.0 0.0 0.0 0.0 0.0 7.967268192625286 2.603148276258568 -3.5155134497375427 -0.15754334733326256 0.1553296999895959 -0.38053318111755613 -0.5240000037310102 -0.018999999974275813 0.21100001968055238 1.208000021118936 -2.882999906338287 -0.0009999510312804151 0.0 0.0 0.0 0.0 0.0 0.0 0 27.625 28.75 28.1875 31.9375 35.375 36.125 0.668208 7 253 253 253 253 253 253 1 0.1149216815829277 0.019153613597154617 -9.385271072387695 0.0 1.0 0.0 47.66001510620117 47.74509811401367 0.36143195629119873 47.513267517089844 47.584930419921875 47.455936431884766 47.57059860229492 47.57059860229492 47.513267517089844 0 1 0.00024361077521461993
22872.363999999998 -0.22010685908503014 -1.2989025724420191 2.031305554574984 -2.315813777167422 -1.557940764354476 3.699607440198088 0.0 0.0 0.0 0.0 0.0 0.0 0.0 0.0 0.0 0.0 0.0 0.0 -2.6088267359575178e-17 -2.3933584690093994 -1.4058246612548828 -0.22860820591449738 0.0009143960196524858 0.0 -2.900368544628915e-16 -26.66570031880574 -15.559033948431567 -1.8339253692698003 0.0072237801052673295 0.0 -0.22015506425966436 -1.298900083904602 2.031330410634176 -2.3158022365965785 -1.557925049458639 3.699598789215088 0.0 0.0 -0.0 -0.0 0.0 0.0 0.1944708228111267 -2.392099142074585 -1.5995347499847412 -0.35553091764450073 -0.06796826422214508 0.11294914036989212 -2.6088267359575178e-17 -2.3933584690093994 -1.4058246612548828 -0.22860820591449738 0.0009143960196524858 0.0 -0.5239915042667413 -0.018978457212955987 0.21098784076667804 1.2079515431860328 -2.8830447691090813 -0.0009453883396328572 0.0 0.0 0.0 0.0 0.0 0.0 7.8887120165130815 2.5789713320557546 -3.3103293087312444 -0.16183787026775817 0.15841368630990732 -0.38195281870972203 -0.5240000037310102 -0.018999999974275813 0.21100001968055238 1.208000021118936 -2.882999906338287 -0.0009999510312804151 0.0 0.0 0.0 0.0 0.0 0.0 0 27.625 28.75 28.1875 31.9375 35.375 36.125 0.67122 7 253 253 253 253 253 253 1 0.05746084079146385 0.038307227194309235 -9.442731857299805 0.0 1.0 0.0 47.625980377197266 47.6949462890625 0.40395522117614746 47.498931884765625 47.55626678466797 47.44160079956055 47.54193115234375 47.57059860229492 47.47026824951172 0 1 0.0001627206802368164
22872.464 -0.22010685908503014 -1.2989025724420191 2.031305554574984 -2.315813777167422 -1.557940764354476 3.699607440198088 0.0 0.0 0.0 0.0 0.0 0.0 0.0 0.0 0.0 0.0 0.0 0.0 5.802094521594351e-19 -2.393366813659668 -1.4057531356811523 -0.22860532999038696 0.000913312251213938 0.0 6.450490901489581e-18 -26.665792702605934 -15.558242961317188 -1.833902398048283 0.0072152185125225615 0.0 -0.22010451952089483 -1.2989120048335572 2.0313108603106897 -2.3157865009703578 -1.5579317251788538 3.6996071338653564 0.0 0.0 -0.0 -0.0 0.0 0.0 0.10147541016340256 -2.406775712966919 -1.582116961479187 -0.3557867407798767 -0.056921638548374176 0.10838533192873001 5.802094521594351e-19 -2.393366813659668 -1.4057531356811523 -0.22860532999038696 0.000913312251213938 0.0 -0.523995218517642 -0.019003195263954137 0.21099997049265481 1.2080088623738037 -2.8830110168533483 -0.0009674583894073177 0.0 0.0 0.0 0.0 0.0 0.0 7.962657785120167 2.650240179255897 -3.639180253202004 -0.16242693954069942 0.15917914511186423 -0.38043033303436413 -0.5240000037310102 -0.018999999974275813 0.21100001968055238 1.208000021118936 -2.882999906338287 -0.0009999510312804151 0.0 0.0 0.0 0.0 0.0 0.0 0 27.625 28.75 28.1875 31.9375 35.375 36.125 0.669205 7 253 253 253 253 253 253 1 0.05746084079146385 -0.05746084079146385 -9.442731857299805 0.0 1.0 0.0 47.651954650878906 47.72808074951172 0.39500129222869873 47.513267517089844 47.57059860229492 47.455936431884766 47.55626678466797 47.55626678466797 47.498931884765625 0 1 0.00019274814500628662
22872.564 -0.22010685908503014 -1.2989025724420191 2.031305554574984 -2.315813777167422 -1.557940764354476 3.699607440198088 0.0 0.0 0.0 0.0 0.0 0.0 0.0 0.0 0.0 0.0 0.0 0.0 -3.4058370937205314e-17 -2.393360137939453 -1.4057891368865967 -0.2286059409379959 0.0009135493310168386 0.0 -3.7864463027675147e-16 -26.66571937355846 -15.55864100020995 -1.8339072267626748 0.007217091396212188 0.0 -0.22009259859193975 -1.2989120048335572 2.031294647847311 -2.3157950840392054 -1.5579403082477015 3.6996142864227295 0.0 0.0 -0.0 -0.0 0.0 0.0 0.16933900117874146 -2.4164764881134033 -1.5901129245758057 -0.34813523292541504 -0.05447928607463837 0.12856978178024292 -3.4058370937205314e-17 -2.393360137939453 -1.4057891368865967 -0.2286059409379959 0.0009135493310168386 0.0 -0.5240013468445425 -0.01900714155384881 0.2110071990169438 1.208009993861546 -2.8829939931113295 -0.0010006278831264153 0.0 0.0 0.0 0.0 0.0 0.0 7.749555637282666 2.4813339162872534 -3.517552976386735 -0.15839751097299817 0.15511424671440666 -0.38053226087412145 -0.5240000037310102 -0.018999999974275813 0.21100001968055238 1.208000021118936 -2.882999906338287 -0.0009999510312804151 0.0 0.0 0.0 0.0 0.0 0.0 0 27.625 28.75 28.1875 31.9375 35.375 36.125 0.669948 7 253 253 253 253 253 253 1 0.038307227194309235 0.038307227194309235 -9.366117477416992 0.0 1.0 0.0 47.619712829589844 47.70390319824219 0.3972424268722534 47.513267517089844 47.54193115234375 47.455936431884766 47.55626678466797 47.55626678466797 47.48460006713867 0 1 0.000133514404296875
22872.664 -0.22010685908503014 -1.2989025724420191 2.031305554574984 -2.315813777167422 -1.557940764354476 3.699607440198088 0.0 0.0 0.0 0.0 0.0 0.0 0.0 0.0 0.0 0.0 0.0 0.0 2.3017855643839595e-17 -2.3934123516082764 -1.4057554006576538 -0.22860442101955414 0.0009143966599367559 0.0 2.559014796281024e-16 -26.666300574789485 -15.558268781245587 -1.8338951127473855 0.007223785226956952 0.0 -0.22009259859193975 -1.2989120048335572 2.0313265959369105 -2.3158022365965785 -1.557925049458639 3.699610710144043 0.0 0.0 -0.0 -0.0 0.0 0.0 0.16410157084465027 -2.4257633686065674 -1.600904107093811 -0.34870192408561707 -0.05473746731877327 0.09029598534107208 2.3017855643839595e-17 -2.3934123516082764 -1.4057554006576538 -0.22860442101955414 0.0009143966599367559 0.0 -0.5239911010592521 -0.019011006620409963 0.21099538621453562 1.2080195233380282 -2.883002345075991 -0.0009587081011857975 0.0 0.0 0.0 0.0 0.0 0.0 7.989704755758923 2.539444006066421 -3.3979646731713933 -0.15866364148566586 0.16011588339988214 -0.3774181134407643 -0.5240000037310102 -0.018999999974275813 0.21100001968055238 1.208000021118936 -2.882999906338287 -0.0009999510312804151 0.0 0.0 0.0 0.0 0.0 0.0 0 27.625 28.75 28.1875 31.9375 35.4375 36.125 0.666888 7 253 253 253 253 253 253 1 0.0 0.019153613597154617 -9.308655738830566 0.0 1.0 0.0 47.64120864868164 47.72897720336914 0.3793398439884186 47.498931884765625 47.55626678466797 47.427268981933594 47.5275993347168 47.55626678466797 47.47026824951172 0 1 0.00021457672119140625
22872.764 -0.22010685908503014 -1.2989025724420191 2.031305554574984 -2.315813777167422 -1.557940764354476 3.699607440198088 0.0 0.0 0.0 0.0 0.0 0.0 0.0 0.0 0.0 0.0 0.0 0.0 -1.1799704141108726e-17 -2.393347978591919 -1.4057893753051758 -0.228606179356575 0.0009133120765909553 0.0 -1.311834658726656e-16 -26.665584172702694 -15.55864471665084 -1.833909104086726 0.007215217379482694 0.0 -0.22009641328920537 -1.2988846164992829 2.031294647847311 -2.315824647943014 -1.557936970387594 3.699583053588867 0.0 0.0 -0.0 -0.0 0.0 0.0 0.16275262832641602 -2.4456655979156494 -1.5988904237747192 -0.35402894020080566 -0.05350090563297272 0.1083710640668869 -1.1799704141108726e-17 -2.393347978591919 -1.4057893753051758 -0.228606179356575 0.0009133120765909553 0.0 -0.5240056237942646 -0.0190045689501305 0.21099629651565813 1.2080483496341243 -2.8829739182085476 -0.0009987628880387528 0.0 0.0 0.0 0.0 0.0 0.0 7.862049655505021 2.794220070724947 -3.523450560443051 -0.16653717005858693 0.15712868082913128 -0.3756906341176311 -0.5240000037310102 -0.018999999974275813 0.21100001968055238 1.208000021118936 -2.882999906338287 -0.0009999510312804151 0.0 0.0 0.0 0.0 0.0 0.0 0 27.625 28.75 28.1875 31.9375 35.4375 36.125 0.668353 7 253 253 253 253 253 253 1 0.0 0.1149216815829277 -9.308655738830566 0.0 1.0 0.0 47.654640197753906 47.72897720336914 0.3345807194709778 47.5275993347168 47.59926223754883 47.455936431884766 47.584930419921875 47.584930419921875 47.513267517089844 0 1 0.000133514404296875
22872.863999999998 -0.22010685908503014 -1.2989025724420191 2.031305554574984 -2.315813777167422 -1.557940764354476 3.699607440198088 0.0 0.0 0.0 0.0 0.0 0.0 0.0 0.0 0.0 0.0 0.0 0.0 3.527349263960081e-17 -2.3933305740356445 -1.405784249305725 -0.22860687971115112 0.0009133119601756334 0.0 3.921537866989429e-16 -26.665389691405466 -15.558586778127218 -1.8339147991829687 0.007215216416332715 0.0 -0.2201011816607874 -1.2988694173148652 2.0313456694232386 -2.315810342828268 -1.5579522291766565 3.699598789215088 0.0 0.0 -0.0 -0.0 0.0 0.0 0.14165988564491272 -2.4518327713012695 -1.5935579538345337 -0.34432435035705566 -0.07499678432941437 0.11429902166128159 3.527349263960081e-17 -2.3933305740356445 -1.405784249305725 -0.22860687971115112 0.0009133119601756334 0.0 -0.5239867352475815 -0.01900477527964807 0.21096708946039583 1.2080467912019324 -2.8830552961057903 -0.0009451773594571784 0.0 0.0 0.0 0.0 0.0 0.0 8.020676780848447 2.6857037477366528 -3.326582648149383 -0.16236491178964244 0.15694237650041468 -0.38198311145256203 -0.5240000037310102 -0.018999999974275813 0.21100001968055238 1.208000021118936 -2.882999906338287 -0.0009999510312804151 0.0 0.0 0.0 0.0 0.0 0.0 0 27.625 28.75 28.1875 31.9375 35.4375 36.125 0.669768 7 253 253 253 253 253 253 1 0.019153613597154617 0.09576806426048279 -9.366117477416992 0.0 1.0 0.0 47.64747619628906 47.7244987487793 0.4061910808086395 47.498931884765625 47.57059860229492 47.44160079956055 47.57059860229492 47.57059860229492 47.513267517089844 0 1 0.0001430511474609375
22872.964 -0.22010685908503014 -1.2989025724420191 2.031305554574984 -2.315813777167422 -1.557940764354476 3.699607440198088 0.0 0.0 0.0 0.0 0.0 0.0 0.0 0.0 0.0 0.0 0.0 0.0 -1.1129274254634497e-17 -2.3934502601623535 -1.4057936668395996 -0.22860722243785858 0.0009159886394627392 0.0 -1.237299415506585e-16 -26.666723102361725 -15.558691308817824 -1.8339174426924942 0.007236361995580368 0.0 -0.22010451952089483 -1.2989154022983094 2.0313265959369105 -2.315810342828268 -1.5579589048968714 3.6996142864227295 0.0 0.0 -0.0 -0.0 0.0 0.0 0.18237709999084473 -2.3992040157318115 -1.5887902975082397 -0.3537542521953583 -0.07445493340492249 0.10192591696977615 -1.1129274254634497e-17 -2.3934502601623535 -1.4057936668395996 -0.22860722243785858 0.0009159886394627392 0.0 -0.5239912128009204 -0.019001329002653645 0.21099790228157608 1.2080009358419013 -2.883021152170305 -0.0010124024779509858 0.0 0.0 0.0 0.0 0.0 0.0 7.90624599937709 2.760166902118688 -3.4774800923736784 -0.16123666908591516 0.15643488525880794 -0.38006213480798545 -0.5240000037310102 -0.018999999974275813 0.21100001968055238 1.208000021118936 -2.882999906338287 -0.0009999510312804151 0.0 0.0 0.0 0.0 0.0 0.0 0 27.625 28.75 28.1875 31.9375 35.4375 36.125 0.667536 7 253 253 253 253 253 253 1 0.019153613597154617 0.0 -9.385271072387695 0.0 1.0 0.0 47.63404083251953 47.705692291259766 0.3189139664173126 47.48460006713867 47.54193115234375 47.427268981933594 47.5275993347168 47.54193115234375 47.47026824951172 0 1 0.0001800060272216797
22873.064 -0.22010685908503014 -1.2989025724420191 2.031305554574984 -2.315813777167422 -1.557940764354476 3.699607440198088 0.0 0.0 0.0 0.0 0.0 0.0 0.0 0.0 0.0 0.0 0.0 0.0 -2.27005193823622e-17 -2.393324851989746 -1.405778408050537 -0.22860479354858398 0.000914396601729095 0.0 -2.523734988944627e-16 -26.665325923455526 -15.55852301017728 -1.8338981129900664 0.007223784720152234 0.0 -0.22012025514711553 -1.2988880437663575 2.031294647847311 -2.3158136806883753 -1.5579217115985315 3.6995952129364014 0.0 0.0 -0.0 -0.0 0.0 0.0 0.11531343311071396 -2.4137165546417236 -1.5492082834243774 -0.35612690448760986 -0.06608308851718903 0.11576809734106064 -2.27005193823622e-17 -2.393324851989746 -1.405778408050537 -0.22860479354858398 0.000914396601729095 0.0 -0.5240051919699927 -0.01899382609618534 0.21099693855871188 1.2079954418605148 -2.8829932100993836 -0.0009726249469515138 0.0 0.0 0.0 0.0 0.0 0.0 7.652958234969335 2.5861904548257817 -3.4490431470914653 -0.15903694553461947 0.15395211721919735 -0.3760509306948079 -0.5240000037310102 -0.018999999974275813 0.21100001968055238 1.208000021118936 -2.882999906338287 -0.0009999510312804151 0.0 0.0 0.0 0.0 0.0 0.0 0 27.625 28.8125 28.1875 31.9375 35.4375 36.125 0.670764 7 253 253 253 253 253 253 1 0.07661445438861847 0.038307227194309235 -9.289502143859863 0.0 1.0 0.0 47.623294830322266 47.70927429199219 0.43752455711364746 47.513267517089844 47.57059860229492 47.455936431884766 47.55626678466797 47.57059860229492 47.48460006713867 0 1 0.0002956390380859375
22873.164 -0.22010685908503014 -1.2989025724420191 2.031305554574984 -2.315813777167422 -1.557940764354476 3.699607440198088 0.0 0.0 0.0 0.0 0.0 0.0 0.0 0.0 0.0 0.0 0.0 0.0 -1.2554395607861281e-17 -2.393385171890259 -1.4057838916778564 -0.22860585153102875 0.0009133121347986162 0.0 -1.3957376148504104e-16 -26.665997684311932 -15.558583297889708 -1.8339065372156782 0.007215217813314438 0.0 -0.22012025514711553 -1.2989154321006318 2.03131610551943 -2.3158451519408167 -1.557955567036764 3.6996142864227295 0.0 0.0 -0.0 -0.0 0.0 0.0 0.17686623334884644 -2.3926007747650146 -1.5961999893188477 -0.35284850001335144 -0.06369346380233765 0.10691297799348831 -1.2554395607861281e-17 -2.393385171890259 -1.4057838916778564 -0.22860585153102875 0.0009133121347986162 0.0 -0.5239986267480671 -0.018991844789809625 0.21100555924444855 1.207963759756233 -2.8829945541575825 -0.0010493327109827174 0.0 0.0 0.0 0.0 0.0 0.0 7.836245046108069 2.658249402573462 -3.4015886709068552 -0.1606658457030013 0.15503438476815654 -0.37697152083067925 -0.5240000037310102 -0.018999999974275813 0.21100001968055238 1.208000021118936 -2.882999906338287 -0.0009999510312804151 0.0 0.0 0.0 0.0 0.0 0.0 0 27.625 28.8125 28.1875 31.9375 35.375 36.125 0.670021 7 253 253 253 253 253 253 1 0.07661445438861847 0.019153613597154617 -9.404424667358398 0.0 1.0 0.0 47.638519287109375 47.71733474731445 0.4129091799259186 47.5275993347168 47.55626678466797 47.455936431884766 47.57059860229492 47.57059860229492 47.498931884765625 0 1 0.000133514404296875
22873.264 -0.22010685908503014 -1.2989025724420191 2.031305554574984 -2.315813777167422 -1.557940764354476 3.699607440198088 0.0 0.0 0.0 0.0 0.0 0.0 0.0 0.0 0.0 0.0 0.0 0.0 2.0760827168039654e-18 -2.393434762954712 -1.4057780504226685 -0.2286055088043213 0.0009124651551246643 0.0 2.3080892596780423e-17 -26.666550602437127 -15.558518808893227 -1.8339038430396413 0.00720852648363929 0.0 -0.22012406984438115 -1.298893229370453 2.0313146750079554 -2.315782686273092 -1.5579593817340296 3.6995952129364014 0.0 0.0 -0.0 -0.0 0.0 0.0 0.21476095914840698 -2.439418315887451 -1.624398112297058 -0.3486432433128357 -0.053429536521434784 0.10406018048524857 2.0760827168039654e-18 -2.393434762954712 -1.4057780504226685 -0.2286055088043213 0.0009124651551246643 0.0 -0.5239941634488496 -0.018990452807453744 0.2109885402598215 1.2080119568733463 -2.883050399574143 -0.0009792527861839132 0.0 0.0 0.0 0.0 0.0 0.0 7.729782662982206 2.5879939926638107 -3.342183805179488 -0.15977958229595898 0.1561387290709964 -0.3810974237808585 -0.5240000037310102 -0.018999999974275813 0.21100001968055238 1.208000021118936 -2.882999906338287 -0.0009999510312804151 0.0 0.0 0.0 0.0 0.0 0.0 0 27.625 28.8125 28.1875 32.0 35.375 36.125 0.669912 7 253 253 253 253 253 253 1 0.1149216815829277 0.0 -9.366117477416992 0.0 1.0 0.0 47.64299774169922 47.734352111816406 0.3524833023548126 47.513267517089844 47.584930419921875 47.455936431884766 47.55626678466797 47.57059860229492 47.498931884765625 0 1 0.0001800060272216797
22873.363999999998 -0.22010685908503014 -1.2989025724420191 2.031305554574984 -2.315813777167422 -1.557940764354476 3.699607440198088 0.0 0.0 0.0 0.0 0.0 0.0 0.0 0.0 0.0 0.0 0.0 0.0 7.964163593651392e-18 -2.39335298538208 -1.4057514667510986 -0.22860300540924072 0.0009146340889856219 0.0 8.854175935635274e-17 -26.66563937390315 -15.558224987480925 -1.8338836885391911 0.007225660854692982 0.0 -0.22012406984438115 -1.2989154022983094 2.031341854725973 -2.3158332310118617 -1.5579336325274866 3.6995952129364014 0.0 0.0 -0.0 -0.0 0.0 0.0 0.12459012120962143 -2.376213312149048 -1.6143146753311157 -0.34816187620162964 -0.05696224048733711 0.10477931052446365 7.964163593651392e-18 -2.39335298538208 -1.4057514667510986 -0.22860300540924072 0.0009146340889856219 0.0 -0.5239889519948463 -0.018994271170283808 0.21099424312762702 1.2079925849040911 -2.8830020740836426 -0.0009874876305092993 0.0 0.0 0.0 0.0 0.0 0.0 7.946659067179114 2.962647090365932 -3.431443472888225 -0.16712201725799564 0.1591389032489208 -0.37757200912601524 -0.5240000037310102 -0.018999999974275813 0.21100001968055238 1.208000021118936 -2.882999906338287 -0.0009999510312804151 0.0 0.0 0.0 0.0 0.0 0.0 0 27.625 28.8125 28.1875 32.0 35.375 36.125 0.671088 7 253 253 253 253 253 253 1 0.0 0.05746084079146385 -9.346963882446289 0.0 1.0 0.0 47.64657974243164 47.72629165649414 0.3994782567024231 47.513267517089844 47.55626678466797 47.44160079956055 47.54193115234375 47.57059860229492 47.48460006713867 0 1 0.00021817946011045328
22873.464 -0.22010685908503014 -1.2989025724420191 2.031305554574984 -2.315813777167422 -1.557940764354476 3.699607440198088 0.0 0.0 0.0 0.0 0.0 0.0 0.0 0.0 0.0 0.0 0.0 0.0 -1.3573199226757118e-17 -2.393394708633423 -1.4057254791259766 -0.22860199213027954 0.0009127029334194958 0.0 -1.509003232788531e-16 -26.66610372371302 -15.557936575887444 -1.8338755718254853 0.007210404945190739 0.0 -0.22012836137880498 -1.2989154022983094 2.031323258076803 -2.3157950840392054 -1.557917896901266 3.699598789215088 0.0 0.0 -0.0 -0.0 0.0 0.0 0.17807745933532715 -2.4540905952453613 -1.5492082834243774 -0.34786975383758545 -0.05853687599301338 0.09692922979593277 -1.3573199226757118e-17 -2.393394708633423 -1.4057254791259766 -0.22860199213027954 0.0009127029334194958 0.0 -0.5239922649700468 -0.01899288370882092 0.21099770327667647 1.2079837137094638 -2.8830132610782377 -0.0009498012616755959 0.0 0.0 0.0 0.0 0.0 0.0 7.788817731632203 2.753308029830359 -3.6295542785016304 -0.1628220365738222 0.15078331913734028 -0.3789167558077427 -0.5240000037310102 -0.018999999974275813 0.21100001968055238 1.208000021118936 -2.882999906338287 -0.0009999510312804151 0.0 0.0 0.0 0.0 0.0 0.0 0 27.625 28.8125 28.1875 32.0 35.375 36.125 0.671689 7 253 253 253 253 253 253 1 0.07661445438861847 0.05746084079146385 -9.366117477416992 0.0 1.0 0.0 47.633148193359375 47.71464920043945 0.46214526891708374 47.48460006713867 47.5275993347168 47.427268981933594 47.54193115234375 47.54193115234375 47.455936431884766 0 1 0.00024361077521461993
22873.564 -0.22010685908503014 -1.2989025724420191 2.031305554574984 -2.315813777167422 -1.557940764354476 3.699607440198088 0.0 0.0 0.0 0.0 0.0 0.0 0.0 0.0 0.0 0.0 0.0 0.0 4.625598286735716e-17 -2.3933675289154053 -1.405766248703003 -0.22860562801361084 0.0009133121930062771 0.0 5.142518803992272e-16 -26.665801674026024 -15.558387287603797 -1.8339047403811335 0.00721521811689904 0.0 -0.2201321760760706 -1.29889668643985 2.031318012868063 -2.315798898736471 -1.557936970387594 3.699598789215088 0.0 0.0 -0.0 -0.0 0.0 0.0 0.19299352169036865 -2.384639263153076 -1.584776759147644 -0.3546544909477234 -0.04689396545290947 0.10675980895757675 4.625598286735716e-17 -2.3933675289154053 -1.405766248703003 -0.22860562801361084 0.0009133121930062771 0.0 -0.5239950217450785 -0.01898834409097377 0.21099063966224385 1.207985349232914 -2.8830330666221413 -0.0009654671674992443 0.0 0.0 0.0 0.0 0.0 0.0 7.92673543749295 2.6574948758152233 -3.6233534080934517 -0.15856818776835366 0.1605799291531777 -0.3777519963115057 -0.5240000037310102 -0.018999999974275813 0.21100001968055238 1.208000021118936 -2.882999906338287 -0.0009999510312804151 0.0 0.0 0.0 0.0 0.0 0.0 0 27.625 28.75 28.1875 32.0 35.375 36.125 0.673296 7 253 253 253 253 253 253 1 0.05746084079146385 0.09576806426048279 -9.327810287475586 0.0 1.0 0.0 47.64120864868164 47.70748519897461 0.4084322154521942 47.513267517089844 47.55626678466797 47.427268981933594 47.54193115234375 47.5275993347168 47.48460006713867 0 1 0.0001430511474609375
22873.664 -0.22010685908503014 -1.2989025724420191 2.031305554574984 -2.315813777167422 -1.557940764354476 3.699607440198088 0.0 0.0 0.0 0.0 0.0 0.0 0.0 0.0 0.0 0.0 0.0 0.0 3.114751905290876e-17 -2.3933913707733154 -1.4057344198226929 -0.22860321402549744 0.0009137869346886873 0.0 3.4628318479743235e-16 -26.666067174239796 -15.558035380695891 -1.8338853583329762 0.007218968786950176 0.0 -0.2201011816607874 -1.2989188891700287 2.0313075224505823 -2.3157950840392054 -1.557925049458639 3.699583053588867 0.0 0.0 -0.0 -0.0 0.0 0.0 0.1928633451461792 -2.417391538619995 -1.592856764793396 -0.34726089239120483 -0.05555111914873123 0.09776153415441513 3.114751905290876e-17 -2.3933913707733154 -1.4057344198226929 -0.22860321402549744 0.0009137869346886873 0.0 -0.523996977110825 -0.019005218232325805 0.21100564675557953 1.208041193126387 -2.8829766645896404 -0.0009762022096222565 0.0 0.0 0.0 0.0 0.0 0.0 7.942438822670397 2.8763817116647026 -3.582467614985416 -0.1659424133603082 0.15981712769577852 -0.3802616060947315 -0.5240000037310102 -0.018999999974275813 0.21100001968055238 1.208000021118936 -2.882999906338287 -0.0009999510312804151 0.0 0.0 0.0 0.0 0.0 0.0 0 27.625 28.75 28.1875 32.0 35.375 36.125 0.665592 7 253 253 253 253 253 253 1 0.019153613597154617 0.07661445438861847 -9.27034854888916 0.0 1.0 0.0 47.657325744628906 47.73793411254883 0.39276546239852905 47.513267517089844 47.57059860229492 47.455936431884766 47.55626678466797 47.57059860229492 47.498931884765625 0 1 0.00029087066650390625
22873.764 -0.22010685908503014 -1.2989025724420191 2.031305554574984 -2.315813777167422 -1.557940764354476 3.699607440198088 0.0 0.0 0.0 0.0 0.0 0.0 0.0 0.0 0.0 0.0 0.0 0.0 -5.768870088508122e-18 -2.393354654312134 -1.405753254890442 -0.22860534489154816 0.0009127023513428867 0.0 -6.413553399390209e-17 -26.665658116279243 -15.55824372985702 -1.8339024309152847 0.007210400421832284 0.0 -0.22010833421816045 -1.2989275020411988 2.0313108603106897 -2.3158260784544886 -1.557955567036764 3.699610710144043 0.0 0.0 -0.0 -0.0 0.0 0.0 0.16678327322006226 -2.407635450363159 -1.5996090173721313 -0.35021427273750305 -0.048833735287189484 0.1033506914973259 -5.768870088508122e-18 -2.393354654312134 -1.405753254890442 -0.22860534489154816 0.0009127023513428867 0.0 -0.5239978475947158 -0.01899819910659665 0.21101181404936944 1.2079865189513976 -2.882986577883317 -0.001047656718876413 0.0 0.0 0.0 0.0 0.0 0.0 7.722216694657346 2.6893372365542887 -3.435432086473322 -0.1618491281741159 0.15607224341354498 -0.38178939892306213 -0.5240000037310102 -0.018999999974275813 0.21100001968055238 1.208000021118936 -2.882999906338287 -0.0009999510312804151 0.0 0.0 0.0 0.0 0.0 0.0 0 27.625 28.75 28.1875 32.0 35.375 36.125 0.668965 7 253 253 253 253 253 253 1 0.05746084079146385 0.019153613597154617 -9.404424667358398 0.0 1.0 0.0 47.65374755859375 47.73793411254883 0.41738083958625793 47.48460006713867 47.54193115234375 47.44160079956055 47.54193115234375 47.54193115234375 47.48460006713867 0 1 0.00021817946011045328
22873.863999999998 -0.22010685908503014 -1.2989025724420191 2.031305554574984 -2.315813777167422 -1.557940764354476 3.699607440198088 0.0 0.0 0.0 0.0 0.0 0.0 0.0 0.0 0.0 0.0 0.0 0.0 -1.6802255084993634e-17 -2.393347978591919 -1.4058016538619995 -0.22860687971115112 0.0009133119601756334 0.0 -1.8679942336907574e-16 -26.66558390154215 -15.558780988263898 -1.8339147991829687 0.007215216416332716 0.0 -0.22010451952089483 -1.298903540973999 2.0313108603106897 -2.3157950840392054 -1.5579026381122034 3.6996071338653564 0.0 0.0 -0.0 -0.0 0.0 0.0 0.10174574702978134 -2.392012596130371 -1.5921534299850464 -0.3463970720767975 -0.04319638013839722 0.09264171123504639 -1.6802255084993634e-17 -2.393347978591919 -1.4058016538619995 -0.22860687971115112 0.0009133119601756334 0.0 -0.5239970728001578 -0.019005759906952056 0.21099656773306813 1.2080026499342684 -2.8829953051000032 -0.0009304544983134849 0.0 0.0 0.0 0.0 0.0 0.0 7.80632830288916 2.8912651552855206 -3.443108116120488 -0.16651250799213552 0.15651387362454644 -0.3769925052863189 -0.5240000037310102 -0.018999999974275813 0.21100001968055238 1.208000021118936 -2.882999906338287 -0.0009999510312804151 0.0 0.0 0.0 0.0 0.0 0.0 0 27.625 28.75 28.1875 32.0 35.375 36.125 0.665796 7 253 253 253 253 253 253 1 -0.038307227194309235 0.05746084079146385 -9.346963882446289 0.0 1.0 0.0 47.64836883544922 47.7244987487793 0.39276546239852905 47.48460006713867 47.5275993347168 47.427268981933594 47.5275993347168 47.55626678466797 47.47026824951172 0 1 0.000133514404296875
22873.964 -0.22010685908503014 -1.2989025724420191 2.031305554574984 -2.315813777167422 -1.557940764354476 3.699607440198088 0.0 0.0 0.0 0.0 0.0 0.0 0.0 0.0 0.0 0.0 0.0 0.0 6.6106231419124966e-18 -2.3933534622192383 -1.4057520627975464 -0.228603795170784 0.0009113473352044821 0.0 7.349374259234727e-17 -26.665645796124476 -15.55823140970225 -1.8338901107605163 0.0071996956381474115 0.0 -0.2200701872455042 -1.2988880437663575 2.031323258076803 -2.3158260784544886 -1.5579217115985315 3.699598789215088 0.0 0.0 -0.0 -0.0 0.0 0.0 0.11935072392225266 -2.400041341781616 -1.6015537977218628 -0.3563942015171051 -0.06407235562801361 0.11213160306215286 6.6106231419124966e-18 -2.3933534622192383 -1.4057520627975464 -0.228603795170784 0.0009113473352044821 0.0 -0.5239953445388075 -0.01902206703699917 0.21098695503560969 1.2080674848306105 -2.882977311111965 -0.0009572351214022041 0.0 0.0 0.0 0.0 0.0 0.0 7.824379138536175 2.678852369221315 -3.257396472429264 -0.16239743852736963 0.15748431220450104 -0.38419881382171633 -0.5240000037310102 -0.018999999974275813 0.21100001968055238 1.208000021118936 -2.882999906338287 -0.0009999510312804151 0.0 0.0 0.0 0.0 0.0 0.0 0 27.625 28.75 28.1875 32.0 35.375 36.125 0.671004 7 253 253 253 253 253 253 1 0.05746084079146385 0.07661445438861847 -9.308656692504883 0.0 1.0 0.0 47.65553665161133 47.71017074584961 0.3994782567024231 47.498931884765625 47.55626678466797 47.427268981933594 47.54193115234375 47.54193115234375 47.47026824951172 0 1 0.00021817946011045328
22874.064 -0.22010685908503014 -1.2989025724420191 2.031305554574984 -2.315813777167422 -1.557940764354476 3.699607440198088 0.0 0.0 0.0 0.0 0.0 0.0 0.0 0.0 0.0 0.0 0.0 0.0 -1.7860824998247652e-19 -2.3933777809143066 -1.4057765007019043 -0.2286066859960556 0.0009148706449195743 0.0 -1.9856809748386576e-18 -26.66591607767076 -15.558501691248534 -1.8339132089947556 0.007227529564068749 0.0 -0.22010833421816045 -1.2988777619651337 2.031323258076803 -2.315798898736471 -1.5579436461078089 3.6995952129364014 0.0 0.0 -0.0 -0.0 0.0 0.0 0.20091456174850464 -2.3965442180633545 -1.6351594924926758 -0.35553330183029175 -0.05546267703175545 0.09173045307397842 -1.7860824998247652e-19 -2.3933777809143066 -1.4057765007019043 -0.2286066859960556 0.0009148706449195743 0.0 -0.5239934663182293 -0.01900041225162462 0.21097897430004048 1.2080337884042927 -2.8830383186453536 -0.0009518740951286572 0.0 0.0 0.0 0.0 0.0 0.0 7.8021250522654695 2.771827967513327 -3.2512438476183703 -0.16523955769067467 0.15621950008295535 -0.3779196478727103 -0.5240000037310102 -0.018999999974275813 0.21100001968055238 1.208000021118936 -2.882999906338287 -0.0009999510312804151 0.0 0.0 0.0 0.0 0.0 0.0 0 27.625 28.75 28.1875 32.0 35.375 36.125 0.668436 7 253 253 253 253 253 253 1 -0.038307227194309235 0.0 -9.327810287475586 0.0 1.0 0.0 47.654640197753906 47.7218132019043 0.491242915391922 47.498931884765625 47.54193115234375 47.44160079956055 47.54193115234375 47.5275993347168 47.47026824951172 0 1 9.298324584960938e-05
22874.164 -0.22010685908503014 -1.2989025724420191 2.031305554574984 -2.315813777167422 -1.557940764354476 3.699607440198088 0.0 0.0 0.0 0.0 0.0 0.0 0.0 0.0 0.0 0.0 0.0 0.0 3.250975648160804e-17 -2.39337158203125 -1.4058133363723755 -0.22860904037952423 0.0009124645148403943 0.0 3.614278890488779e-16 -26.66584856324038 -15.558909107188523 -1.8339322051377025 0.007208521687045408 0.0 -0.22012406984438115 -1.2988846164992829 2.031341854725973 -2.3158136806883753 -1.557925049458639 3.699610710144043 0.0 0.0 -0.0 -0.0 0.0 0.0 0.14514979720115662 -2.3483383655548096 -1.6223737001419067 -0.34843242168426514 -0.05116039514541626 0.11084020137786865 3.250975648160804e-17 -2.39337158203125 -1.4058133363723755 -0.22860904037952423 0.0009124645148403943 0.0 -0.5239887093373782 -0.018995207839324832 0.21097665676485972 1.2079838820628892 -2.8830448742328283 -0.0009308485865866436 0.0 0.0 0.0 0.0 0.0 0.0 7.585594707589298 2.9264158339197683 -3.3456119475945814 -0.1693060322932014 0.15397464630038427 -0.377943998138734 -0.5240000037310102 -0.018999999974275813 0.21100001968055238 1.208000021118936 -2.882999906338287 -0.0009999510312804151 0.0 0.0 0.0 0.0 0.0 0.0 0 27.625 28.75 28.1875 32.0 35.375 36.125 0.670993 7 253 253 253 253 253 253 1 0.05746084079146385 0.038307227194309235 -9.366117477416992 0.0 1.0 0.0 47.645687103271484 47.73883056640625 0.4017193913459778 47.48460006713867 47.54193115234375 47.427268981933594 47.5275993347168 47.54193115234375 47.47026824951172 0 1 0.00017642974853515625
22874.264 -0.22010685908503014 -1.2989025724420191 2.031305554574984 -2.315813777167422 -1.557940764354476 3.699607440198088 0.0 0.0 0.0 0.0 0.0 0.0 0.0 0.0 0.0 0.0 0.0 0.0 -2.44296544261206e-17 -2.3933684825897217 -1.4057916402816772 -0.22860606014728546 0.0009146335651166737 0.0 -2.7159718873790423e-16 -26.665810833727562 -15.55866953207544 -1.833908171907534 0.007225656718293146 0.0 -0.22012836137880498 -1.298900083904602 2.0313380400287073 -2.3157950840392054 -1.5579217115985315 3.69960355758667 0.0 0.0 -0.0 -0.0 0.0 0.0 0.1447451114654541 -2.4217617511749268 -1.5646761655807495 -0.34342125058174133 -0.06769666075706482 0.0988316461443901 -2.44296544261206e-17 -2.3933684825897217 -1.4057916402816772 -0.22860606014728546 0.0009146335651166737 0.0 -0.523987692212392 -0.01899352920316483 0.2109841239507073 1.2079869529206804 -2.883040900546771 -0.0009273624818960625 0.0 0.0 0.0 0.0 0.0 0.0 7.839049989097039 2.712747163890682 -3.4747954992520005 -0.1643605438678756 0.15648983047607434 -0.3808476542642092 -0.5240000037310102 -0.018999999974275813 0.21100001968055238 1.208000021118936 -2.882999906338287 -0.0009999510312804151 0.0 0.0 0.0 0.0 0.0 0.0 0 27.625 28.75 28.1875 32.0 35.375 36.125 0.669384 7 253 253 253 253 253 253 1 -0.019153613597154617 0.17238251864910126 -9.366117477416992 0.0 1.0 0.0 47.64836883544922 47.7164421081543 0.3681500554084778 47.48460006713867 47.54193115234375 47.41293716430664 47.54193115234375 47.55626678466797 47.455936431884766 0 1 0.000324249267578125
22874.363999999998 -0.22010685908503014 -1.2989025724420191 2.031305554574984 -2.315813777167422 -1.557940764354476 3.699607440198088 0.0 0.0 0.0 0.0 0.0 0.0 0.0 0.0 0.0 0.0 0.0 0.0 9.342874324249664e-18 -2.3933589458465576 -1.4058003425598145 -0.2286050170660019 0.0009135494474321604 0.0 1.0386960718568184e-16 -26.665704404528135 -15.558764948476279 -1.8338998628524392 0.0072170926403060855 0.0 -0.22012025514711553 -1.298881159429886 2.031323258076803 -2.315817495385641 -1.5579713026629847 3.699598789215088 0.0 0.0 -0.0 -0.0 0.0 0.0 0.13843268156051636 -2.370473623275757 -1.584836721420288 -0.34069928526878357 -0.04798775538802147 0.09265171736478806 9.342874324249664e-18 -2.3933589458465576 -1.4058003425598145 -0.2286050170660019 0.0009135494474321604 0.0 -0.5239947206162643 -0.01899111695090686 0.21098255576545671 1.2080106930733252 -2.883045853556774 -0.0010071409172611725 0.0 0.0 0.0 0.0 0.0 0.0 7.9403695416283995 2.7774769406380178 -3.400858912687723 -0.16165772993288738 0.15766389097626105 -0.38022191015755963 -0.5240000037310102 -0.018999999974275813 0.21100001968055238 1.208000021118936 -2.882999906338287 -0.0009999510312804151 0.0 0.0 0.0 0.0 0.0 0.0 0 27.625 28.75 28.1875 32.0 35.375 36.125 0.671532 7 253 253 253 253 253 253 1 0.0 0.09576806426048279 -9.327810287475586 0.0 1.0 0.0 47.63404083251953 47.7218132019043 0.390529602766037 47.498931884765625 47.5275993347168 47.427268981933594 47.5275993347168 47.55626678466797 47.47026824951172 0 1 9.5367431640625e-05
22874.464 -0.22010685908503014 -1.2989025724420191 2.031305554574984 -2.315813777167422 -1.557940764354476 3.699607440198088 0.0 0.0 0.0 0.0 0.0 0.0 0.0 0.0 0.0 0.0 0.0 0.0 -6.808935888741267e-17 -2.39332914352417 -1.405782699584961 -0.22860483825206757 0.0009137867018580437 0.0 -7.569848729773344e-16 -26.665373262695653 -15.558570349417405 -1.833898370473153 0.007218966591994761 0.0 -0.2201164404498499 -1.2989154321006318 2.0313037077533167 -2.3158260784544886 -1.557955567036764 3.699622631072998 0.0 0.0 -0.0 -0.0 0.0 0.0 0.13614797592163086 -2.389866352081299 -1.6116325855255127 -0.34729960560798645 -0.05869319662451744 0.0904494896531105 -6.808935888741267e-17 -2.39332914352417 -1.405782699584961 -0.22860483825206757 0.0009137867018580437 0.0 -0.5240010922017682 -0.018993263124479836 0.21100850043581854 1.2079591991381082 -2.8830023831160303 -0.0010431833377810976 0.0 0.0 0.0 0.0 0.0 0.0 7.9879709134806305 2.88224244838186 -3.3863733301275736 -0.16557052110048937 0.1617400971595864 -0.3798669515954013 -0.5240000037310102 -0.018999999974275813 0.21100001968055238 1.208000021118936 -2.882999906338287 -0.0009999510312804151 0.0 0.0 0.0 0.0 0.0 0.0 0 27.6875 28.75 28.1875 32.0 35.375 36.125 0.665437 7 253 253 253 253 253 253 1 0.019153613597154617 0.05746084079146385 -9.366117477416992 0.0 1.0 0.0 47.65374755859375 47.7164421081543 0.3189139664173126 47.48460006713867 47.54193115234375 47.39860534667969 47.5275993347168 47.55626678466797 47.455936431884766 0 1 0.00014188551479795328
22874.564 -0.22010685908503014 -1.2989025724420191 2.031305554574984 -2.315813777167422 -1.557940764354476 3.699607440198088 0.0 0.0 0.0 0.0 0.0 0.0 0.0 0.0 0.0 0.0 0.0 0.0 9.836615950340729e-18 -2.393366813659668 -1.405765414237976 -0.22860457003116608 0.0009122281917370856 0.0 1.0935878517520925e-16 -26.66579320434447 -15.558378817922243 -1.8338962706995803 0.007206654060471616 0.0 -0.22013932863344365 -1.298900083904602 2.031349484120504 -2.315824647943014 -1.5579713026629847 3.6995952129364014 0.0 0.0 -0.0 -0.0 0.0 0.0 0.15227991342544556 -2.4222288131713867 -1.5848108530044556 -0.3490605354309082 -0.05889694020152092 0.09107980877161026 9.836615950340729e-18 -2.393366813659668 -1.405765414237976 -0.22860457003116608 0.0009122281917370856 0.0 -0.5239856318705345 -0.0189832406226178 0.21098257856253694 1.2079883705349412 -2.8830553126927483 -0.0010072156749327595 0.0 0.0 0.0 0.0 0.0 0.0 8.040097774602017 2.8156677887584345 -3.4646501108708128 -0.16460534468066518 0.16235438836457128 -0.3821153297443135 -0.5240000037310102 -0.018999999974275813 0.21100001968055238 1.208000021118936 -2.882999906338287 -0.0009999510312804151 0.0 0.0 0.0 0.0 0.0 0.0 0 27.6875 28.8125 28.1875 32.0 35.375 36.125 0.669228 7 253 253 253 253 253 253 1 0.038307227194309235 0.05746084079146385 -9.327810287475586 0.0 1.0 0.0 47.64120864868164 47.7218132019043 0.3793398439884186 47.5275993347168 47.57059860229492 47.44160079956055 47.55626678466797 47.55626678466797 47.498931884765625 0 1 0.000171661376953125
22874.664 -0.22010685908503014 -1.2989025724420191 2.031305554574984 -2.315813777167422 -1.557940764354476 3.699607440198088 0.0 0.0 0.0 0.0 0.0 0.0 0.0 0.0 0.0 0.0 0.0 0.0 -1.826747484559454e-17 -2.3933889865875244 -1.405787706375122 -0.22860607504844666 0.0009124650387093425 0.0 -2.0308903905970392e-16 -26.66604067856602 -15.5586262921438 -1.8339083351139478 0.007208525725331483 0.0 -0.22013599077333623 -1.2989188593677063 2.0313075224505823 -2.315806051293844 -1.5579217115985315 3.699583053588867 0.0 0.0 -0.0 -0.0 0.0 0.0 0.10174564272165298 -2.3934524059295654 -1.5619548559188843 -0.3534128665924072 -0.06725141406059265 0.09208542853593826 -1.826747484559454e-17 -2.3933889865875244 -1.405787706375122 -0.22860607504844666 0.0009124650387093425 0.0 -0.5239987661738615 -0.018987071937357998 0.21100674299621613 1.2079869906974288 -2.882987621805133 -0.0009822573823112283 0.0 0.0 0.0 0.0 0.0 0.0 7.849354643474236 2.599133566850912 -3.4527946430414787 -0.15965810726121793 0.1575129033153123 -0.3799549721209715 -0.5240000037310102 -0.018999999974275813 0.21100001968055238 1.208000021118936 -2.882999906338287 -0.0009999510312804151 0.0 0.0 0.0 0.0 0.0 0.0 0 27.6875 28.8125 28.1875 32.0 35.375 36.125 0.667644 7 253 253 253 253 253 253 1 0.038307227194309235 0.07661445438861847 -9.308655738830566 0.0 1.0 0.0 47.63045883178711 47.72897720336914 0.3972424268722534 47.498931884765625 47.54193115234375 47.455936431884766 47.54193115234375 47.55626678466797 47.48460006713867 0 1 4.927317301432292e-05
22874.764 -0.22010685908503014 -1.2989025724420191 2.031305554574984 -2.315813777167422 -1.557940764354476 3.699607440198088 0.0 0.0 0.0 0.0 0.0 0.0 0.0 0.0 0.0 0.0 0.0 0.0 -1.0911863065514734e-17 -2.393423318862915 -1.405766487121582 -0.22860564291477203 0.0009135493892244995 0.0 -1.213128693427612e-16 -26.666422151843523 -15.558390358299624 -1.833904868423547 0.0072170917947944856 0.0 -0.22012025514711553 -1.298900083904602 2.031341854725973 -2.3158332310118617 -1.5579436461078089 3.6995952129364014 0.0 0.0 -0.0 -0.0 0.0 0.0 0.11842001229524612 -2.376692533493042 -1.5263997316360474 -0.3397524654865265 -0.05476459115743637 0.09710631519556046 -1.0911863065514734e-17 -2.393423318862915 -1.405766487121582 -0.22860564291477203 0.0009135493892244995 0.0 -0.5239893841801362 -0.018995141132282324 0.2109864645410692 1.2080049863402176 -2.883016697217354 -0.0009863696173215096 0.0 0.0 0.0 0.0 0.0 0.0 7.916069362611907 2.7587261431855916 -3.370768726149298 -0.16414609500230504 0.16165986380307248 -0.38002300387480953 -0.5240000037310102 -0.018999999974275813 0.21100001968055238 1.208000021118936 -2.882999906338287 -0.0009999510312804151 0.0 0.0 0.0 0.0 0.0 0.0 0 27.6875 28.8125 28.1875 31.9375 35.375 36.125 0.669973 7 253 253 253 253 253 253 1 0.05746084079146385 -0.038307227194309235 -9.366117477416992 0.0 1.0 0.0 47.643890380859375 47.71733474731445 0.34800633788108826 47.498931884765625 47.54193115234375 47.427268981933594 47.54193115234375 47.54193115234375 47.48460006713867 0 1 0.0001800060272216797
22874.863999999998 -0.22010685908503014 -1.2989025724420191 2.031305554574984 -2.315813777167422 -1.557940764354476 3.699607440198088 0.0 0.0 0.0 0.0 0.0 0.0 0.0 0.0 0.0 0.0 0.0 0.0 5.259312272796676e-17 -2.3933939933776855 -1.4057928323745728 -0.2286071628332138 0.00091463333228603 0.0 5.847051667945419e-16 -26.666096484240867 -15.558682097818647 -1.8339170594265104 0.007225655212914341 0.0 -0.22012406984438115 -1.298900083904602 2.0313108603106897 -2.3158136806883753 -1.557925049458639 3.699583053588867 0.0 0.0 -0.0 -0.0 0.0 0.0 0.16973555088043213 -2.37347674369812 -1.603548526763916 -0.3478681445121765 -0.05675337836146355 0.07541047036647797 5.259312272796676e-17 -2.3933939933776855 -1.4057928323745728 -0.2286071628332138 0.00091463333228603 0.0 -0.5239989086794571 -0.018992908148397488 0.21099667612623907 1.208009430995636 -2.882993113931669 -0.0009732668882538804 0.0 0.0 0.0 0.0 0.0 0.0 8.056586733872214 2.665409125410745 -3.425445288582447 -0.1626479856685796 0.1623913308040607 -0.38034468215759076 -0.5240000037310102 -0.018999999974275813 0.21100001968055238 1.208000021118936 -2.882999906338287 -0.0009999510312804151 0.0 0.0 0.0 0.0 0.0 0.0 0 27.6875 28.8125 28.1875 31.9375 35.375 36.125 0.675312 7 253 253 253 253 253 253 1 0.0 0.07661445438861847 -9.404424667358398 0.0 1.0 0.0 47.6734504699707 47.730770111083984 0.34800633788108826 47.513267517089844 47.57059860229492 47.455936431884766 47.57059860229492 47.55626678466797 47.48460006713867 0 1 5.245208740234375e-05
22874.964 -0.22010685908503014 -1.2989025724420191 2.031305554574984 -2.315813777167422 -1.557940764354476 3.699607440198088 0.0 0.0 0.0 0.0 0.0 0.0 0.0 0.0 0.0 0.0 0.0 0.0 -8.06906680437149e-17 -2.3933589458465576 -1.4057697057724 -0.22860528528690338 0.0009122280753217638 0.0 -8.970802173335239e-16 -26.665703854701125 -15.558427197923812 -1.8339019823031169 0.0072066530975769625 0.0 -0.22012025514711553 -1.298900083904602 2.0313108603106897 -2.3158332310118617 -1.5579403082477015 3.699598789215088 0.0 0.0 -0.0 -0.0 0.0 0.0 0.14770251512527466 -2.3943188190460205 -1.6028434038162231 -0.35287120938301086 -0.06875646114349365 0.09100107103586197 -8.06906680437149e-17 -2.3933589458465576 -1.4057697057724 -0.22860528528690338 0.0009122280753217638 0.0 -0.5240003844230416 -0.018993010452122823 0.21099864039777927 1.2079895939019447 -2.8829936749423295 -0.0010101633049456671 0.0 0.0 0.0 0.0 0.0 0.0 7.868794131334048 2.638574933264609 -3.278002013629357 -0.16384870649596575 0.1542705719894932 -0.3835052921108073 -0.5240000037310102 -0.018999999974275813 0.21100001968055238 1.208000021118936 -2.882999906338287 -0.0009999510312804151 0.0 0.0 0.0 0.0 0.0 0.0 0 27.625 28.8125 28.1875 32.0 35.375 36.125 0.669252 7 253 253 253 253 253 253 1 0.05746084079146385 0.05746084079146385 -9.289502143859863 0.0 1.0 0.0 47.64479064941406 47.730770111083984 0.3524833023548126 47.513267517089844 47.54193115234375 47.427268981933594 47.54193115234375 47.5275993347168 47.47026824951172 0 1 0.00029087066650390625
22875.064 -0.22010685908503014 -1.2989025724420191 2.031305554574984 -2.315813777167422 -1.557940764354476 3.699607440198088 0.0 0.0 0.0 0.0 0.0 0.0 0.0 0.0 0.0 0.0 0.0 0.0 1.1727732314063344e-16 -2.393324851989746 -1.4057908058166504 -0.2286055088043213 0.0009146336233243346 0.0 1.3038332000407265e-15 -26.665324850093945 -15.558659667049941 -1.8339038242206798 0.007225657453961391 0.0 -0.22013932863344365 -1.298877702360489 2.0312913099872034 -2.3158022365965785 -1.557917896901266 3.6996262073516846 0.0 0.0 -0.0 -0.0 0.0 0.0 0.1393725872039795 -2.4557931423187256 -1.6424899101257324 -0.3312520384788513 -0.048935551196336746 0.09504707902669907 1.1727732314063344e-16 -2.393324851989746 -1.4057908058166504 -0.2286055088043213 0.0009146336233243346 0.0 -0.5240062010550749 -0.01898407499694367 0.21099184956374106 1.2079281008949638 -2.883035358292094 -0.0009509461597169265 0.0 0.0 0.0 0.0 0.0 0.0 7.732402804992031 2.851548397927105 -3.48385515377423 -0.16551215262562488 0.15555494852739063 -0.3801903670288449 -0.5240000037310102 -0.018999999974275813 0.21100001968055238 1.208000021118936 -2.882999906338287 -0.0009999510312804151 0.0 0.0 0.0 0.0 0.0 0.0 0 27.625 28.75 28.1875 32.0 35.375 36.125 0.667272 7 253 253 253 253 253 253 1 0.05746084079146385 0.038307227194309235 -9.346963882446289 0.0 1.0 0.0 47.67703628540039 47.736141204833984 0.3681500554084778 47.513267517089844 47.57059860229492 47.455936431884766 47.57059860229492 47.57059860229492 47.498931884765625 0 1 0.000171661376953125
22875.164 -0.22010685908503014 -1.2989025724420191 2.031305554574984 -2.315813777167422 -1.557940764354476 3.699607440198088 0.0 0.0 0.0 0.0 0.0 0.0 0.0 0.0 0.0 0.0 0.0 0.0 -2.8011726981556984e-17 -2.393441915512085 -1.405742883682251 -0.2286023050546646 0.0009143970091827214 0.0 -3.114209663583929e-16 -26.66662908381124 -15.55813067473191 -1.8338780247178563 0.007223788109027201 0.0 -0.22010451952089483 -1.2988625031760712 2.0313265959369105 -2.315798421899313 -1.5579436461078089 3.6996142864227295 0.0 0.0 -0.0 -0.0 0.0 0.0 0.18143385648727417 -2.411151647567749 -1.5820811986923218 -0.34641727805137634 -0.03820925951004028 0.09967953711748123 -2.8011726981556984e-17 -2.393441915512085 -1.405742883682251 -0.2286023050546646 0.0009143970091827214 0.0 -0.5239928897775816 -0.01900253186156337 0.2109698747098559 1.2080176963668308 -2.8830619237579325 -0.0009343437403666256 0.0 0.0 0.0 0.0 0.0 0.0 7.733730435902216 2.5095242649060925 -3.2637185890023854 -0.1600549741931542 0.1533663826428015 -0.3792196067238622 -0.5240000037310102 -0.018999999974275813 0.21100001968055238 1.208000021118936 -2.882999906338287 -0.0009999510312804151 0.0 0.0 0.0 0.0 0.0 0.0 0 27.625 28.75 28.1875 32.0 35.375 36.125 0.669781 7 253 253 253 253 253 253 1 0.038307227194309235 0.038307227194309235 -9.308656692504883 0.0 1.0 0.0 47.65284729003906 47.72987747192383 0.38157567381858826 47.5275993347168 47.55626678466797 47.455936431884766 47.57059860229492 47.57059860229492 47.513267517089844 0 1 0.00029712915420532227
22875.264 -0.22010685908503014 -1.2989025724420191 2.031305554574984 -2.315813777167422 -1.557940764354476 3.699607440198088 0.0 0.0 0.0 0.0 0.0 0.0 0.0 0.0 0.0 0.0 0.0 0.0 -6.510850436223698e-17 -2.393328905105591 -1.405770182609558 -0.22860530018806458 0.000913312251213938 0.0 -7.238452110146418e-16 -26.665371259074597 -15.558431803022739 -1.8339021734391985 0.007215218550451886 0.0 -0.2201011816607874 -1.2989154321006318 2.0313108603106897 -2.3157860241331996 -1.557955567036764 3.699598789215088 0.0 0.0 -0.0 -0.0 0.0 0.0 0.17310866713523865 -2.4327337741851807 -1.5646469593048096 -0.34595608711242676 -0.05359765887260437 0.10157143324613571 -6.510850436223698e-17 -2.393328905105591 -1.405770182609558 -0.22860530018806458 0.000913312251213938 0.0 -0.5239944309456885 -0.019002668644503905 0.2110016419708387 1.208029897950151 -2.8830145193236496 -0.0010006055828148406 0.0 0.0 0.0 0.0 0.0 0.0 7.90442151770391 2.71820183928332 -3.3151975954268367 -0.16117542067892915 0.1575125106718805 -0.3785072876472954 -0.5240000037310102 -0.018999999974275813 0.21100001968055238 1.208000021118936 -2.882999906338287 -0.0009999510312804151 0.0 0.0 0.0 0.0 0.0 0.0 0 27.625 28.75 28.1875 31.9375 35.375 36.125 0.668208 7 253 253 253 253 253 253 1 0.019153613597154617 0.07661445438861847 -9.308656692504883 0.0 1.0 0.0 47.64479064941406 47.723602294921875 0.3233909606933594 47.48460006713867 47.54193115234375 47.427268981933594 47.54193115234375 47.55626678466797 47.48460006713867 0 1 0.00019274814500628662
22875.363999999998 -0.22010685908503014 -1.2989025724420191 2.031305554574984 -2.315813777167422 -1.557940764354476 3.699607440198088 0.0 0.0 0.0 0.0 0.0 0.0 0.0 0.0 0.0 0.0 0.0 0.0 -5.0470448235980135e-17 -2.3933849334716797 -1.4057836532592773 -0.22860559821128845 0.0009146336233243346 0.0 -5.611062655740399e-16 -26.665995629092734 -15.55858124267051 -1.8339044819964812 0.0072256573426912885 0.0 -0.22014314333070928 -1.2988846164992829 2.031283680592672 -2.3158136806883753 -1.5579283873187464 3.699598789215088 0.0 0.0 -0.0 -0.0 0.0 0.0 0.17632338404655457 -2.40407395362854 -1.6499210596084595 -0.344284325838089 -0.042448870837688446 0.09953681379556656 -5.0470448235980135e-17 -2.3933849334716797 -1.4057836532592773 -0.22860559821128845 0.0009146336233243346 0.0 -0.5240095100290004 -0.018980279406236724 0.21099950213769963 1.2079564226070818 -2.8830070882771937 -0.0009882234851782163 0.0 0.0 0.0 0.0 0.0 0.0 7.896768075161575 2.754318358102018 -3.394170905813068 -0.16475466041374542 0.15600153990007337 -0.37717950465427474 -0.5240000037310102 -0.018999999974275813 0.21100001968055238 1.208000021118936 -2.882999906338287 -0.0009999510312804151 0.0 0.0 0.0 0.0 0.0 0.0 0 27.625 28.75 28.1875 31.9375 35.375 36.125 0.673668 7 253 253 253 253 253 253 1 0.038307227194309235 0.13407529890537262 -9.346963882446289 0.0 1.0 0.0 47.651954650878906 47.70927429199219 0.3189139664173126 47.498931884765625 47.54193115234375 47.44160079956055 47.5275993347168 47.55626678466797 47.48460006713867 0 1 0.000171661376953125
22875.464 -0.22010685908503014 -1.2989025724420191 2.031305554574984 -2.315813777167422 -1.557940764354476 3.699607440198088 0.0 0.0 0.0 0.0 0.0 0.0 0.0 0.0 0.0 0.0 0.0 0.0 4.0139362740609295e-17 -2.3933706283569336 -1.40581214427948 -0.22860749065876007 0.000913549039978534 0.0 4.462501861131329e-16 -26.66583598562049 -15.558896529568639 -1.833919627517818 0.007217089297986539 0.0 -0.22012406984438115 -1.2989188593677063 2.0313075224505823 -2.315806051293844 -1.5579217115985315 3.699610710144043 0.0 0.0 -0.0 -0.0 0.0 0.0 0.15643638372421265 -2.3478524684906006 -1.5761288404464722 -0.33868369460105896 -0.04494558274745941 0.0994478389620781 4.0139362740609295e-17 -2.3933706283569336 -1.40581214427948 -0.22860749065876007 0.000913549039978534 0.0 -0.5239985397930899 -0.01899331848807103 0.21100674299621613 1.2079643031064664 -2.882997114605256 -0.0009817700458549614 0.0 0.0 0.0 0.0 0.0 0.0 7.888616070161237 2.4457229567654637 -3.409402197862091 -0.15837698868258562 0.15876723457145447 -0.38002962735966733 -0.5240000037310102 -0.018999999974275813 0.21100001968055238 1.208000021118936 -2.882999906338287 -0.0009999510312804151 0.0 0.0 0.0 0.0 0.0 0.0 0 27.625 28.75 28.1875 31.9375 35.375 36.125 0.669205 7 253 253 253 253 253 253 1 0.07661445438861847 -0.019153613597154617 -9.385271072387695 0.0 1.0 0.0 47.656429290771484 47.723602294921875 0.3659089207649231 47.513267517089844 47.55626678466797 47.427268981933594 47.55626678466797 47.55626678466797 47.498931884765625 0 1 9.417533874511719e-05
22875.564 -0.22010685908503014 -1.2989025724420191 2.031305554574984 -2.315813777167422 -1.557940764354476 3.699607440198088 0.0 0.0 0.0 0.0 0.0 0.0 0.0 0.0 0.0 0.0 0.0 0.0 -4.8221840458815985e-17 -2.39337158203125 -1.4057704210281372 -0.22860632836818695 0.0009137864108197391 0.0 -5.361073371785542e-16 -26.66584851762044 -15.558434131198215 -1.8339103868988618 0.007218964561095255 0.0 -0.22014314333070928 -1.298900083904602 2.0313075224505823 -2.315806051293844 -1.557955567036764 3.699598789215088 0.0 0.0 -0.0 -0.0 0.0 0.0 0.08817990869283676 -2.3947365283966064 -1.5874764919281006 -0.3569541573524475 -0.05881687253713608 0.09488031268119812 -4.8221840458815985e-17 -2.39337158203125 -1.4057704210281372 -0.22860632836818695 0.0009137864108197391 0.0 -0.5239990527821685 -0.018979839989400747 0.21099719162404618 1.2079670858369107 -2.883033763547056 -0.0010083734628668832 0.0 0.0 0.0 0.0 0.0 0.0 7.798034323890741 2.742161876451893 -3.7087437552400635 -0.16267263145838812 0.15729510197501403 -0.3796064657720168 -0.5240000037310102 -0.018999999974275813 0.21100001968055238 1.208000021118936 -2.882999906338287 -0.0009999510312804151 0.0 0.0 0.0 0.0 0.0 0.0 0 27.625 28.75 28.1875 31.9375 35.375 36.125 0.67356 7 253 253 253 253 253 253 1 0.0 0.05746084079146385 -9.327810287475586 0.0 1.0 0.0 47.625083923339844 47.71464920043945 0.3770987093448639 47.513267517089844 47.55626678466797 47.44160079956055 47.54193115234375 47.55626678466797 47.48460006713867 0 1 0.0001164541996937866
22875.664 -0.22010685908503014 -1.2989025724420191 2.031305554574984 -2.315813777167422 -1.557940764354476 3.699607440198088 0.0 0.0 0.0 0.0 0.0 0.0 0.0 0.0 0.0 0.0 0.0 0.0 -5.049535298986288e-17 -2.393413543701172 -1.4057443141937256 -0.22860461473464966 0.000914396601729095 0.0 -5.613831311968675e-16 -26.66631391161709 -15.55814557647382 -1.8338966048538068 0.007223784974937731 0.0 -0.22012025514711553 -1.29889668643985 2.031341854725973 -2.315798421899313 -1.5579283873187464 3.699617862701416 0.0 0.0 -0.0 -0.0 0.0 0.0 0.14797472953796387 -2.4035942554473877 -1.6150410175323486 -0.3452087938785553 -0.057553354650735855 0.0849752426147461 -5.049535298986288e-17 -2.393413543701172 -1.4057443141937256 -0.22860461473464966 0.000914396601729095 0.0 -0.5239865293715918 -0.0189973248053252 0.21098123441014116 1.207980661664695 -2.8830511311774085 -0.0009320921814912897 0.0 0.0 0.0 0.0 0.0 0.0 7.985882194983408 2.8365812927714873 -3.5909168465408436 -0.16643389462521457 0.15897129414264577 -0.37825457048310734 -0.5240000037310102 -0.018999999974275813 0.21100001968055238 1.208000021118936 -2.882999906338287 -0.0009999510312804151 0.0 0.0 0.0 0.0 0.0 0.0 0 27.625 28.75 28.25 31.9375 35.375 36.125 0.669636 7 253 253 253 253 253 253 1 0.019153613597154617 0.1149216815829277 -9.346963882446289 0.0 1.0 0.0 47.620609283447266 47.711063385009766 0.38157567381858826 47.513267517089844 47.54193115234375 47.44160079956055 47.54193115234375 47.55626678466797 47.48460006713867 0 1 0.0002142786979675293
22875.764 -0.22010685908503014 -1.2989025724420191 2.031305554574984 -2.315813777167422 -1.557940764354476 3.699607440198088 0.0 0.0 0.0 0.0 0.0 0.0 0.0 0.0 0.0 0.0 0.0 0.0 8.123120079551625e-17 -2.3934004306793213 -1.4057868719100952 -0.2286042422056198 0.0009122282499447465 0.0 9.030895463445593e-16 -26.666167322837765 -15.558616394226192 -1.8338936554863674 0.007206654501076795 0.0 -0.22012025514711553 -1.2989154321006318 2.031330410634176 -2.3158022365965785 -1.5579403082477015 3.6996262073516846 0.0 0.0 -0.0 -0.0 0.0 0.0 0.1037573590874672 -2.4553654193878174 -1.583495020866394 -0.36446064710617065 -0.060097649693489075 0.08979494124650955 8.123120079551625e-17 -2.3934004306793213 -1.4057868719100952 -0.2286042422056198 0.0009122282499447465 0.0 -0.523989789401553 -0.018995366647357015 0.21099561442431936 1.2079606990059477 -2.8830368866031586 -0.000977965490385136 0.0 0.0 0.0 0.0 0.0 0.0 7.860545096746419 2.623422057207981 -3.6603009003724885 -0.1635509709795003 0.15989143692428104 -0.3778353653136964 -0.5240000037310102 -0.018999999974275813 0.21100001968055238 1.208000021118936 -2.882999906338287 -0.0009999510312804151 0.0 0.0 0.0 0.0 0.0 0.0 0 27.6875 28.75 28.25 31.9375 35.4375 36.125 0.670285 7 253 253 253 253 253 253 1 0.09576806426048279 0.0 -9.327810287475586 0.0 1.0 0.0 47.619712829589844 47.686885833740234 0.3345807194709778 47.47026824951172 47.5275993347168 47.41293716430664 47.513267517089844 47.5275993347168 47.455936431884766 0 1 0.000171661376953125
22875.863999999998 -0.22010685908503014 -1.2989025724420191 2.031305554574984 -2.315813777167422 -1.557940764354476 3.699607440198088 0.0 0.0 0.0 0.0 0.0 0.0 0.0 0.0 0.0 0.0 0.0 0.0 -9.427074362290417e-17 -2.3933610916137695 -1.4057722091674805 -0.22860340774059296 0.0009133125422522426 0.0 -1.0480570002251177e-15 -26.665729100957478 -15.558453631505262 -1.8338868511373145 0.007215221134808523 0.0 -0.22012025514711553 -1.298881159429886 2.031294647847311 -2.3158298931517542 -1.557925049458639 3.699575901031494 0.0 0.0 -0.0 -0.0 0.0 0.0 0.08696594089269638 -2.3660085201263428 -1.6150213479995728 -0.35050278902053833 -0.05463552102446556 0.09816262871026993 -9.427074362290417e-17 -2.3933610916137695 -1.4057722091674805 -0.22860340774059296 0.0009133125422522426 0.0 -0.5240070021817027 -0.01899309049568262 0.2109950824899095 1.2080212229895992 -2.8829762506136722 -0.0009855509313364567 0.0 0.0 0.0 0.0 0.0 0.0 7.723382031514665 2.8470116724856593 -3.4621052068612044 -0.1685528264064163 0.1571474293853603 -0.37800996308006396 -0.5240000037310102 -0.018999999974275813 0.21100001968055238 1.208000021118936 -2.882999906338287 -0.0009999510312804151 0.0 0.0 0.0 0.0 0.0 0.0 0 27.6875 28.75 28.25 31.9375 35.4375 36.125 0.669876 7 253 253 253 253 253 253 1 0.019153613597154617 0.038307227194309235 -9.308656692504883 0.0 1.0 0.0 47.643890380859375 47.71554183959961 0.3189139664173126 47.513267517089844 47.55626678466797 47.455936431884766 47.55626678466797 47.55626678466797 47.498931884765625 0 1 0.0001164541996937866
22875.964 -0.22010685908503014 -1.2989025724420191 2.031305554574984 -2.315813777167422 -1.557940764354476 3.699607440198088 0.0 0.0 0.0 0.0 0.0 0.0 0.0 0.0 0.0 0.0 0.0 0.0 2.5368052780753833e-17 -2.3933794498443604 -1.4058210849761963 -0.22860880196094513 0.0009135488071478903 0.0 2.820298677289282e-16 -26.665934783985207 -15.558995327933347 -1.8339301505517367 0.0072170875143403755 0.0 -0.22014314333070928 -1.2988694471171875 2.0313380400287073 -2.3158260784544886 -1.5579469839679163 3.699610710144043 0.0 0.0 -0.0 -0.0 0.0 0.0 0.1624886691570282 -2.3694984912872314 -1.5874534845352173 -0.35871779918670654 -0.04938550293445587 0.09620995074510574 2.5368052780753833e-17 -2.3933794498443604 -1.4058210849761963 -0.22860880196094513 0.0009135488071478903 0.0 -0.5239918470906331 -0.01898236273604121 0.2109716957271478 1.2079608754463464 -2.883067333363828 -0.0009600185417070494 0.0 0.0 0.0 0.0 0.0 0.0 8.061471540917065 2.8469218873494895 -3.433801053364946 -0.16791182910432553 0.16395876557528039 -0.3789880517804562 -0.5240000037310102 -0.018999999974275813 0.21100001968055238 1.208000021118936 -2.882999906338287 -0.0009999510312804151 0.0 0.0 0.0 0.0 0.0 0.0 0 27.625 28.75 28.25 31.9375 35.4375 36.125 0.669972 7 253 253 253 253 253 253 1 -0.038307227194309235 0.05746084079146385 -9.366117477416992 0.0 1.0 0.0 47.654640197753906 47.718231201171875 0.3457705080509186 47.513267517089844 47.584930419921875 47.455936431884766 47.57059860229492 47.57059860229492 47.498931884765625 0 1 9.417533874511719e-05
22876.064 -0.22010685908503014 -1.2989025724420191 2.031305554574984 -2.315813777167422 -1.557940764354476 3.699607440198088 0.0 0.0 0.0 0.0 0.0 0.0 0.0 0.0 0.0 0.0 0.0 0.0 2.911144292643092e-19 -2.3934037685394287 -1.4057778120040894 -0.22860798239707947 0.0009122275514528155 0.0 3.2364707052474414e-18 -26.66620407425614 -15.558515416264015 -1.8339236235568013 0.007206649441494304 0.0 -0.2201321760760706 -1.29889668643985 2.0313108603106897 -2.3158136806883753 -1.557925049458639 3.699583053588867 0.0 0.0 -0.0 -0.0 0.0 0.0 0.12835314869880676 -2.427114248275757 -1.5653313398361206 -0.3508189618587494 -0.06256730854511261 0.10158606618642807 2.911144292643092e-19 -2.3934037685394287 -1.4057778120040894 -0.22860798239707947 0.0009122275514528155 0.0 -0.5239992227111216 -0.01898862624010939 0.21099495264375753 1.2079988014481682 -2.8830005761874844 -0.0009702954869557494 0.0 0.0 0.0 0.0 0.0 0.0 7.8937432228044475 2.5236252718410785 -3.366294303224555 -0.15881140771566493 0.1582890996416863 -0.37573953023858997 -0.5240000037310102 -0.018999999974275813 0.21100001968055238 1.208000021118936 -2.882999906338287 -0.0009999510312804151 0.0 0.0 0.0 0.0 0.0 0.0 0 27.625 28.75 28.25 31.9375 35.4375 36.125 0.667392 7 253 253 253 253 253 253 1 0.038307227194309235 0.13407529890537262 -9.404424667358398 0.0 1.0 0.0 47.64836883544922 47.711063385009766 0.39276546239852905 47.513267517089844 47.55626678466797 47.44160079956055 47.55626678466797 47.57059860229492 47.498931884765625 0 1 0.000133514404296875
22876.164 -0.22010685908503014 -1.2989025724420191 2.031305554574984 -2.315813777167422 -1.557940764354476 3.699607440198088 0.0 0.0 0.0 0.0 0.0 0.0 0.0 0.0 0.0 0.0 0.0 0.0 -1.2147546823577075e-17 -2.3934226036071777 -1.4057656526565552 -0.22860455513000488 0.0009135495638474822 0.0 -1.3505060223798062e-16 -26.666413424078293 -15.558381630534393 -1.8338961406583183 0.007217093268615342 0.0 -0.22010833421816045 -1.2989154321006318 2.0313108603106897 -2.315782686273092 -1.5579436461078089 3.699583053588867 0.0 0.0 -0.0 -0.0 0.0 0.0 0.16907250881195068 -2.4036214351654053 -1.6184020042419434 -0.35194745659828186 -0.06723474711179733 0.098146952688694 -1.2147546823577075e-17 -2.3934226036071777 -1.4057656526565552 -0.22860455513000488 0.0009135495638474822 0.0 -0.5239945044479375 -0.01900015113787664 0.21100131399295202 1.2080407275999239 -2.8830054797228373 -0.0009826607067608723 0.0 0.0 0.0 0.0 0.0 0.0 7.798170184225228 2.583280777122353 -3.3713258789266116 -0.15721342283021306 0.15819631738831622 -0.3790182106985357 -0.5240000037310102 -0.018999999974275813 0.21100001968055238 1.208000021118936 -2.882999906338287 -0.0009999510312804151 0.0 0.0 0.0 0.0 0.0 0.0 0 27.625 28.75 28.1875 32.0 35.375 36.125 0.670381 7 253 253 253 253 253 253 1 -0.019153613597154617 0.13407528400421143 -9.327810287475586 0.0 1.0 0.0 47.63493728637695 47.7218132019043 0.3659089207649231 47.498931884765625 47.55626678466797 47.44160079956055 47.54193115234375 47.54193115234375 47.48460006713867 0 1 0.0001800060272216797
22876.264 -0.22010685908503014 -1.2989025724420191 2.031305554574984 -2.315813777167422 -1.557940764354476 3.699607440198088 0.0 0.0 0.0 0.0 0.0 0.0 0.0 0.0 0.0 0.0 0.0 0.0 -1.9286989839817172e-17 -2.393312454223633 -1.4057657718658447 -0.22860504686832428 0.00091293960576877 0.0 -2.1442350042836587e-16 -26.66518753591302 -15.55838343530575 -1.833900152419655 0.007212274506221639 0.0 -0.22010833421816045 -1.2989120048335572 2.0313037077533167 -2.3158022365965785 -1.5579436461078089 3.699598789215088 0.0 0.0 -0.0 -0.0 0.0 0.0 0.1644972562789917 -2.3792407512664795 -1.6083191633224487 -0.3442573547363281 -0.05268210917711258 0.10638131201267242 -1.9286989839817172e-17 -2.393312454223633 -1.4057657718658447 -0.22860504686832428 0.00091293960576877 0.0 -0.5239990667401555 -0.01899913833717688 0.2110043610177803 1.2080109857610364 -2.882997353394831 -0.001003522355645249 0.0 0.0 0.0 0.0 0.0 0.0 7.7839755104161314 2.6618640289858098 -3.3999844035175593 -0.16349584029986383 0.15548021212530067 -0.3781480171026253 -0.5240000037310102 -0.018999999974275813 0.21100001968055238 1.208000021118936 -2.882999906338287 -0.0009999510312804151 0.0 0.0 0.0 0.0 0.0 0.0 0 27.625 28.75 28.1875 32.0 35.375 36.125 0.670908 7 253 253 253 253 253 253 1 0.019153613597154617 0.05746084079146385 -9.346963882446289 0.0 1.0 0.0 47.660911560058594 47.71733474731445 0.40395522117614746 47.513267517089844 47.55626678466797 47.455936431884766 47.57059860229492 47.584930419921875 47.498931884765625 0 1 0.00025272369384765625
22876.363999999998 -0.22010685908503014 -1.2989025724420191 2.031305554574984 -2.315813777167422 -1.557940764354476 3.699607440198088 0.0 0.0 0.0 0.0 0.0 0.0 0.0 0.0 0.0 0.0 0.0 0.0 1.262980966430774e-17 -2.393359422683716 -1.4058009386062622 -0.22860585153102875 0.0009137865272350609 0.0 1.404121801733962e-16 -26.66571107828397 -15.55877162223211 -1.8339065366082705 0.007218965212242398 0.0 -0.22009641328920537 -1.298903540973999 2.031323258076803 -2.315798421899313 -1.5579403082477015 3.699610710144043 0.0 0.0 -0.0 -0.0 0.0 0.0 0.14045163989067078 -2.4098098278045654 -1.6398555040359497 -0.35192662477493286 -0.0672922432422638 0.11195440590381622 1.262980966430774e-17 -2.393359422683716 -1.4058009386062622 -0.22860585153102875 0.0009137865272350609 0.0 -0.5239920518454729 -0.01900725339812499 0.21099200590255207 1.2080200558207979 -2.883019589552998 -0.0009701504511315658 0.0 0.0 0.0 0.0 0.0 0.0 7.873367776429126 2.6581502280567 -3.449666616983721 -0.16312476070265114 0.15352487897604236 -0.3794073066794421 -0.5240000037310102 -0.018999999974275813 0.21100001968055238 1.208000021118936 -2.882999906338287 -0.0009999510312804151 0.0 0.0 0.0 0.0 0.0 0.0 0 27.625 28.75 28.1875 32.0 35.375 36.125 0.665052 7 253 253 253 253 253 253 1 0.038307227194309235 0.07661445438861847 -9.289502143859863 0.0 1.0 0.0 47.6367301940918 47.718231201171875 0.3457705080509186 47.5275993347168 47.584930419921875 47.47026824951172 47.57059860229492 47.57059860229492 47.498931884765625 0 1 9.5367431640625e-05
22876.464 -0.22010685908503014 -1.2989025724420191 2.031305554574984 -2.315813777167422 -1.557940764354476 3.699607440198088 0.0 0.0 0.0 0.0 0.0 0.0 0.0 0.0 0.0 0.0 0.0 0.0 1.6008944209802203e-17 -2.393430233001709 -1.405773401260376 -0.228604257106781 0.0009135496220551431 0.0 1.7797977056076791e-16 -26.666499392946218 -15.55846759940232 -1.833893830286837 0.007217093658426863 0.0 -0.22012406984438115 -1.2989188891700287 2.031330410634176 -2.315789838830465 -1.557955567036764 3.6995952129364014 0.0 0.0 -0.0 -0.0 0.0 0.0 0.09515934437513351 -2.4279420375823975 -1.6055930852890015 -0.34279537200927734 -0.03841358795762062 0.11809378117322922 1.6008944209802203e-17 -2.393430233001709 -1.405773401260376 -0.228604257106781 0.0009135496220551431 0.0 -0.5239881765938306 -0.01899217875463209 0.21099610273226266 1.20800583945621 -2.883035446867309 -0.0009897808238456193 0.0 0.0 0.0 0.0 0.0 0.0 8.175708096544298 2.974819042172081 -3.5091831530295043 -0.16824472651921177 0.16388195755631615 -0.37977872552725794 -0.5240000037310102 -0.018999999974275813 0.21100001968055238 1.208000021118936 -2.882999906338287 -0.0009999510312804151 0.0 0.0 0.0 0.0 0.0 0.0 0 27.625 28.8125 28.1875 32.0 35.375 36.125 0.673249 7 253 253 253 253 253 253 1 -0.019153613597154617 0.038307227194309235 -9.385271072387695 0.0 1.0 0.0 47.62777328491211 47.71554183959961 0.38157567381858826 47.513267517089844 47.55626678466797 47.44160079956055 47.55626678466797 47.57059860229492 47.48460006713867 0 1 0.00020503997802734375
22876.564 -0.22010685908503014 -1.2989025724420191 2.031305554574984 -2.315813777167422 -1.557940764354476 3.699607440198088 0.0 0.0 0.0 0.0 0.0 0.0 0.0 0.0 0.0 0.0 0.0 0.0 -2.050555592228334e-17 -2.3933045864105225 -1.40580153465271 -0.22860711812973022 0.0009143961942754686 0.0 -2.2797095944882156e-16 -26.665100862004245 -15.558778817793552 -1.8339166747224762 0.007223781579478946 0.0 -0.22012025514711553 -1.298900083904602 2.0313075224505823 -2.3158260784544886 -1.5579522291766565 3.6996419429779053 0.0 0.0 -0.0 -0.0 0.0 0.0 0.13924235105514526 -2.401334047317505 -1.6539803743362427 -0.3487350344657898 -0.05239696428179741 0.1172616109251976 -2.050555592228334e-17 -2.3933045864105225 -1.40580153465271 -0.22860711812973022 0.0009143961942754686 0.0 -0.5240006154045853 -0.01899173650875923 0.21099921885316492 1.2079310805716366 -2.883029018277962 -0.0010214030525203105 0.0 0.0 0.0 0.0 0.0 0.0 7.945621623595965 2.7389190710300695 -3.479903758115715 -0.16372526578884575 0.15964309516451033 -0.38126756706944037 -0.5240000037310102 -0.018999999974275813 0.21100001968055238 1.208000021118936 -2.882999906338287 -0.0009999510312804151 0.0 0.0 0.0 0.0 0.0 0.0 0 27.625 28.8125 28.1875 32.0 35.375 36.125 0.66798 7 253 253 253 253 253 253 1 0.13407528400421143 0.019153613597154617 -9.385271072387695 0.0 1.0 0.0 47.645687103271484 47.72718811035156 0.4129091799259186 47.513267517089844 47.55626678466797 47.427268981933594 47.55626678466797 47.55626678466797 47.48460006713867 0 1 0.0002491474151611328
22876.664 -0.22010685908503014 -1.2989025724420191 2.031305554574984 -2.315813777167422 -1.557940764354476 3.699607440198088 0.0 0.0 0.0 0.0 0.0 0.0 0.0 0.0 0.0 0.0 0.0 0.0 -1.1294725100960006e-16 -2.3933005332946777 -1.4057661294937134 -0.22860537469387054 0.0009122279589064419 0.0 -1.2556933927376186e-15 -26.66505471252011 -15.558387154815772 -1.8339027684346332 0.007206652964980199 0.0 -0.22011214891542608 -1.298900083904602 2.0313265959369105 -2.3158561191954554 -1.5579589048968714 3.699598789215088 0.0 0.0 -0.0 -0.0 0.0 0.0 0.18211078643798828 -2.42211651802063 -1.5915318727493286 -0.3629239499568939 -0.054479122161865234 0.09341160953044891 -1.1294725100960006e-16 -2.3933005332946777 -1.4057661294937134 -0.22860537469387054 0.0009122279589064419 0.0 -0.5239964791261994 -0.018996213019506127 0.2109947592066053 1.2080031649527405 -2.882993278537943 -0.0010402115939415215 0.0 0.0 0.0 0.0 0.0 0.0 8.018191709111546 2.713259018276907 -3.6585407913851946 -0.16355934183251186 0.15899239827307926 -0.37949706011904916 -0.5240000037310102 -0.018999999974275813 0.21100001968055238 1.208000021118936 -2.882999906338287 -0.0009999510312804151 0.0 0.0 0.0 0.0 0.0 0.0 0 27.625 28.8125 28.1875 32.0 35.375 36.125 0.670932 7 253 253 253 253 253 253 1 0.019153613597154617 0.1149216815829277 -9.404424667358398 0.0 1.0 0.0 47.64031219482422 47.6949462890625 0.4218578040599823 47.498931884765625 47.55626678466797 47.41293716430664 47.5275993347168 47.55626678466797 47.47026824951172 0 1 0.000324249267578125
22876.764 -0.22010685908503014 -1.2989025724420191 2.031305554574984 -2.315813777167422 -1.557940764354476 3.699607440198088 0.0 0.0 0.0 0.0 0.0 0.0 0.0 0.0 0.0 0.0 0.0 0.0 -6.831073888911146e-17 -2.393415927886963 -1.405802607536316 -0.2286069393157959 0.0009135491563938558 0.0 -7.594460587272992e-16 -26.666341093497184 -15.558791352208441 -1.8339152320186805 0.007217090042168383 0.0 -0.22010833421816045 -1.2988812190345307 2.0313265959369105 -2.3158136806883753 -1.557917896901266 3.6995866298675537 0.0 0.0 -0.0 -0.0 0.0 0.0 0.17135712504386902 -2.3743832111358643 -1.6102654933929443 -0.3659447133541107 -0.036852553486824036 0.09415556490421295 -6.831073888911146e-17 -2.393415927886963 -1.405802607536316 -0.2286069393157959 0.0009135491563938558 0.0 -0.52399410551964 -0.019002906118754985 0.21098093179359534 1.2080361114688003 -2.8830080406503855 -0.0009325867257242264 0.0 0.0 0.0 0.0 0.0 0.0 8.059081967236766 2.7470231488857673 -3.562236001298044 -0.16154770589348005 0.15900823824066346 -0.37923889571844605 -0.5240000037310102 -0.018999999974275813 0.21100001968055238 1.208000021118936 -2.882999906338287 -0.0009999510312804151 0.0 0.0 0.0 0.0 0.0 0.0 0 27.625 28.8125 28.1875 32.0 35.375 36.1875 0.672132 7 253 253 253 253 253 253 1 0.019153613597154617 0.09576806426048279 -9.404424667358398 0.0 1.0 0.0 47.625980377197266 47.711063385009766 0.4554324448108673 47.5275993347168 47.55626678466797 47.427268981933594 47.55626678466797 47.57059860229492 47.48460006713867 0 1 9.335415597888641e-05
22876.863999999998 -0.22010685908503014 -1.2989025724420191 2.031305554574984 -2.315813777167422 -1.557940764354476 3.699607440198088 0.0 0.0 0.0 0.0 0.0 0.0 0.0 0.0 0.0 0.0 0.0 0.0 1.2584126133437662e-17 -2.393359422683716 -1.4058009386062622 -0.22860585153102875 0.000915717741008848 0.0 1.399042871413856e-16 -26.665711075807693 -15.558771619755836 -1.8339065341319989 0.007234222475983109 0.0 -0.22011214891542608 -1.2989154022983094 2.0313146750079554 -2.315798421899313 -1.5579283873187464 3.699575901031494 0.0 0.0 -0.0 -0.0 0.0 0.0 0.15872031450271606 -2.3769538402557373 -1.6049203872680664 -0.35047397017478943 -0.06219371780753136 0.12494435161352158 1.2584126133437662e-17 -2.393359422683716 -1.4058009386062622 -0.22860585153102875 0.000915717741008848 0.0 -0.5239950765305906 -0.0189996077780149 0.21100140344396207 1.2080386805755032 -2.8829862634736103 -0.0009740647017138125 0.0 0.0 0.0 0.0 0.0 0.0 7.983160095344161 2.9337574097296657 -3.784352708055792 -0.1684070580883822 0.15938061219900895 -0.381927639652316 -0.5240000037310102 -0.018999999974275813 0.21100001968055238 1.208000021118936 -2.882999906338287 -0.0009999510312804151 0.0 0.0 0.0 0.0 0.0 0.0 0 27.625 28.8125 28.1875 32.0 35.375 36.1875 0.670417 7 253 253 253 253 253 253 1 0.0 0.09576806426048279 -9.28950309753418 0.0 1.0 0.0 47.6313591003418 47.7164421081543 0.4308117628097534 47.513267517089844 47.55626678466797 47.427268981933594 47.54193115234375 47.55626678466797 47.498931884765625 0 1 0.00021457672119140625
22876.964 -0.22010685908503014 -1.2989025724420191 2.031305554574984 -2.315813777167422 -1.557940764354476 3.699607440198088 0.0 0.0 0.0 0.0 0.0 0.0 0.0 0.0 0.0 0.0 0.0 0.0 -4.977546762892533e-17 -2.393413782119751 -1.4057693481445312 -0.2286042720079422 0.0009146338561549783 0.0 -5.533797832304189e-16 -26.66631611583455 -15.558422051340473 -1.8338938930776831 0.007225659132557612 0.0 -0.22009736696352178 -1.2988691192916413 2.031323258076803 -2.3158136806883753 -1.5579403082477015 3.699598789215088 0.0 0.0 -0.0 -0.0 0.0 0.0 0.194871187210083 -2.437638998031616 -1.6055899858474731 -0.3579471707344055 -0.03049517050385475 0.1038244217634201 -4.977546762892533e-17 -2.393413782119751 -1.4057693481445312 -0.2286042720079422 0.0009146338561549783 0.0 -0.523995158125428 -0.019006085537197483 0.21097608694576175 1.2080419289220576 -2.883027381547733 -0.0009529845594738767 0.0 0.0 0.0 0.0 0.0 0.0 8.07593918889274 2.838217719395193 -3.5506852709299683 -0.1680555125279498 0.1597327289894251 -0.3796984180976217 -0.5240000037310102 -0.018999999974275813 0.21100001968055238 1.208000021118936 -2.882999906338287 -0.0009999510312804151 0.0 0.0 0.0 0.0 0.0 0.0 0 27.625 28.8125 28.1875 32.0 35.375 36.125 0.670692 7 253 253 253 253 253 253 1 -0.038307227194309235 0.05746084079146385 -9.404424667358398 0.0 1.0 0.0 47.63762283325195 47.70748519897461 0.4129091799259186 47.498931884765625 47.55626678466797 47.427268981933594 47.54193115234375 47.55626678466797 47.47026824951172 0 1 0.00014543533325195312
22877.064 -0.22010685908503014 -1.2989025724420191 2.031305554574984 -2.315813777167422 -1.557940764354476 3.699607440198088 0.0 0.0 0.0 0.0 0.0 0.0 0.0 0.0 0.0 0.0 0.0 0.0 -6.970413455712439e-17 -2.393357038497925 -1.4057425260543823 -0.22860203683376312 0.0009148714016191661 0.0 -7.749371696756697e-16 -26.665682798256178 -15.558125933030643 -1.833875857892292 0.007227535874718716 0.0 -0.22010833421816045 -1.2988726657680054 2.031341854725973 -2.3158298931517542 -1.5579403082477015 3.6996142864227295 0.0 0.0 -0.0 -0.0 0.0 0.0 0.1916443109512329 -2.398693084716797 -1.6552914381027222 -0.35374653339385986 -0.05000368133187294 0.10277868807315826 -6.970413455712439e-17 -2.393357038497925 -1.4057425260543823 -0.22860203683376312 0.0009148714016191661 0.0 -0.5239902007470162 -0.019001506400541948 0.21097222120540246 1.208003478745893 -2.8830424386631455 -0.0009539296068004547 0.0 0.0 0.0 0.0 0.0 0.0 7.61788298639379 2.9011691120022665 -3.446222712258933 -0.1659732633697821 0.1527103182126389 -0.37970665178008284 -0.5240000037310102 -0.018999999974275813 0.21100001968055238 1.208000021118936 -2.882999906338287 -0.0009999510312804151 0.0 0.0 0.0 0.0 0.0 0.0 0 27.625 28.8125 28.1875 32.0 35.375 36.125 0.668976 7 253 253 253 253 253 253 1 0.0 0.1149216815829277 -9.289502143859863 0.0 1.0 0.0 47.654640197753906 47.72092056274414 0.45095017552375793 47.513267517089844 47.57059860229492 47.44160079956055 47.57059860229492 47.54193115234375 47.498931884765625 0 1 0.00024361077521461993
22877.164 -0.22010685908503014 -1.2989025724420191 2.031305554574984 -2.315813777167422 -1.557940764354476 3.699607440198088 0.0 0.0 0.0 0.0 0.0 0.0 0.0 0.0 0.0 0.0 0.0 0.0 -1.400628038980722e-17 -2.3933207988739014 -1.405761957168579 -0.22860504686832428 0.0009135494474321604 0.0 -1.5571511663139767e-16 -26.665280925597173 -15.558341469545315 -1.83390011955225 0.007217092596961694 0.0 -0.2200854460345667 -1.2989036601832886 2.0313108603106897 -2.3158022365965785 -1.557936970387594 3.699610710144043 0.0 0.0 -0.0 -0.0 0.0 0.0 0.15294259786605835 -2.4031002521514893 -1.601575493812561 -0.3670150637626648 -0.02743438631296158 0.11832588165998459 -1.400628038980722e-17 -2.3933207988739014 -1.405761957168579 -0.22860504686832428 0.0009135494474321604 0.0 -0.5239966478961938 -0.01901226382699382 0.2109973239519446 1.2080301466212922 -2.882998835196265 -0.0009805507036902655 0.0 0.0 0.0 0.0 0.0 0.0 7.646250406948824 2.9436909972506697 -3.5375107413006877 -0.17111987726094946 0.15141709546089882 -0.38143734035099464 -0.5240000037310102 -0.018999999974275813 0.21100001968055238 1.208000021118936 -2.882999906338287 -0.0009999510312804151 0.0 0.0 0.0 0.0 0.0 0.0 0 27.625 28.8125 28.1875 32.0 35.375 36.125 0.669697 7 253 253 253 253 253 253 1 0.019153613597154617 0.07661445438861847 -9.346963882446289 0.0 1.0 0.0 47.617923736572266 47.69673538208008 0.390529602766037 47.48460006713867 47.54193115234375 47.39860534667969 47.54193115234375 47.54193115234375 47.455936431884766 0 1 0.00024361077521461993
22877.264 -0.22010685908503014 -1.2989025724420191 2.031305554574984 -2.315813777167422 -1.557940764354476 3.699607440198088 0.0 0.0 0.0 0.0 0.0 0.0 0.0 0.0 0.0 0.0 0.0 0.0 5.710066811378463e-17 -2.3933539390563965 -1.4057655334472656 -0.22860503196716309 0.0009148708777502179 0.0 6.348178486622449e-16 -26.665650698106482 -15.558379977954772 -1.8339000055544767 0.007227531799000017 0.0 -0.22011214891542608 -1.2988808316043396 2.0313313643084925 -2.315770765344137 -1.5579403082477015 3.699591636657715 0.0 0.0 -0.0 -0.0 0.0 0.0 0.10402823239564896 -2.44465708732605 -1.582140326499939 -0.3665387034416199 -0.05439075827598572 0.11510374397039413 5.710066811378463e-17 -2.3933539390563965 -1.4057655334472656 -0.22860503196716309 0.0009148708777502179 0.0 -0.5239879042813572 -0.01900000375039051 0.2109745065831475 1.2080427907937137 -2.8830617944889068 -0.000917704992592895 0.0 0.0 0.0 0.0 0.0 0.0 7.9751846222946075 2.7786305062869303 -3.383899806527012 -0.16955933388390892 0.1585694774292606 -0.3798402297481648 -0.5240000037310102 -0.018999999974275813 0.21100001968055238 1.208000021118936 -2.882999906338287 -0.0009999510312804151 0.0 0.0 0.0 0.0 0.0 0.0 0 27.625 28.8125 28.1875 32.0 35.375 36.125 0.66834 7 253 253 253 253 253 253 1 0.07661445438861847 0.05746084079146385 -9.366117477416992 0.0 1.0 0.0 47.65016555786133 47.72718811035156 0.4129091799259186 47.498931884765625 47.57059860229492 47.455936431884766 47.57059860229492 47.55626678466797 47.48460006713867 0 1 0.00016731682990211993
22877.363999999998 -0.22010685908503014 -1.2989025724420191 2.031305554574984 -2.315813777167422 -1.557940764354476 3.699607440198088 0.0 0.0 0.0 0.0 0.0 0.0 0.0 0.0 0.0 0.0 0.0 0.0 -2.3131359713132896e-17 -2.393320083618164 -1.4057871103286743 -0.22860504686832428 0.0009135494474321604 0.0 -2.571633750854153e-16 -26.665271770191477 -15.558618460449747 -1.8339001355959745 0.0072170925942526155 0.0 -0.2201011816607874 -1.298900083904602 2.031276528035299 -2.3158298931517542 -1.5579403082477015 3.6996023654937744 0.0 0.0 -0.0 -0.0 0.0 0.0 0.1356041431427002 -2.380629301071167 -1.6284462213516235 -0.359701007604599 -0.026450974866747856 0.1095786988735199 -2.3131359713132896e-17 -2.393320083618164 -1.4057871103286743 -0.22860504686832428 0.0009135494474321604 0.0 -0.5240118056326091 -0.019000355612802375 0.2110117875269221 1.2080023950987775 -2.8829609260600204 -0.0010379888721154325 0.0 0.0 0.0 0.0 0.0 0.0 7.985691413250019 2.9687206542616082 -3.5548697680898025 -0.16880621856483757 0.15875059426634733 -0.3789072127076673 -0.5240000037310102 -0.018999999974275813 0.21100001968055238 1.208000021118936 -2.882999906338287 -0.0009999510312804151 0.0 0.0 0.0 0.0 0.0 0.0 0 27.625 28.8125 28.1875 32.0 35.375 36.125 0.668064 7 253 253 253 253 253 253 1 0.05746084079146385 0.019153613597154617 -9.308656692504883 0.0 1.0 0.0 47.64836883544922 47.74151611328125 0.457673579454422 47.513267517089844 47.584930419921875 47.455936431884766 47.57059860229492 47.57059860229492 47.498931884765625 0 1 0.0001659989356994629
22877.464 -0.22010685908503014 -1.2989025724420191 2.031305554574984 -2.315813777167422 -1.557940764354476 3.699607440198088 0.0 0.0 0.0 0.0 0.0 0.0 0.0 0.0 0.0 0.0 0.0 0.0 -3.381326408681605e-17 -2.3933982849121094 -1.405784249305725 -0.2286066710948944 0.0009137863526120782 0.0 -3.7591965166635987e-16 -26.666143765343325 -15.558586900117787 -1.8339130820464518 0.007218964105072514 0.0 -0.2201011816607874 -1.2989120048335572 2.0313003698932093 -2.3158260784544886 -1.5579336325274866 3.699591636657715 0.0 0.0 -0.0 -0.0 0.0 0.0 0.11034532636404037 -2.3699429035186768 -1.6042615175247192 -0.35945335030555725 -0.03159385919570923 0.10192644596099854 -3.381326408681605e-17 -2.3933982849121094 -1.405784249305725 -0.2286066710948944 0.0009137863526120782 0.0 -0.5240026161235234 -0.019003094395457713 0.21100809021939282 1.208021209377272 -2.882962758569619 -0.0010153199054824438 0.0 0.0 0.0 0.0 0.0 0.0 7.7506634687849685 3.010512839146781 -3.418625438529328 -0.17061692045633003 0.15084886024533758 -0.37925668793501693 -0.5240000037310102 -0.018999999974275813 0.21100001968055238 1.208000021118936 -2.882999906338287 -0.0009999510312804151 0.0 0.0 0.0 0.0 0.0 0.0 0 27.625 28.75 28.1875 32.0 35.375 36.0625 0.672109 7 253 253 253 253 253 253 1 0.07661445438861847 0.1149216815829277 -9.308655738830566 0.0 1.0 0.0 47.64120864868164 47.71017074584961 0.3390524089336395 47.513267517089844 47.57059860229492 47.44160079956055 47.55626678466797 47.57059860229492 47.48460006713867 0 1 9.5367431640625e-05
22877.564 -0.22010685908503014 -1.2989025724420191 2.031305554574984 -2.315813777167422 -1.557940764354476 3.699607440198088 0.0 0.0 0.0 0.0 0.0 0.0 0.0 0.0 0.0 0.0 0.0 0.0 -2.645269005024154e-17 -2.3934032917022705 -1.4058020114898682 -0.22860591113567352 0.000912227900698781 0.0 -2.940883238918109e-16 -26.666198294229822 -15.558783907807598 -1.8339070519805039 0.007206652242193103 0.0 -0.22010451952089483 -1.2989240449718018 2.031330410634176 -2.315817495385641 -1.5579522291766565 3.6995952129364014 0.0 0.0 -0.0 -0.0 0.0 0.0 0.17282843589782715 -2.397418737411499 -1.6297796964645386 -0.35886043310165405 -0.028981845825910568 0.11875370889902115 -2.645269005024154e-17 -2.3934032917022705 -1.4058020114898682 -0.22860591113567352 0.000912227900698781 0.0 -0.5239902927122619 -0.019002217390425076 0.21100151660727642 1.2080233224141315 -2.882996995271831 -0.0010149381840143413 0.0 0.0 0.0 0.0 0.0 0.0 7.956990326826824 2.8549224895475698 -3.5121323621827383 -0.16606300023138207 0.1567017079167981 -0.37774978541721327 -0.5240000037310102 -0.018999999974275813 0.21100001968055238 1.208000021118936 -2.882999906338287 -0.0009999510312804151 0.0 0.0 0.0 0.0 0.0 0.0 0 27.625 28.75 28.1875 32.0 35.375 36.0625 0.674148 7 253 253 253 253 253 253 1 0.019153613597154617 -0.019153613597154617 -9.289502143859863 0.0 1.0 0.0 47.660911560058594 47.72808074951172 0.4196219742298126 47.5275993347168 47.57059860229492 47.44160079956055 47.57059860229492 47.57059860229492 47.498931884765625 0 1 7.428066965076141e-05
22877.664 -0.22010685908503014 -1.2989025724420191 2.031305554574984 -2.315813777167422 -1.557940764354476 3.699607440198088 0.0 0.0 0.0 0.0 0.0 0.0 0.0 0.0 0.0 0.0 0.0 0.0 -8.591863480350725e-17 -2.3934388160705566 -1.405755877494812 -0.22860224545001984 0.0009146342054009438 0.0 -9.552022483630196e-16 -26.66659563224844 -15.558272945889073 -1.8338775751274556 0.007225661885106197 0.0 -0.22013932863344365 -1.2988965076259156 2.031341854725973 -2.315817495385641 -1.5579217115985315 3.6996262073516846 0.0 0.0 -0.0 -0.0 0.0 0.0 0.14972466230392456 -2.4040396213531494 -1.6143704652786255 -0.35854679346084595 -0.04530066251754761 0.11953157931566238 -8.591863480350725e-17 -2.3934388160705566 -1.405755877494812 -0.22860224545001984 0.0009146342054009438 0.0 -0.5239888780090592 -0.01898757674194948 0.21098307709955133 1.207933983875844 -2.8830497966312643 -0.0009407837130708958 0.0 0.0 0.0 0.0 0.0 0.0 7.864284414106484 2.6701251742164556 -3.5930212867950497 -0.1642220694194316 0.15809762530129626 -0.3804884396340931 -0.5240000037310102 -0.018999999974275813 0.21100001968055238 1.208000021118936 -2.882999906338287 -0.0009999510312804151 0.0 0.0 0.0 0.0 0.0 0.0 0 27.625 28.75 28.1875 32.0 35.375 36.0625 0.673464 7 253 253 253 253 253 253 1 0.038307227194309235 0.019153613597154617 -9.346963882446289 0.0 1.0 0.0 47.65284729003906 47.7244987487793 0.40395522117614746 47.513267517089844 47.57059860229492 47.455936431884766 47.55626678466797 47.57059860229492 47.498931884765625 0 1 0.0002956390380859375
22877.764 -0.22010685908503014 -1.2989025724420191 2.031305554574984 -2.315813777167422 -1.557940764354476 3.699607440198088 0.0 0.0 0.0 0.0 0.0 0.0 0.0 0.0 0.0 0.0 0.0 0.0 -6.999939171369152e-17 -2.3933286666870117 -1.405795693397522 -0.22860679030418396 0.0009122277260757983 0.0 -7.782197416379966e-16 -26.665368828770315 -15.558714331698313 -1.8339139824155362 0.007206651071773419 0.0 -0.22012025514711553 -1.298900083904602 2.0313075224505823 -2.3158332310118617 -1.557936970387594 3.6995952129364014 0.0 0.0 -0.0 -0.0 0.0 0.0 0.17807215452194214 -2.3858935832977295 -1.60697603225708 -0.3659464120864868 -0.04564354568719864 0.10460176318883896 -6.999939171369152e-17 -2.3933286666870117 -1.405795693397522 -0.22860679030418396 0.0009122277260757983 0.0 -0.5240016336081039 -0.01899307084855163 0.21099995402814004 1.2079930083431283 -2.882987207248838 -0.0010089745014688406 0.0 0.0 0.0 0.0 0.0 0.0 7.868121701293203 2.577346721790759 -3.6326039098642804 -0.15975464438846967 0.15382207369915935 -0.3792932389979202 -0.5240000037310102 -0.018999999974275813 0.21100001968055238 1.208000021118936 -2.882999906338287 -0.0009999510312804151 0.0 0.0 0.0 0.0 0.0 0.0 0 27.625 28.75 28.1875 32.0 35.375 36.0625 0.670248 7 253 253 253 253 253 253 1 0.09576806426048279 0.1149216815829277 -9.327810287475586 0.0 1.0 0.0 47.6313591003418 47.70927429199219 0.41738083958625793 47.48460006713867 47.54193115234375 47.41293716430664 47.5275993347168 47.54193115234375 47.47026824951172 0 1 0.000514984130859375
22877.863999999998 -0.22010685908503014 -1.2989025724420191 2.031305554574984 -2.315813777167422 -1.557940764354476 3.699607440198088 0.0 0.0 0.0 0.0 0.0 0.0 0.0 0.0 0.0 0.0 0.0 0.0 8.965665075674458e-17 -2.393392562866211 -1.4057351350784302 -0.2286045402288437 0.000912465329747647 0.0 9.96759731200151e-16 -26.666081171678144 -15.558044628859033 -1.833896077867186 0.0072085277932447565 0.0 -0.22008926073183233 -1.2988965076259156 2.0313380400287073 -2.3158136806883753 -1.557936970387594 3.6995866298675537 0.0 0.0 -0.0 -0.0 0.0 0.0 0.13090568780899048 -2.4097673892974854 -1.617723822593689 -0.36682531237602234 -0.029418112710118294 0.11638862639665604 8.965665075674458e-17 -2.393392562866211 -1.4057351350784302 -0.2286045402288437 0.000912465329747647 0.0 -0.5239885743146455 -0.019012104921418548 0.2109841775661932 1.208066464907998 -2.883003840456657 -0.0009601330346342311 0.0 0.0 0.0 0.0 0.0 0.0 7.803240164742531 2.716125935274262 -3.2376627227783756 -0.1633827217797588 0.15298560716753018 -0.38030117363935445 -0.5240000037310102 -0.018999999974275813 0.21100001968055238 1.208000021118936 -2.882999906338287 -0.0009999510312804151 0.0 0.0 0.0 0.0 0.0 0.0 0 27.625 28.75 28.1875 32.0 35.375 36.125 0.671461 7 253 253 253 253 253 253 1 0.05746084079146385 0.038307227194309235 -9.366117477416992 0.0 1.0 0.0 47.625980377197266 47.71464920043945 0.424098938703537 47.498931884765625 47.55626678466797 47.455936431884766 47.54193115234375 47.55626678466797 47.48460006713867 0 1 0.00021817946011045328
22877.964 -0.22010685908503014 -1.2989025724420191 2.031305554574984 -2.315813777167422 -1.557940764354476 3.699607440198088 0.0 0.0 0.0 0.0 0.0 0.0 0.0 0.0 0.0 0.0 0.0 0.0 -1.6658471242197217e-17 -2.3933424949645996 -1.405784010887146 -0.22860665619373322 0.0009148706449195743 0.0 -1.8520090841584559e-16 -26.665523283835995 -15.558583827784135 -1.833912952316275 0.0072275296075596475 0.0 -0.22012740770448858 -1.2989155513099213 2.0313075224505823 -2.315817495385641 -1.5579283873187464 3.6995952129364014 0.0 0.0 -0.0 -0.0 0.0 0.0 0.15657660365104675 -2.356180429458618 -1.602260947227478 -0.35677018761634827 -0.052267756313085556 0.1047310009598732 -1.6658471242197217e-17 -2.3933424949645996 -1.405784010887146 -0.22860665619373322 0.0009148706449195743 0.0 -0.5239997142546851 -0.01899064546405868 0.21100621648219992 1.2079808243479109 -2.8829871795008866 -0.000997871801220037 0.0 0.0 0.0 0.0 0.0 0.0 7.928921609627842 2.6357232591906787 -3.4486234799714652 -0.1585630778964857 0.15571598178352528 -0.3831115352272363 -0.5240000037310102 -0.018999999974275813 0.21100001968055238 1.208000021118936 -2.882999906338287 -0.0009999510312804151 0.0 0.0 0.0 0.0 0.0 0.0 0 27.6875 28.75 28.1875 32.0 35.375 36.125 0.67284 7 253 253 253 253 253 253 1 -0.05746084079146385 0.038307227194309235 -9.327810287475586 0.0 1.0 0.0 47.6680793762207 47.72808074951172 0.3547191619873047 47.498931884765625 47.55626678466797 47.44160079956055 47.55626678466797 47.55626678466797 47.48460006713867 0 1 0.00020503997802734375
22878.064 -0.22010685908503014 -1.2989025724420191 2.031305554574984 -2.315813777167422 -1.557940764354476 3.699607440198088 0.0 0.0 0.0 0.0 0.0 0.0 0.0 0.0 0.0 0.0 0.0 0.0 3.934478297035821e-17 -2.393310308456421 -1.4058207273483276 -0.22860878705978394 0.0009146330994553864 0.0 4.374164538636188e-16 -26.665164731659587 -15.55899110415453 -1.8339299727102223 0.007225653021985229 0.0 -0.22011214891542608 -1.2989000541022797 2.0313108603106897 -2.3158370457091273 -1.557925049458639 3.6996023654937744 0.0 0.0 -0.0 -0.0 0.0 0.0 0.1100793406367302 -2.3757083415985107 -1.627108097076416 -0.36321818828582764 -0.042396076023578644 0.0897405669093132 3.934478297035821e-17 -2.393310308456421 -1.4058207273483276 -0.22860878705978394 0.0009146330994553864 0.0 -0.5240009292413073 -0.018998662446319307 0.21099902303798443 1.207991703278039 -2.882979886411585 -0.0009939724761481028 0.0 0.0 0.0 0.0 0.0 0.0 7.860614217888595 2.9091902915214414 -3.4417799062962677 -0.16557011012198045 0.15535233326496967 -0.38300548492581854 -0.5240000037310102 -0.018999999974275813 0.21100001968055238 1.208000021118936 -2.882999906338287 -0.0009999510312804151 0.0 0.0 0.0 0.0 0.0 0.0 0 27.6875 28.75 28.1875 32.0 35.375 36.125 0.670956 7 253 253 253 253 253 253 1 0.019153613597154617 -0.019153613597154617 -9.327810287475586 0.0 1.0 0.0 47.64120864868164 47.70927429199219 0.38157567381858826 47.48460006713867 47.54193115234375 47.41293716430664 47.54193115234375 47.54193115234375 47.455936431884766 0 1 0.00028640031814575195
