ElementForever2022/RoboticsDiffusionTransformer_UR5e/cam_and_arm/rtde_examples/test.csv
timestamp target_q_0 target_q_1 target_q_2 target_q_3 target_q_4 target_q_5 target_qd_0 target_qd_1 target_qd_2 target_qd_3 target_qd_4 target_qd_5 target_qdd_0 target_qdd_1 target_qdd_2 target_qdd_3 target_qdd_4 target_qdd_5 target_current_0 target_current_1 target_current_2 target_current_3 target_current_4 target_current_5 target_moment_0 target_moment_1 target_moment_2 target_moment_3 target_moment_4 target_moment_5 actual_q_0 actual_q_1 actual_q_2 actual_q_3 actual_q_4 actual_q_5 actual_qd_0 actual_qd_1 actual_qd_2 actual_qd_3 actual_qd_4 actual_qd_5 actual_current_0 actual_current_1 actual_current_2 actual_current_3 actual_current_4 actual_current_5 joint_control_output_0 joint_control_output_1 joint_control_output_2 joint_control_output_3 joint_control_output_4 joint_control_output_5 actual_TCP_pose_0 actual_TCP_pose_1 actual_TCP_pose_2 actual_TCP_pose_3 actual_TCP_pose_4 actual_TCP_pose_5 actual_TCP_speed_0 actual_TCP_speed_1 actual_TCP_speed_2 actual_TCP_speed_3 actual_TCP_speed_4 actual_TCP_speed_5 actual_TCP_force_0 actual_TCP_force_1 actual_TCP_force_2 actual_TCP_force_3 actual_TCP_force_4 actual_TCP_force_5 target_TCP_pose_0 target_TCP_pose_1 target_TCP_pose_2 target_TCP_pose_3 target_TCP_pose_4 target_TCP_pose_5 target_TCP_speed_0 target_TCP_speed_1 target_TCP_speed_2 target_TCP_speed_3 target_TCP_speed_4 target_TCP_speed_5 actual_digital_input_bits joint_temperatures_0 joint_temperatures_1 joint_temperatures_2 joint_temperatures_3 joint_temperatures_4 joint_temperatures_5 actual_execution_time robot_mode joint_mode_0 joint_mode_1 joint_mode_2 joint_mode_3 joint_mode_4 joint_mode_5 safety_status actual_tool_accelerometer_0 actual_tool_accelerometer_1 actual_tool_accelerometer_2 speed_scaling target_speed_fraction actual_momentum actual_main_voltage actual_robot_voltage actual_robot_current actual_joint_voltage_0 actual_joint_voltage_1 actual_joint_voltage_2 actual_joint_voltage_3 actual_joint_voltage_4 actual_joint_voltage_5 actual_digital_output_bits runtime_state joint_position_deviation_ratio
7099.398999999999 4.241664109414254 -1.5423281600924588 -2.077217218561411 -1.0926656432859012 -4.70853964950796 3.989734286492954 0.0 0.0 0.0 0.0 0.0 0.0 0.0 0.0 0.0 0.0 0.0 0.0 3.32711563831284e-17 1.534720778465271 1.6335766315460205 0.2203415185213089 0.0002584909088909626 0.0 3.694273567110731e-16 17.038546747549013 18.216747539738456 1.8270868128859221 0.0021589379379996277 0.0 4.241687774658203 -1.5423362751356144 -2.0772459506988525 -1.0926945370486756 -4.70854360262026 3.9897360801696777 0.0 0.0 -0.0 -0.0 -0.0 -0.0 -0.2769557237625122 1.4378085136413574 2.1291933059692383 0.13482549786567688 0.04796586185693741 -0.07905739545822144 3.32711563831284e-17 1.534720778465271 1.6335766315460205 0.2203415185213089 0.0002584909088909626 0.0 -0.31712541464406513 -0.32858672458416854 0.3077880382723343 -2.4838259570977748 1.9234895516316215 2.5417245327417466e-05 0.0 0.0 0.0 0.0 0.0 0.0 -0.9871417585335479 -0.7575168899048094 -0.4002433200533025 -0.07748927243822039 0.03564480094629461 -0.09807673361913227 -0.3171372472382422 -0.3285880833249618 0.30780735486496524 2.483855480942807 -1.9235556187621692 1.0864304314847722e-14 0.0 0.0 0.0 0.0 0.0 0.0 0 27.5625 28.1875 27.75 32.5 35.6875 35.8125 0.659579 7 253 253 253 253 253 253 1 0.019153613597154617 0.07661445438861847 -9.366117477416992 0.0 1.0 0.0 47.649269104003906 47.730770111083984 0.6210432648658752 47.48460006713867 47.57059860229492 47.584930419921875 47.5275993347168 47.513267517089844 47.54193115234375 0 1 0.00022590160369873047
7099.415 4.241664109414254 -1.5423281600924588 -2.077217218561411 -1.0926656432859012 -4.70853964950796 3.989734286492954 0.0 0.0 0.0 0.0 0.0 0.0 0.0 0.0 0.0 0.0 0.0 0.0 -5.790973016220029e-17 1.5347713232040405 1.633545160293579 0.22033770382404327 0.0002584909088909626 0.0 -6.430026312514315e-16 17.039108139222243 18.21639694204124 1.8270550700502668 0.0021589379589555167 0.0 4.241657733917236 -1.5423055321774264 -2.0772390365600586 -1.0926408034614106 -4.708531204854147 3.989720582962036 0.0 0.0 -0.0 -0.0 -0.0 -0.0 -0.20368747413158417 1.4420933723449707 2.11514949798584 0.15254199504852295 0.05450989305973053 -0.05390283465385437 -5.790973016220029e-17 1.5347713232040405 1.633545160293579 0.22033770382404327 0.0002584909088909626 0.0 -0.3171354414060849 -0.32858028533588235 0.3078099190644946 2.4838439552385694 -1.9235319600423588 2.06493989907349e-05 0.0 0.0 0.0 0.0 0.0 0.0 -1.077157262266386 -0.8892871489979342 -0.41488751238359084 -0.07505006999326053 0.034434779981671576 -0.09344747014692337 -0.3171372472382422 -0.3285880833249618 0.30780735486496524 2.483855480942807 -1.9235556187621692 1.0864304314847722e-14 0.0 0.0 0.0 0.0 0.0 0.0 0 27.5625 28.1875 27.75 32.5 35.6875 35.8125 0.647016 7 253 253 253 253 253 253 1 -0.019153613597154617 0.019153613597154617 -9.385271072387695 0.0 1.0 0.0 47.62866973876953 47.734352111816406 0.6434228420257568 47.455936431884766 47.55626678466797 47.57059860229492 47.498931884765625 47.498931884765625 47.54193115234375 0 1 0.00014421678012392175
7099.431 4.241664109414254 -1.5423281600924588 -2.077217218561411 -1.0926656432859012 -4.70853964950796 3.989734286492954 0.0 0.0 0.0 0.0 0.0 0.0 0.0 0.0 0.0 0.0 0.0 0.0 5.839771378404737e-17 1.534754753112793 1.633541464805603 0.22034132480621338 0.0002595726982690394 0.0 6.484209078683442e-16 17.038925920562566 18.216354490429417 1.827085128213152 0.0021679732447262207 0.0 4.241661071777344 -1.5423208729228755 -2.0772182941436768 -1.092616931801178 -4.708527509366171 3.9897360801696777 0.0 0.0 -0.0 -0.0 -0.0 -0.0 -0.1662895232439041 1.4150588512420654 2.0524046421051025 0.13186100125312805 0.05477973073720932 -0.04987034946680069 5.839771378404737e-17 1.534754753112793 1.633541464805603 0.22034132480621338 0.0002595726982690394 0.0 -0.31713873000402315 -0.3285907931974726 0.3078149131309943 2.4838101730711113 -1.9235297527276973 3.495621969085002e-05 0.0 0.0 0.0 0.0 0.0 0.0 -1.148380658984216 -0.9025859711203214 -0.4532531340685793 -0.0771429758928728 0.03474342952790029 -0.09204744690922594 -0.3171372472382422 -0.3285880833249618 0.30780735486496524 2.483855480942807 -1.9235556187621692 1.0864304314847722e-14 0.0 0.0 0.0 0.0 0.0 0.0 0 27.5625 28.1875 27.75 32.5 35.6875 35.8125 0.645672 7 253 253 253 253 253 253 1 0.05746084079146385 0.038307227194309235 -9.423578262329102 0.0 1.0 0.0 47.645687103271484 47.74151611328125 0.5941867828369141 47.48460006713867 47.584930419921875 47.584930419921875 47.5275993347168 47.5275993347168 47.55626678466797 0 1 0.0002765655517578125
7099.447 4.241664109414254 -1.5423281600924588 -2.077217218561411 -1.0926656432859012 -4.70853964950796 3.989734286492954 0.0 0.0 0.0 0.0 0.0 0.0 0.0 0.0 0.0 0.0 0.0 0.0 1.040936407827857e-17 1.534767508506775 1.6335666179656982 0.22034022212028503 0.0002587313065305352 0.0 1.1558071986959583e-16 17.039066279094712 18.21663546306885 1.8270761005532619 0.0021609457915524864 0.0 4.241687774658203 -1.5423208449831982 -2.077235460281372 -1.0926755231669922 -4.70854360262026 3.989743232727051 0.0 0.0 -0.0 -0.0 -0.0 -0.0 -0.17874176800251007 1.4473397731781006 2.1368942260742188 0.13374453783035278 0.04983726143836975 -0.06643013656139374 1.040936407827857e-17 1.534767508506775 1.6335666179656982 0.22034022212028503 0.0002587313065305352 0.0 -0.317126581367983 -0.32858903552886 0.30780137661230667 -2.483854051715906 1.923525362653612 1.2197215260062686e-05 0.0 0.0 0.0 0.0 0.0 0.0 -1.22556237583918 -0.6556598674168359 -0.5178473500345833 -0.07885117824697882 0.027742265809398477 -0.09053252042484264 -0.3171372472382422 -0.3285880833249618 0.30780735486496524 2.483855480942807 -1.9235556187621692 1.0864304314847722e-14 0.0 0.0 0.0 0.0 0.0 0.0 0 27.5625 28.1875 27.75 32.5 35.6875 35.8125 0.655992 7 253 253 253 253 253 253 1 0.07661445438861847 0.09576806426048279 -9.442731857299805 0.0 1.0 0.0 47.6394157409668 47.712860107421875 0.6031407117843628 47.455936431884766 47.57059860229492 47.57059860229492 47.513267517089844 47.498931884765625 47.5275993347168 0 1 0.00027179718017578125
7099.463 4.241664109414254 -1.5423281600924588 -2.077217218561411 -1.0926656432859012 -4.70853964950796 3.989734286492954 0.0 0.0 0.0 0.0 0.0 0.0 0.0 0.0 0.0 0.0 0.0 0.0 3.626466925321799e-18 1.5348161458969116 1.633545160293579 0.22033768892288208 0.00025932429707609117 0.0 4.0266593872167914e-17 17.039605509555305 18.21639569428406 1.8270550083757513 0.002165898490701346 0.0 4.241650581359863 -1.542320854296424 -2.0772078037261963 -1.092651442890503 -4.708527509366171 3.9897396564483643 0.0 0.0 -0.0 -0.0 -0.0 -0.0 -0.2052115648984909 1.3912739753723145 2.101083755493164 0.15064814686775208 0.05258801579475403 -0.05626662075519562 3.626466925321799e-18 1.5348161458969116 1.633545160293579 0.22033768892288208 0.00025932429707609117 0.0 -0.3171419635636473 -0.3285870062282208 0.3078161845561285 2.483815154827582 -1.9235618120633813 2.7823722063471126e-05 0.0 0.0 0.0 0.0 0.0 0.0 -0.9933345346370385 -0.9181378892132657 -0.48986257228036456 -0.07654623769004852 0.03595235922106052 -0.09337631449527792 -0.3171372472382422 -0.3285880833249618 0.30780735486496524 2.483855480942807 -1.9235556187621692 1.0864304314847722e-14 0.0 0.0 0.0 0.0 0.0 0.0 0 27.5625 28.1875 27.75 32.5 35.6875 35.8125 0.6546 7 253 253 253 253 253 253 1 0.05746084079146385 0.09576806426048279 -9.385271072387695 0.0 1.0 0.0 47.62956237792969 47.72987747192383 0.6232790946960449 47.455936431884766 47.57059860229492 47.57059860229492 47.513267517089844 47.498931884765625 47.54193115234375 0 1 0.000400543212890625
7099.478999999999 4.241664109414254 -1.5423281600924588 -2.077217218561411 -1.0926656432859012 -4.70853964950796 3.989734286492954 0.0 0.0 0.0 0.0 0.0 0.0 0.0 0.0 0.0 0.0 0.0 0.0 -4.146508179962558e-17 1.5347615480422974 1.6335479021072388 0.22033792734146118 0.0002582425076980144 0.0 -4.604088836297898e-16 17.03899898914902 18.21642755901587 1.8270569839219808 0.002156863183949008 0.0 4.241661071777344 -1.542324274112918 -2.077254295349121 -1.0926826757243653 -4.70854360262026 3.989701509475708 0.0 0.0 -0.0 -0.0 -0.0 -0.0 -0.1910126656293869 1.4364113807678223 2.0596773624420166 0.13979017734527588 0.05589696764945984 -0.059491947293281555 -4.146508179962558e-17 1.5347615480422974 1.6335479021072388 0.22033792734146118 0.0002582425076980144 0.0 -0.31713286903974514 -0.3285756785274499 0.30779071517035755 -2.483845612793262 1.9234890586276805 2.0818169541898535e-05 0.0 0.0 0.0 0.0 0.0 0.0 -1.1187476244340058 -0.926290478616233 -0.3444624326823852 -0.07720097699718 0.032388056363943686 -0.08869008473031127 -0.3171372472382422 -0.3285880833249618 0.30780735486496524 2.483855480942807 -1.9235556187621692 1.0864304314847722e-14 0.0 0.0 0.0 0.0 0.0 0.0 0 27.5625 28.1875 27.75 32.5 35.6875 35.8125 0.653748 7 253 253 253 253 253 253 1 -0.019153613597154617 0.09576806426048279 -9.385271072387695 0.0 1.0 0.0 47.649269104003906 47.743309020996094 0.6031407117843628 47.455936431884766 47.57059860229492 47.584930419921875 47.5275993347168 47.48460006713867 47.54193115234375 0 1 0.0002384185791015625
7099.495 4.241664109414254 -1.5423281600924588 -2.077217218561411 -1.0926656432859012 -4.70853964950796 3.989734286492954 0.0 0.0 0.0 0.0 0.0 0.0 0.0 0.0 0.0 0.0 0.0 0.0 -3.800721723740409e-19 1.5348353385925293 1.6335643529891968 0.2203400433063507 0.0002582425076980144 0.0 -4.220143963528151e-18 17.03981953960116 18.216609416303246 1.82707447013312 0.002156863173041102 0.0 4.2417073249816895 -1.542324261074402 -2.0772390365600586 -1.0926359754851838 -4.708527509366171 3.9897396564483643 0.0 0.0 -0.0 -0.0 -0.0 -0.0 -0.2002059370279312 1.3800048828125 2.0559628009796143 0.12810780107975006 0.03624403476715088 -0.05552035570144653 -3.800721723740409e-19 1.5348353385925293 1.6335643529891968 0.2203400433063507 0.0002582425076980144 0.0 -0.3171202680971684 -0.3285990334122266 0.3078022268747944 2.483884671058464 -1.9235028233113438 2.22739092508103e-05 0.0 0.0 0.0 0.0 0.0 0.0 -1.2738127460539852 -1.1130730451590913 -0.543507323013558 -0.07568705336368259 0.029349910108614204 -0.08726878974659616 -0.3171372472382422 -0.3285880833249618 0.30780735486496524 2.483855480942807 -1.9235556187621692 1.0864304314847722e-14 0.0 0.0 0.0 0.0 0.0 0.0 0 27.5625 28.1875 27.75 32.5 35.6875 35.8125 0.725123 7 253 253 253 253 253 253 1 0.05746084079146385 0.07661445438861847 -9.423578262329102 0.0 1.0 0.0 47.62866973876953 47.72897720336914 0.5897097587585449 47.455936431884766 47.57059860229492 47.55626678466797 47.498931884765625 47.498931884765625 47.54193115234375 0 2 0.0002384185791015625
7099.5109999999995 4.2416641095347005 -1.5423281020578354 -2.077217139738341 -1.0926657801443866 -4.708539649262174 3.9897342861248504 3.442053870850402e-08 1.65813262114423e-05 2.2520871231547234e-05 -3.9102423896844126e-05 7.022469747889106e-08 -1.0516537523321276e-07 5.916029963302825e-06 0.0028499147082357936 0.0038707752231519413 -0.006720728853151062 1.206986752255568e-05 -1.8075299417453544e-05 -6.34688331047073e-05 1.537129521369934 1.636390209197998 0.21953068673610687 0.00026018748758360744 -2.0944019070157083e-06 -0.0005710021006433231 17.04962750183447 18.22755280138629 1.826088604085035 0.002162195923936093 -3.833944975538879e-06 4.241650581359863 -1.5423123401454468 -2.0772390365600586 -1.092647836809494 -4.708547298108236 3.9897515773773193 0.0 0.0 -0.0 -0.0 -0.0 -0.0 -0.1341593712568283 1.426727294921875 2.0820353031158447 0.14166706800460815 0.06566425412893295 -0.06533494591712952 -6.34688331047073e-05 1.537129521369934 1.636390209197998 0.21953068673610687 0.00026018748758360744 -2.0944019070157083e-06 -0.31713935536620136 -0.328577546212772 0.307806246470011 2.4838155932474506 -1.92358584428051 -8.258327858301639e-06 0.0 0.0 0.0 0.0 0.0 0.0 -0.9982585525317054 -0.839728040589342 -0.34274909899296413 -0.07495002873267984 0.03688221567305876 -0.09119785693744109 -0.31713724723824854 -0.32858808332496475 0.3078074019049653 2.483855480942807 -1.9235556187621692 1.1022830979032683e-14 2.1822786597729608e-21 3.731569560419375e-21 1.3439999999999998e-05 -1.8660215145830555e-21 6.430056777697634e-21 4.2616345158731986e-21 0 27.5625 28.1875 27.75 32.5 35.6875 35.8125 0.939828 7 253 253 253 253 253 253 1 0.13407529890537262 0.038307227194309235 -9.327810287475586 1.0 1.0 7.171077117385136e-05 47.608070373535156 47.7164421081543 0.5897097587585449 47.455936431884766 47.55626678466797 47.55626678466797 47.513267517089844 47.48460006713867 47.5275993347168 0 2 0.0024477638469610845
7099.527 4.241664111627019 -1.5423270941525722 -2.0772157707894774 -1.0926681570122785 -4.7085396449935235 3.989734279732337 2.9503305700396114e-07 0.00014212489173100442 0.00019303653711475987 -0.0003351633698861336 6.019235346252045e-07 -9.014180715518321e-07 2.6506862802728535e-05 0.01276895582220731 0.017343177009490302 -0.03011230722278852 5.407881911750572e-05 -8.098683776971276e-05 -0.0002154309331672266 1.5529286861419678 1.6562905311584473 0.21290342509746552 0.00027276057517156005 -1.827899723139126e-05 -0.0025582785605370384 17.086149437922575 18.265666844720762 1.8225922176159046 0.0021714583399591717 -1.717808775224867e-05 4.241684436798096 -1.5423430831036349 -2.077242612838745 -1.0926790696433564 -4.70854360262026 3.9897360801696777 0.0 0.0 -0.0 -0.0 -0.0 -0.0 -0.15253596007823944 1.4314773082733154 2.143261194229126 0.10825440287590027 0.05026647448539734 -0.06850907951593399 -0.0002154309331672266 1.5529286861419678 1.6562905311584473 0.21290342509746552 0.00027276057517156005 -1.827899723139126e-05 -0.3171280761926786 -0.32858875689145955 0.3077881080709389 -2.4838321215107744 1.9235008356857162 2.1870845787774018e-05 0.0 0.0 0.0 0.0 0.0 0.0 -1.0785400859421532 -0.8236710943071464 -0.5424380709396168 -0.08095979368715056 0.034827223610702056 -0.0943058480427973 -0.3171372472382192 -0.32858808332490125 0.3078082188649836 2.4838554809428075 -1.9235556187621685 1.2153047429676458e-14 -5.46175792646334e-20 -1.3130453220441932e-20 0.00011519999999999998 2.755329545673826e-20 -4.1367800735122637e-20 -5.759824041329242e-20 0 27.5625 28.1875 27.75 32.5 35.6875 35.8125 0.914832 7 253 253 253 253 253 253 1 0.038307227194309235 -0.019153613597154617 -9.346963882446289 1.0 1.0 0.0007056080978149106 47.658226013183594 47.749576568603516 0.5919508934020996 47.47026824951172 47.57059860229492 47.584930419921875 47.5275993347168 47.513267517089844 47.57059860229492 0 2 0.0015596406787457616
7099.543 4.241664121119692 -1.542322521337777 -2.077209559803846 -1.0926789408751603 -4.7085396256268055 3.989734250729164 1.0178619814858398e-06 0.0004903189568201412 0.0006659838478589959 -0.0011563095013831432 2.0765979430245834e-06 -3.109901261758297e-06 6.184907368023136e-05 0.029792655456157557 0.040468442853447646 -0.07026150523730898 0.00012617885758577094 -0.00018897046593755105 -0.0004641348496079445 1.5949015617370605 1.7100226879119873 0.19433552026748657 0.0003081416361965239 -6.310865865088999e-05 -0.005968769053510126 17.148632027049207 18.331267705387113 1.8166506146955756 0.00219091737599793 -4.008245444802376e-05 4.241700649261475 -1.542336293762066 -2.0772111415863037 -1.0926478666118165 -4.708527509366171 3.9897360801696777 0.0 0.0 -0.0 -0.0 -0.0 -0.0 -0.20589332282543182 1.4981164932250977 2.2280490398406982 0.08517198264598846 0.03986498713493347 -0.050848476588726044 -0.0004641348496079445 1.5949015617370605 1.7100226879119873 0.19433552026748657 0.0003081416361965239 -6.310865865088999e-05 -0.31712626500959334 -0.3286043697821487 0.3078083053128049 2.483878567066407 -1.9235043196481785 2.336887201751828e-05 0.0 0.0 0.0 0.0 0.0 0.0 -1.193858159628224 -0.8120266481798608 -0.21194466721902314 -0.07694847227292077 0.03335725782274306 -0.09048798510767464 -0.3171372472378822 -0.3285880833242566 0.3078119254251992 2.4838554809428057 -1.9235556187621747 2.3320763125248775e-14 -1.3243487784321692e-19 2.941746703666739e-20 0.0003974399999999997 8.021833208243014e-19 -4.935310188149335e-19 5.463362509790237e-20 0 27.5625 28.1875 27.75 32.5 35.6875 35.8125 0.923616 7 253 253 253 253 253 253 1 0.09576806426048279 0.07661445438861847 -9.366117477416992 1.0 1.0 0.002543724166361002 47.62240219116211 47.72002029418945 0.6344689130783081 47.455936431884766 47.54193115234375 47.55626678466797 47.498931884765625 47.48460006713867 47.54193115234375 0 2 0.00290427440756464
7099.558999999999 4.241664121241835 -1.5423224624995022 -2.0772094798857843 -1.0926790796323012 -4.708539625377614 3.9897342503559763 0.0 0.0 0.0 0.0 0.0 0.0 0.0 0.0 0.0 0.0 0.0 0.0 -0.0030976494308561087 1.5513967275619507 1.6453114748001099 0.22256676852703094 0.0002621119492687285 -2.4877495619080037e-08 -2.533196644750478e-16 17.038859136246472 18.21628716706688 1.827048279871696 0.0021589379625408136 0.0 4.2416911125183105 -1.542324261074402 -2.0772390365600586 -1.0926707845977326 -4.708547298108236 3.9897360801696777 0.0 0.0 -0.0 -0.0 -0.0 -0.0 -0.257010817527771 1.4468612670898438 2.1662964820861816 0.12756101787090302 0.04270179569721222 -0.06683525443077087 -0.0030976494308561087 1.5513967275619507 1.6453114748001099 0.22256676852703094 0.0002621119492687285 -2.4877495619080037e-08 -0.31712579590818074 -0.3285898999724233 0.3077987539974475 -2.4838629538130457 1.9235113834434419 1.8546146426366324e-05 0.0 0.0 0.0 0.0 0.0 0.0 -0.9939588462356157 -0.6829058016762296 -0.3128731725546772 -0.07342843038169276 0.03263481172492106 -0.09621114185365545 -0.31713724723787373 -0.3285880833242544 0.3078119731179999 2.4838554809428057 -1.923555618762177 2.3044661275240205e-14 0.0 0.0 0.0 0.0 0.0 0.0 0 27.5625 28.1875 27.75 32.5 35.6875 35.8125 0.657456 7 253 253 253 253 253 253 1 0.05746084079146385 0.05746084079146385 -9.366117477416992 0.0 1.0 0.0 47.62866973876953 47.70927429199219 0.6008995771408081 47.455936431884766 47.54193115234375 47.54193115234375 47.513267517089844 47.48460006713867 47.5275993347168 0 1 0.003031624995249634
7099.575 4.241664121241835 -1.5423224624995022 -2.0772094798857843 -1.0926790796323012 -4.708539625377614 3.9897342503559763 0.0 0.0 0.0 0.0 0.0 0.0 0.0 0.0 0.0 0.0 0.0 0.0 -9.371335954766389e-18 1.534760594367981 1.633547306060791 0.2203405201435089 0.0002582425076980144 0.0 -1.0405494072423711e-16 17.03899048547487 18.216418516295278 1.8270784155211997 0.0021568631702901936 0.0 4.241661071777344 -1.542312368085124 -2.0772459506988525 -1.092660055761673 -4.708531204854147 3.9897360801696777 0.0 0.0 -0.0 -0.0 -0.0 -0.0 -0.20893456041812897 1.4316601753234863 2.087222099304199 0.1112058162689209 0.04248729348182678 -0.0577772855758667 -9.371335954766389e-18 1.534760594367981 1.633547306060791 0.2203405201435089 0.0002582425076980144 0.0 -0.3171330552695841 -0.32857879098980064 0.30780191219100733 -2.4838439048951044 1.9235562328172888 -1.0930216438801466e-05 0.0 0.0 0.0 0.0 0.0 0.0 -1.1264526433341369 -0.6904824663080378 -0.27417720922060806 -0.07870645648180016 0.032183020415518925 -0.08934589510727849 -0.31713724723787373 -0.3285880833242544 0.3078119731179999 2.4838554809428057 -1.923555618762177 2.3044661275240205e-14 0.0 0.0 0.0 0.0 0.0 0.0 0 27.5625 28.1875 27.75 32.5 35.6875 35.8125 0.650063 7 253 253 253 253 253 253 1 0.05746084079146385 -0.019153613597154617 -9.251194953918457 0.0 1.0 0.0 47.654640197753906 47.751365661621094 0.6165663003921509 47.498931884765625 47.59926223754883 47.584930419921875 47.54193115234375 47.54193115234375 47.57059860229492 0 1 0.0027875105539957685
7099.590999999999 4.241664121241835 -1.5423224624995022 -2.0772094798857843 -1.0926790796323012 -4.708539625377614 3.9897342503559763 0.0 0.0 0.0 0.0 0.0 0.0 0.0 0.0 0.0 0.0 0.0 0.0 -8.084507619429895e-18 1.534841537475586 1.63352632522583 0.2203368842601776 0.000259813095908612 0.0 -8.976659712222329e-17 17.03988870167694 18.21618665969991 1.82704827673019 0.002169981113679333 0.0 4.241691589355469 -1.542308998560049 -2.077242612838745 -1.0926600855639954 -4.708559099827902 3.9897360801696777 0.0 0.0 -0.0 -0.0 -0.0 -0.0 -0.1796644777059555 1.4664225578308105 2.147996664047241 0.11884410679340363 0.04571084678173065 -0.06362949311733246 -8.084507619429895e-18 1.534841537475586 1.63352632522583 0.2203368842601776 0.000259813095908612 0.0 -0.317125706884394 -0.32858760400227255 0.30780487823708363 2.483877828702331 -1.9235218804403809 -3.014872469096263e-05 0.0 0.0 0.0 0.0 0.0 0.0 -0.8893939074144257 -0.7469595093336521 -0.29438628596520083 -0.08112905413474339 0.04203668768438402 -0.09108640089593766 -0.31713724723787373 -0.3285880833242544 0.3078119731179999 2.4838554809428057 -1.923555618762177 2.3044661275240205e-14 0.0 0.0 0.0 0.0 0.0 0.0 0 27.5625 28.1875 27.75 32.5 35.6875 35.8125 0.64416 7 253 253 253 253 253 253 1 0.13407528400421143 0.05746084079146385 -9.461885452270508 0.0 1.0 0.0 47.64479064941406 47.723602294921875 0.5650944113731384 47.44160079956055 47.57059860229492 47.55626678466797 47.513267517089844 47.498931884765625 47.54193115234375 0 1 0.001982583247202759
7099.607 4.241664121241835 -1.5423224624995022 -2.0772094798857843 -1.0926790796323012 -4.708539625377614 3.9897342503559763 0.0 0.0 0.0 0.0 0.0 0.0 0.0 0.0 0.0 0.0 0.0 0.0 8.691525012965196e-18 1.534726619720459 1.6335324048995972 0.22033806145191193 0.0002584909088909626 0.0 9.650663432533093e-17 17.0386122221423 18.216253715337174 1.827058034397794 0.0021589379572911423 0.0 4.241664409637451 -1.542324274112918 -2.0772578716278076 -1.0926600855639954 -4.70854360262026 3.989720582962036 0.0 0.0 -0.0 -0.0 -0.0 -0.0 -0.18794389069080353 1.433007001876831 2.1539528369903564 0.11027207970619202 0.05201851576566696 -0.052822232246398926 8.691525012965196e-18 1.534726619720459 1.6335324048995972 0.22033806145191193 0.0002584909088909626 0.0 -0.3171323291782038 -0.3285778570028762 0.30779136459434586 -2.4838453243893435 1.9235199280231992 1.5185915424024139e-05 0.0 0.0 0.0 0.0 0.0 0.0 -0.8986157422980217 -0.8325257233740173 -0.3681761302329726 -0.07815708051108927 0.038611826477366905 -0.0902069570685571 -0.31713724723787373 -0.3285880833242544 0.3078119731179999 2.4838554809428057 -1.923555618762177 2.3044661275240205e-14 0.0 0.0 0.0 0.0 0.0 0.0 0 27.625 28.1875 27.75 32.5 35.6875 35.8125 0.64944 7 253 253 253 253 253 253 1 0.1149216815829277 0.019153613597154617 -9.461885452270508 0.0 1.0 0.0 47.581199645996094 47.692256927490234 0.5874739289283752 47.41293716430664 47.54193115234375 47.55626678466797 47.48460006713867 47.48460006713867 47.513267517089844 0 1 0.003699197016734009
7099.623 4.241664121241835 -1.5423224624995022 -2.0772094798857843 -1.0926790796323012 -4.708539625377614 3.9897342503559763 0.0 0.0 0.0 0.0 0.0 0.0 0.0 0.0 0.0 0.0 0.0 0.0 3.744206159351372e-18 1.5347181558609009 1.6335866451263428 0.22034233808517456 0.0002595726982690394 0.0 4.1573916020770716e-17 17.038519386525447 18.21685740445757 1.8270936078092055 0.0021679732380281607 0.0 4.241653919219971 -1.5423208840987463 -2.0772545337677 -1.0926755231669922 -4.708547298108236 3.9897515773773193 0.0 0.0 -0.0 -0.0 -0.0 -0.0 -0.19758203625679016 1.434133768081665 2.160567045211792 0.10771271586418152 0.047795772552490234 -0.061370477080345154 3.744206159351372e-18 1.5347181558609009 1.6335866451263428 0.22034233808517456 0.0002595726982690394 0.0 -0.3171356140485828 -0.3285733821191256 0.30779280146411836 -2.483799157470892 1.923566710359065 2.3479920110350985e-05 0.0 0.0 0.0 0.0 0.0 0.0 -0.9681971996164709 -0.923708563506891 -0.4652574592733956 -0.07803837292633742 0.036477328112730155 -0.08992274244293785 -0.31713724723787373 -0.3285880833242544 0.3078119731179999 2.4838554809428057 -1.923555618762177 2.3044661275240205e-14 0.0 0.0 0.0 0.0 0.0 0.0 0 27.625 28.1875 27.75 32.5 35.6875 35.8125 0.639756 7 253 253 253 253 253 253 1 0.07661445438861847 -0.019153613597154617 -9.500192642211914 0.0 1.0 0.0 47.60627746582031 47.70838165283203 0.6255202293395996 47.455936431884766 47.57059860229492 47.584930419921875 47.513267517089844 47.498931884765625 47.54193115234375 0 1 0.002434893698356261
7099.639 4.241664121241835 -1.5423224624995022 -2.0772094798857843 -1.0926790796323012 -4.708539625377614 3.9897342503559763 0.0 0.0 0.0 0.0 0.0 0.0 0.0 0.0 0.0 0.0 0.0 0.0 1.1496213228724245e-17 1.5347936153411865 1.633522629737854 0.22033558785915375 0.0002595726982690394 0.0 1.2764857528577894e-16 17.039355544628886 18.21614542133097 1.8270375933661753 0.002167973273101929 0.0 4.241676330566406 -1.542343071927764 -2.0772390365600586 -1.0926720064929505 -4.708527509366171 3.9897170066833496 0.0 0.0 -0.0 -0.0 -0.0 -0.0 -0.16956298053264618 1.4376497268676758 2.1223318576812744 0.1157783716917038 0.040316611528396606 -0.05744268000125885 1.1496213228724245e-17 1.5347936153411865 1.633522629737854 0.22033558785915375 0.0002595726982690394 0.0 -0.3171300794620004 -0.328588431206677 0.3077904219211056 -2.48384857802871 1.9234917285406843 -6.093620043181621e-06 0.0 0.0 0.0 0.0 0.0 0.0 -1.048886829367116 -0.6118889569026884 -0.35845403651067653 -0.0810657725839441 0.035315691992577766 -0.08900790490950601 -0.31713724723787373 -0.3285880833242544 0.3078119731179999 2.4838554809428057 -1.923555618762177 2.3044661275240205e-14 0.0 0.0 0.0 0.0 0.0 0.0 0 27.625 28.1875 27.75 32.5 35.6875 35.8125 0.639084 7 253 253 253 253 253 253 1 0.07661445438861847 0.019153613597154617 -9.404424667358398 0.0 1.0 0.0 47.62150192260742 47.7244987487793 0.6702793836593628 47.455936431884766 47.57059860229492 47.57059860229492 47.5275993347168 47.498931884765625 47.55626678466797 0 1 0.003031624995249634
7099.655 4.241664121241835 -1.5423224624995022 -2.0772094798857843 -1.0926790796323012 -4.708539625377614 3.9897342503559763 0.0 0.0 0.0 0.0 0.0 0.0 0.0 0.0 0.0 0.0 0.0 0.0 -2.4659473324428658e-17 1.5347445011138916 1.633543848991394 0.22033584117889404 0.0002574491663835943 0.0 -2.738072705780387e-16 17.038811601814302 18.216380323748677 1.827039669469248 0.0021502373014953974 0.0 4.241657733917236 -1.5423498836210747 -2.07723069190979 -1.092690960769989 -4.708531204854147 3.989732503890991 0.0 0.0 -0.0 -0.0 -0.0 -0.0 -0.17241831123828888 1.4101102352142334 2.1621029376983643 0.11242949962615967 0.046388089656829834 -0.07398800551891327 -2.4659473324428658e-17 1.5347445011138916 1.633543848991394 0.22033584117889404 0.0002574491663835943 0.0 -0.31713717872934477 -0.32858364131162604 0.3077893020830779 -2.483802744347236 1.9235241077394127 4.7754124225941636e-06 0.0 0.0 0.0 0.0 0.0 0.0 -1.1272097615411503 -0.9955046984428743 -0.6384836721756493 -0.07677575675137631 0.034843276439292574 -0.09265463337879562 -0.31713724723787373 -0.3285880833242544 0.3078119731179999 2.4838554809428057 -1.923555618762177 2.3044661275240205e-14 0.0 0.0 0.0 0.0 0.0 0.0 0 27.625 28.1875 27.75 32.5 35.6875 35.8125 0.64452 7 253 253 253 253 253 253 1 0.05746084079146385 0.09576806426048279 -9.461885452270508 0.0 1.0 0.0 47.575828552246094 47.6734504699707 0.6299919486045837 47.41293716430664 47.5275993347168 47.55626678466797 47.498931884765625 47.455936431884766 47.498931884765625 0 1 0.0026767486283023625
7099.670999999999 4.241664121241835 -1.5423224624995022 -2.0772094798857843 -1.0926790796323012 -4.708539625377614 3.9897342503559763 0.0 0.0 0.0 0.0 0.0 0.0 0.0 0.0 0.0 0.0 0.0 0.0 -3.9182361093999745e-17 1.5348126888275146 1.6335418224334717 0.2203383892774582 0.0002595726982690394 0.0 -4.3506263781152465e-16 17.039568853529612 18.216359038258364 1.8270608617638622 0.0021679732611566663 0.0 4.241657733917236 -1.5423515506884833 -2.077242612838745 -1.0926600855639954 -4.708547298108236 3.9897515773773193 0.0 0.0 -0.0 -0.0 -0.0 -0.0 -0.18182484805583954 1.4213213920593262 2.144038677215576 0.09817792475223541 0.05160945653915405 -0.06533508747816086 -3.9182361093999745e-17 1.5348126888275146 1.6335418224334717 0.2203383892774582 0.0002595726982690394 0.0 -0.31713858633973097 -0.3285829084141271 0.30778630689253594 -2.483800318500333 1.9235599029641757 2.444849139025915e-05 0.0 0.0 0.0 0.0 0.0 0.0 -0.9957394598055088 -0.9789424586603702 -0.5022081520611333 -0.07677407982726488 0.036063226220553565 -0.09291335391547345 -0.31713724723787373 -0.3285880833242544 0.3078119731179999 2.4838554809428057 -1.923555618762177 2.3044661275240205e-14 0.0 0.0 0.0 0.0 0.0 0.0 0 27.625 28.1875 27.75 32.5 35.6875 35.8125 0.647304 7 253 253 253 253 253 253 1 0.019153613597154617 0.1149216815829277 -9.385271072387695 0.0 1.0 0.0 47.59911346435547 47.700321197509766 0.6098535060882568 47.455936431884766 47.55626678466797 47.55626678466797 47.48460006713867 47.47026824951172 47.5275993347168 0 1 0.0025921006574746754
7099.687 4.241664121241835 -1.5423224624995022 -2.0772094798857843 -1.0926790796323012 -4.708539625377614 3.9897342503559763 0.0 0.0 0.0 0.0 0.0 0.0 0.0 0.0 0.0 0.0 0.0 0.0 4.6944269928895184e-17 1.5347520112991333 1.6335512399673462 0.22033871710300446 0.0002582425076980144 0.0 -6.44687037744337e-16 17.038893792988798 18.216462976962937 1.8270635249969502 0.002156863180114011 0.0 4.241653919219971 -1.542308998560049 -2.0772509574890137 -1.0926909905723114 -4.7085400263415735 3.9897360801696777 0.0 0.0 -0.0 -5.676431413803584e-08 -0.0 -0.0 -0.19101308286190033 1.4311795234680176 2.1570892333984375 0.10235333442687988 0.04127293825149536 -0.06298045814037323 4.6944269928895184e-17 1.5347520112991333 1.6335512399673462 0.22033871710300446 0.0002582425076980144 0.0 -0.3171339466875523 -0.32857168578235024 0.3077980496756926 -2.4838129257575483 1.9235466961660312 1.2295424812485634e-05 2.5407775542977745e-09 5.054551666258795e-09 -5.6640067041881e-09 5.0618218378767326e-08 -2.568921112078656e-08 -2.1853995674392142e-10 -1.2921055416379148 -1.014164314678166 -0.5877711448745252 -0.07341961711110859 0.028929539509748175 -0.09430150067024164 -0.31713724723787373 -0.3285880833242544 0.3078119731179999 2.4838554809428057 -1.923555618762177 2.3044661275240205e-14 0.0 0.0 0.0 0.0 0.0 0.0 0 27.625 28.1875 27.75 32.5 35.6875 35.8125 0.673656 7 253 253 253 253 253 253 1 0.019153613597154617 0.1149216815829277 -9.385271072387695 0.0 1.0 0.0 47.62777328491211 47.73255920410156 0.6434228420257568 47.48460006713867 47.584930419921875 47.584930419921875 47.5275993347168 47.5275993347168 47.55626678466797 0 1 0.0028399668593736375
7099.7029999999995 4.241664121241835 -1.5423224624995022 -2.0772094798857843 -1.0926790796323012 -4.708539625377614 3.9897342503559763 0.0 0.0 0.0 0.0 0.0 0.0 0.0 0.0 0.0 0.0 0.0 0.0 -2.00626867310449e-17 1.5347869396209717 1.6335734128952026 0.2203400433063507 0.0002582425076980144 0.0 -2.2276669637666254e-16 17.039281200585325 18.216710386505248 1.8270745182099164 0.0021568631730082234 0.0 4.241661071777344 -1.542324261074402 -2.0772042274475098 -1.092679039841034 -4.70854360262026 3.9897360801696777 0.0 0.0 -0.0 -1.8749970951257945e-17 -0.0 -0.0 -0.16037939488887787 1.426666498184204 2.184462785720825 0.10274752974510193 0.03735065460205078 -0.06476155668497086 -2.00626867310449e-17 1.5347869396209717 1.6335734128952026 0.2203400433063507 0.0002582425076980144 0.0 -0.317139390039713 -0.3285884826203132 0.30781354902728497 2.4838474842427587 -1.9235591161584402 -5.118938503946503e-06 8.392020055733227e-19 1.669516068734291e-18 -1.8709741855609195e-18 1.671989762322583e-17 -8.485353440049588e-18 -7.218822135717837e-20 -1.132785663880196 -0.9082707381338134 -0.5981933746369227 -0.0730444614850488 0.032231490045481814 -0.09259411083113958 -0.31713724723787373 -0.3285880833242544 0.3078119731179999 2.4838554809428057 -1.923555618762177 2.3044661275240205e-14 0.0 0.0 0.0 0.0 0.0 0.0 0 27.625 28.1875 27.75 32.5 35.6875 35.8125 0.648432 7 253 253 253 253 253 253 1 0.07661445438861847 0.1149216815829277 -9.500192642211914 0.0 1.0 0.0 47.617923736572266 47.711063385009766 0.5852327942848206 47.44160079956055 47.54193115234375 47.57059860229492 47.48460006713867 47.48460006713867 47.5275993347168 0 1 0.002930379035189786
7099.719 4.241664121241835 -1.5423224624995022 -2.0772094798857843 -1.0926790796323012 -4.708539625377614 3.9897342503559763 0.0 0.0 0.0 0.0 0.0 0.0 0.0 0.0 0.0 0.0 0.0 0.0 -7.108900695610557e-17 1.5347506999969482 1.6335498094558716 0.22034050524234772 0.0002582425076980144 0.0 -7.893390826942453e-16 17.038879071228187 18.21644717710955 1.8270783099636485 0.0021568631703651826 0.0 4.241684436798096 -1.542327643637993 -2.0772147178649902 -1.092679039841034 -4.70854360262026 3.989732503890991 0.0 0.0 -0.0 -6.193353129865986e-27 -0.0 -0.0 -0.16299819946289062 1.4428684711456299 2.196626901626587 0.10289445519447327 0.04088636487722397 -0.05644993484020233 -7.108900695610557e-17 1.5347506999969482 1.6335498094558716 0.22034050524234772 0.0002582425076980144 0.0 -0.3171306030806154 -0.32859371521047087 0.3078073656690893 -2.483869258942966 1.9235224633807966 9.17688694083915e-06 2.771900753722641e-28 5.514764375564307e-28 -6.179979324788296e-28 5.5228597937217206e-27 -2.802690516160236e-27 -2.3844511702432194e-29 -1.437332412987004 -1.0243037701052233 -0.6125901964689929 -0.07575918895851776 0.030113792710706185 -0.09058363176291223 -0.31713724723787373 -0.3285880833242544 0.3078119731179999 2.4838554809428057 -1.923555618762177 2.3044661275240205e-14 0.0 0.0 0.0 0.0 0.0 0.0 0 27.625 28.1875 27.75 32.5 35.6875 35.8125 0.6429 7 253 253 253 253 253 253 1 0.07661445438861847 0.0 -9.366117477416992 0.0 1.0 0.0 47.63493728637695 47.7164421081543 0.5807611346244812 47.44160079956055 47.55626678466797 47.55626678466797 47.513267517089844 47.47026824951172 47.5275993347168 0 1 0.0029647363904128734
7099.735 4.241664121241835 -1.5423224624995022 -2.0772094798857843 -1.0926790796323012 -4.708539625377614 3.9897342503559763 0.0 0.0 0.0 0.0 0.0 0.0 0.0 0.0 0.0 0.0 0.0 0.0 4.591885548254382e-18 1.5347940921783447 1.6335679292678833 0.2203395813703537 0.0002582425076980144 0.0 5.0986152334515095e-17 17.039361060744852 18.216649324517356 1.8270707326437716 0.002156863175548641 0.0 4.241687774658203 -1.5423090115985651 -2.0772767066955566 -1.092660055761673 -4.708527509366171 3.9897170066833496 0.0 0.0 -0.0 -2.045743117275111e-36 -0.0 -0.0 -0.17658188939094543 1.426569938659668 2.2241146564483643 0.08640360832214355 0.0557473823428154 -0.05768156051635742 4.591885548254382e-18 1.5347940921783447 1.6335679292678833 0.2203395813703537 0.0002582425076980144 0.0 -0.31711982544269435 -0.3285793235922919 0.30778957687802977 -2.48386608191749 1.9234824893987779 -8.635462194139806e-06 9.15610510833121e-38 1.8216438870967433e-37 -2.041275894830364e-37 1.824273880433344e-36 -9.257578956430947e-37 -7.875893703251808e-39 -1.221803530763445 -0.8326982592753023 -0.5034587316582675 -0.07868907578119133 0.031050660952778943 -0.09172812480132074 -0.31713724723787373 -0.3285880833242544 0.3078119731179999 2.4838554809428057 -1.923555618762177 2.3044661275240205e-14 0.0 0.0 0.0 0.0 0.0 0.0 0 27.625 28.1875 27.75 32.5 35.6875 35.8125 0.641976 7 253 253 253 253 253 253 1 -0.038307227194309235 0.15322890877723694 -9.481039047241211 0.0 1.0 0.0 47.60090637207031 47.70121383666992 0.5829969644546509 47.44160079956055 47.55626678466797 47.55626678466797 47.513267517089844 47.48460006713867 47.5275993347168 0 1 0.0026668894640256586
7099.750999999999 4.241664121241835 -1.5423224624995022 -2.0772094798857843 -1.0926790796323012 -4.708539625377614 3.9897342503559763 0.0 0.0 0.0 0.0 0.0 0.0 0.0 0.0 0.0 0.0 0.0 0.0 -4.991180022876387e-17 1.5348055362701416 1.633547306060791 0.22033710777759552 0.0002595726982690394 0.0 -5.541972974103336e-16 17.039488510164908 18.216419925116057 1.8270502356247447 0.002167973267074377 0.0 4.241684436798096 -1.5423242536238213 -2.0772390365600586 -1.0926720064929505 -4.70854360262026 3.9897360801696777 0.0 0.0 -0.0 -0.0 -0.0 -0.0 -0.15446852147579193 1.4204535484313965 2.2479214668273926 0.09925562143325806 0.04506634175777435 -0.08422716706991196 -4.991180022876387e-17 1.5348055362701416 1.633547306060791 0.22033710777759552 0.0002595726982690394 0.0 -0.3171276059322997 -0.3285878398438226 0.3077986352224156 -2.4838550369163928 1.9235185234347996 1.3203841023644917e-05 0.0 0.0 0.0 0.0 0.0 0.0 -0.9621062953912626 -0.7816454862662311 -0.3596916471679168 -0.07758678247912887 0.03667972489040962 -0.08732533269981825 -0.31713724723787373 -0.3285880833242544 0.3078119731179999 2.4838554809428057 -1.923555618762177 2.3044661275240205e-14 0.0 0.0 0.0 0.0 0.0 0.0 0 27.625 28.125 27.75 32.5 35.6875 35.8125 0.648227 7 253 253 253 253 253 253 1 -0.09576806426048279 0.19153612852096558 -9.442731857299805 0.0 1.0 0.0 47.60359191894531 47.68240737915039 0.6098535060882568 47.427268981933594 47.5275993347168 47.55626678466797 47.48460006713867 47.47026824951172 47.513267517089844 0 1 0.0028878720371089328
7099.767 4.241664121241835 -1.5423224624995022 -2.0772094798857843 -1.0926790796323012 -4.708539625377614 3.9897342503559763 0.0 0.0 0.0 0.0 0.0 0.0 0.0 0.0 0.0 0.0 0.0 0.0 -3.565685445757219e-17 1.53476083278656 1.6335474252700806 0.2203371226787567 0.0002582425076980144 0.0 -3.9591703579676615e-16 17.03899272042312 18.216420751243525 1.8270502868499485 0.0021568631875717066 0.0 4.241672992706299 -1.5423123531839629 -2.077223539352417 -1.092690960769989 -4.70854360262026 3.989755153656006 0.0 0.0 -0.0 -0.0 -0.0 -0.0 -0.2323310822248459 1.4789187908172607 2.2280662059783936 0.11154812574386597 0.064783975481987 -0.06262178719043732 -3.565685445757219e-17 1.53476083278656 1.6335474252700806 0.2203371226787567 0.0002582425076980144 0.0 -0.31713170204633545 -0.3285848456186474 0.30780889118397337 -2.4838321867895594 1.923561588219152 1.0783204922745876e-05 0.0 0.0 0.0 0.0 0.0 0.0 -1.1009648192959578 -0.7066745350822303 -0.24389854886382856 -0.08055677760703711 0.03650682505163209 -0.08695914607939423 -0.31713724723787373 -0.3285880833242544 0.3078119731179999 2.4838554809428057 -1.923555618762177 2.3044661275240205e-14 0.0 0.0 0.0 0.0 0.0 0.0 0 27.625 28.125 27.75 32.5 35.6875 35.8125 0.64632 7 253 253 253 253 253 253 1 0.05746084079146385 0.15322890877723694 -9.327810287475586 0.0 1.0 0.0 47.64836883544922 47.730770111083984 0.5561404824256897 47.47026824951172 47.57059860229492 47.584930419921875 47.5275993347168 47.513267517089844 47.57059860229492 0 1 0.002929937480049877
7099.782999999999 4.241664121241835 -1.5423224624995022 -2.0772094798857843 -1.0926790796323012 -4.708539625377614 3.9897342503559763 0.0 0.0 0.0 0.0 0.0 0.0 0.0 0.0 0.0 0.0 0.0 0.0 1.9388804192693874e-17 1.5348162651062012 1.6335453987121582 0.22033792734146118 0.00025908389943651855 0.0 2.1528422983220282e-16 17.039607904035893 18.216397549717975 1.8270569745107288 0.002163890643950491 0.0 4.241687774658203 -1.5423208580217143 -2.0772271156311035 -1.0926755231669922 -4.708527509366171 3.9897241592407227 0.0 0.0 -0.0 -0.0 -0.0 -0.0 -0.1398334950208664 1.4272785186767578 2.212695360183716 0.10235226154327393 0.04205752909183502 -0.06227293610572815 1.9388804192693874e-17 1.5348162651062012 1.6335453987121582 0.22033792734146118 0.00025908389943651855 0.0 -0.31712621204527147 -0.3285918434753908 0.3078051147264836 -2.483876481629565 1.923504825390365 -1.506434914067063e-05 0.0 0.0 0.0 0.0 0.0 0.0 -1.3261793519390157 -1.042568483715587 -0.5088766444434087 -0.07127613868169594 0.027954381634100255 -0.08849500154707629 -0.31713724723787373 -0.3285880833242544 0.3078119731179999 2.4838554809428057 -1.923555618762177 2.3044661275240205e-14 0.0 0.0 0.0 0.0 0.0 0.0 0 27.625 28.125 27.75 32.5 35.6875 35.8125 0.64794 7 253 253 253 253 253 253 1 0.07661445438861847 0.07661445438861847 -9.346963882446289 0.0 1.0 0.0 47.6313591003418 47.704795837402344 0.6232790946960449 47.455936431884766 47.57059860229492 47.55626678466797 47.513267517089844 47.498931884765625 47.54193115234375 0 1 0.003823622621885236
7099.799 4.241664121241835 -1.5423224624995022 -2.0772094798857843 -1.0926790796323012 -4.708539625377614 3.9897342503559763 0.0 0.0 0.0 0.0 0.0 0.0 0.0 0.0 0.0 0.0 0.0 0.0 2.293924867022868e-18 1.534724235534668 1.6335551738739014 0.22033897042274475 0.00025932429707609117 0.0 2.5470670326005324e-17 17.03858604482827 18.216506918024248 1.8270656060003427 0.002165898484458147 0.0 4.241657733917236 -1.5423482091030856 -2.077235460281372 -1.0926755231669922 -4.708527509366171 3.9897360801696777 0.0 0.0 -0.0 -0.0 -0.0 -0.0 -0.19931042194366455 1.4475414752960205 2.209803819656372 0.0927094966173172 0.03628702461719513 -0.061465829610824585 2.293924867022868e-18 1.534724235534668 1.6335551738739014 0.22033897042274475 0.00025932429707609117 0.0 -0.31713682536988 -0.3285837770792536 0.3077894336402716 -2.4838083945675846 1.9235354735037467 -4.588608271519184e-06 0.0 0.0 0.0 0.0 0.0 0.0 -1.1560319600204763 -0.7134386472953307 -0.45027662820827197 -0.08344967603750082 0.031186468456870238 -0.08875223001221587 -0.31713724723787373 -0.3285880833242544 0.3078119731179999 2.4838554809428057 -1.923555618762177 2.3044661275240205e-14 0.0 0.0 0.0 0.0 0.0 0.0 0 27.625 28.125 27.75 32.5 35.6875 35.8125 0.656796 7 253 253 253 253 253 253 1 0.019153613597154617 0.07661445438861847 -9.404424667358398 0.0 1.0 0.0 47.62866973876953 47.71554183959961 0.5740430355072021 47.41293716430664 47.5275993347168 47.54193115234375 47.498931884765625 47.47026824951172 47.513267517089844 0 1 0.003319049777842846
7099.815 4.241664121241835 -1.5423224624995022 -2.0772094798857843 -1.0926790796323012 -4.708539625377614 3.9897342503559763 0.0 0.0 0.0 0.0 0.0 0.0 0.0 0.0 0.0 0.0 0.0 0.0 -3.833996697562064e-17 1.5347087383270264 1.633552074432373 0.22033849358558655 0.0002582425076980144 0.0 -4.2570910609226286e-16 17.0384139462833 18.21647250728804 1.8270616216512712 0.0021568631812601785 0.0 4.241661071777344 -1.542312368085124 -2.0772202014923096 -1.09270994484935 -4.708531204854147 3.989748001098633 0.0 0.0 -0.0 -0.0 -0.0 -0.0 -0.16037021577358246 1.4662656784057617 2.2597572803497314 0.0798027515411377 0.035363294184207916 -0.06734751164913177 -3.833996697562064e-17 1.5347087383270264 1.633552074432373 0.22033849358558655 0.0002582425076980144 0.0 -0.3171340926742724 -0.3285807679701338 0.30780848776553005 -2.4838135307151346 1.9235567517843417 -3.7021742981832353e-06 0.0 0.0 0.0 0.0 0.0 0.0 -1.361118755131206 -0.8395999213041434 -0.435059467392037 -0.07865880518454935 0.031158470437909338 -0.08626345419335532 -0.31713724723787373 -0.3285880833242544 0.3078119731179999 2.4838554809428057 -1.923555618762177 2.3044661275240205e-14 0.0 0.0 0.0 0.0 0.0 0.0 0 27.625 28.125 27.75 32.5 35.6875 35.8125 0.643536 7 253 253 253 253 253 253 1 0.09576806426048279 0.1149216815829277 -9.442731857299805 0.0 1.0 0.0 47.62956237792969 47.730770111083984 0.5919508934020996 47.47026824951172 47.57059860229492 47.584930419921875 47.5275993347168 47.498931884765625 47.54193115234375 0 1 0.004254406377634043
7099.831 4.241664121241835 -1.5423224624995022 -2.0772094798857843 -1.0926790796323012 -4.708539625377614 3.9897342503559763 0.0 0.0 0.0 0.0 0.0 0.0 0.0 0.0 0.0 0.0 0.0 0.0 -2.0075709862608934e-17 1.5347795486450195 1.6335785388946533 0.22033993899822235 0.00025932429707609117 0.0 -2.369635339505933e-16 17.03919926298873 18.216768754989374 1.8270737134382535 0.002165898479160113 0.0 4.241641998291016 -1.5423482221416016 -2.0772202014923096 -1.092690960769989 -4.708547298108236 3.9897396564483643 0.0 0.0 -0.0 -6.108831439632922e-05 -0.0 -0.0 -0.2183503955602646 1.4582679271697998 2.2218093872070312 0.12396787106990814 0.05674616992473602 -0.07459093630313873 -2.0075709862608934e-17 1.5347795486450195 1.6335785388946533 0.22033993899822235 0.00025932429707609117 0.0 -0.3171450021116753 -0.3285803252239929 0.30779473460363815 -2.483792566074783 1.9235616930860935 2.605098769275521e-05 2.73440829531146e-06 5.43959375928596e-06 -6.095408905300885e-06 5.447371380297057e-05 -2.7646723974011613e-05 -2.3518886374026096e-07 -1.0090266604925282 -0.979659122831955 -0.6769763273420891 -0.07375593559307393 0.03861058545914708 -0.09786820275457925 -0.31713724723787373 -0.3285880833242544 0.3078119731179999 2.4838554809428057 -1.923555618762177 2.3044661275240205e-14 0.0 0.0 0.0 0.0 0.0 0.0 0 27.625 28.125 27.75 32.5625 35.6875 35.8125 0.646547 7 253 253 253 253 253 253 1 -0.019153613597154617 0.17238251864910126 -9.423578262329102 0.0 1.0 0.0 47.64657974243164 47.71554183959961 0.6389458775520325 47.44160079956055 47.55626678466797 47.57059860229492 47.498931884765625 47.513267517089844 47.55626678466797 0 1 0.0027500524347272583
7099.847 4.241664121241835 -1.5423224624995022 -2.0772094798857843 -1.0926790796323012 -4.708539625377614 3.9897342503559763 0.0 0.0 0.0 0.0 0.0 0.0 0.0 0.0 0.0 0.0 0.0 0.0 -2.3364548545256495e-17 1.534772515296936 1.6335591077804565 0.22034049034118652 0.0002584909088909626 0.0 -2.7228148175785454e-16 17.039121488113285 18.216550057980132 1.8270782723376866 0.00215893794431769 0.0 4.241661071777344 -1.5422968969545146 -2.0772545337677 -1.0926720064929505 -4.708547298108236 3.9897515773773193 0.0 0.0 -0.0 -5.515557495527901e-05 -0.0 -0.0 -0.2286083847284317 1.4981231689453125 2.2554702758789062 0.09907883405685425 0.047709591686725616 -0.07409298419952393 -2.3364548545256495e-17 1.534772515296936 1.6335591077804565 0.22034049034118652 0.0002584909088909626 0.0 -0.3171318407533374 -0.32857285821351007 0.30780362087874824 -2.4838274108697895 1.9235743527730482 1.5390172026097004e-05 2.468666237083375e-06 4.9111852089608015e-06 -5.5036361172769634e-06 4.9183841400741195e-05 -2.4960811337146896e-05 -2.1234666349305384e-07 -0.9836325879951161 -0.9660058860978732 -0.5102629960672823 -0.07403128625542238 0.036279344448231804 -0.09084624345825079 -0.31713724723787373 -0.3285880833242544 0.3078119731179999 2.4838554809428057 -1.923555618762177 2.3044661275240205e-14 0.0 0.0 0.0 0.0 0.0 0.0 0 27.625 28.125 27.75 32.5625 35.6875 35.8125 0.651612 7 253 253 253 253 253 253 1 0.05746084079146385 0.1149216815829277 -9.442731857299805 0.0 1.0 0.0 47.607173919677734 47.694053649902344 0.6299919486045837 47.455936431884766 47.54193115234375 47.55626678466797 47.498931884765625 47.48460006713867 47.513267517089844 0 1 0.002826112152046412
7099.862999999999 4.241664121241835 -1.5423224624995022 -2.0772094798857843 -1.0926790796323012 -4.708539625377614 3.9897342503559763 0.0 0.0 0.0 0.0 0.0 0.0 0.0 0.0 0.0 0.0 0.0 0.0 -4.510099057804937e-17 1.5347900390625 1.6335762739181519 0.2203405201435089 0.0002582425076980144 0.0 -5.124718356974886e-16 17.039316444262603 18.21674447508301 1.827078482409119 0.002156863170242636 0.0 4.241691589355469 -1.5423208580217143 -2.0772078037261963 -1.0926755231669922 -4.708527509366171 3.989748001098633 0.0 0.0 -0.0 -5.023026460548863e-05 -0.0 -0.0 -0.16650338470935822 1.453467607498169 2.2468011379241943 0.10211893916130066 0.046387821435928345 -0.05635697394609451 -4.510099057804937e-17 1.5347900390625 1.6335762739181519 0.2203405201435089 0.0002582425076980144 0.0 -0.3171274111570876 -0.32859786765887433 0.3078137800322531 2.483865181889517 -1.9235358451083235 2.0704726106843584e-05 2.2480373123610014e-06 4.472606159229294e-06 -5.01226602757885e-06 4.47924901032306e-05 -2.273048423523609e-05 -1.9338852363872767e-07 -1.1128294564023706 -0.5693820923574185 -0.6730175540558052 -0.07960387299136568 0.033570994652083505 -0.09541000928139864 -0.31713724723787373 -0.3285880833242544 0.3078119731179999 2.4838554809428057 -1.923555618762177 2.3044661275240205e-14 0.0 0.0 0.0 0.0 0.0 0.0 0 27.625 28.125 27.75 32.5625 35.6875 35.8125 0.658224 7 253 253 253 253 253 253 1 0.07661445438861847 0.07661445438861847 -9.385271072387695 0.0 1.0 0.0 47.60269546508789 47.69136428833008 0.5606174468994141 47.44160079956055 47.54193115234375 47.5275993347168 47.498931884765625 47.47026824951172 47.513267517089844 0 1 0.0027426508118984162
7099.879 4.241664121241835 -1.5423224624995022 -2.0772094798857843 -1.0926790796323012 -4.708539625377614 3.9897342503559763 0.0 0.0 0.0 0.0 0.0 0.0 0.0 0.0 0.0 0.0 0.0 0.0 -4.669944431991419e-17 1.5347760915756226 1.633562445640564 0.22034156322479248 0.0002584909088909626 0.0 -3.5199533676569894e-16 17.039161391599997 18.21658911439387 1.8270871399934605 0.0021589379377476895 0.0 4.241672992706299 -1.542327643637993 -2.0772271156311035 -1.092653052215912 -4.70854360262026 3.9897360801696777 0.0 0.0 -0.0 -2.513070860351435e-13 -0.0 -0.0 -0.16763950884342194 1.451378583908081 2.2594335079193115 0.11937624216079712 0.03856524080038071 -0.07662561535835266 -4.669944431991419e-17 1.5347760915756226 1.633562445640564 0.22034156322479248 0.0002584909088909626 0.0 -0.3171339520567375 -0.32858930914533785 0.3078043959489132 2.48385926367339 -1.923544377218935 -5.115176767541919e-06 1.1247615056783328e-14 2.2376773757325927e-14 -2.5076782195379302e-14 2.2409924661907466e-13 -1.1372705501958126e-13 -9.675292302093806e-16 -1.0801025564878792 -0.8370629890900672 -0.5931833611894105 -0.07585301984183399 0.034336005922362835 -0.09925156067316174 -0.31713724723787373 -0.3285880833242544 0.3078119731179999 2.4838554809428057 -1.923555618762177 2.3044661275240205e-14 0.0 0.0 0.0 0.0 0.0 0.0 0 27.625 28.125 27.75 32.5625 35.6875 35.8125 0.655728 7 253 253 253 253 253 253 1 0.07661445438861847 0.1149216815829277 -9.385271072387695 0.0 1.0 0.0 47.620609283447266 47.7164421081543 0.6299919486045837 47.455936431884766 47.57059860229492 47.584930419921875 47.5275993347168 47.513267517089844 47.54193115234375 0 1 0.004461668070080211
7099.8949999999995 4.241664121241835 -1.5423224624995022 -2.0772094798857843 -1.0926790796323012 -4.708539625377614 3.9897342503559763 0.0 0.0 0.0 0.0 0.0 0.0 0.0 0.0 0.0 0.0 0.0 0.0 -2.2023766527285617e-17 1.5347532033920288 1.6335272789001465 0.2203364223241806 0.0002587313065305352 0.0 -2.4454160561666158e-16 17.038907269068687 18.216196071887683 1.8270444832749957 0.002160945810132884 0.0 4.241684436798096 -1.542308959444501 -2.0772578716278076 -1.0926720064929505 -4.70854360262026 3.9897241592407227 0.0 0.0 -0.0 -8.300991454668557e-23 -0.0 -0.0 -0.22313855588436127 1.4170658588409424 2.2726733684539795 0.10539671778678894 0.05206117033958435 -0.06424692273139954 -2.2023766527285617e-17 1.5347532033920288 1.6335272789001465 0.2203364223241806 0.0002587313065305352 0.0 -0.3171242060568749 -0.3285811641003101 0.3077968587678481 -2.4838637402758805 1.923501596608009 1.4209150673329606e-05 3.715262483922481e-24 7.391603056498744e-24 -8.282922216010423e-24 7.402325160206499e-23 -3.7564637653395093e-23 -3.1958296974944433e-25 -0.9618011094066635 -0.8140238355218352 -0.4483942533332536 -0.07838047181881988 0.03891811529797536 -0.09513067947941417 -0.31713724723787373 -0.3285880833242544 0.3078119731179999 2.4838554809428057 -1.923555618762177 2.3044661275240205e-14 0.0 0.0 0.0 0.0 0.0 0.0 0 27.625 28.125 27.75 32.5625 35.6875 35.8125 0.64758 7 253 253 253 253 253 253 1 0.019153613597154617 0.0 -9.385271072387695 0.0 1.0 0.0 47.614341735839844 47.702110290527344 0.5471917986869812 47.44160079956055 47.54193115234375 47.55626678466797 47.48460006713867 47.47026824951172 47.513267517089844 0 1 0.007550475095310153
7099.911 4.241664121241835 -1.5423224624995022 -2.0772094798857843 -1.0926790796323012 -4.708539625377614 3.9897342503559763 0.0 0.0 0.0 0.0 0.0 0.0 0.0 0.0 0.0 0.0 0.0 0.0 -1.524242406029014e-17 1.5347410440444946 1.633596658706665 0.22034025192260742 0.0002584909088909626 0.0 -1.6924475818145897e-16 17.03877265977396 18.216971372785384 1.8270762834537067 0.0021589379457171622 0.0 4.241687774658203 -1.54234308496628 -2.077223539352417 -1.0926684600165864 -4.70854360262026 3.9897170066833496 0.0 0.0 1.9516417637532868e-07 -2.741923151771131e-32 -0.0 -0.0 -0.2275528758764267 1.4583661556243896 2.2892208099365234 0.09683111310005188 0.04568886756896973 -0.05832138657569885 -1.524242406029014e-17 1.5347410440444946 1.633596658706665 0.22034025192260742 0.0002584909088909626 0.0 -0.3171298768632244 -0.3285955156884359 0.30779772402766015 -2.48387677779363 1.9234907939923807 1.3164119228442413e-05 -2.4786902330980977e-08 -4.8656294694196457e-08 8.756930441614964e-08 -1.7383279176011863e-07 8.871982810905557e-08 9.137528802126939e-11 -1.2583066286739155 -0.8185201792117837 -0.49370497994508883 -0.07953433187903625 0.03270726629818732 -0.09574171143348743 -0.31713724723787373 -0.3285880833242544 0.3078119731179999 2.4838554809428057 -1.923555618762177 2.3044661275240205e-14 0.0 0.0 0.0 0.0 0.0 0.0 0 27.625 28.125 27.75 32.5625 35.6875 35.8125 0.6552 7 253 253 253 253 253 253 1 -0.1149216815829277 0.13407528400421143 -9.385271072387695 0.0 1.0 0.0 47.617923736572266 47.71464920043945 0.6120893359184265 47.455936431884766 47.55626678466797 47.584930419921875 47.498931884765625 47.47026824951172 47.5275993347168 0 1 0.003543581281389509
7099.927 4.241664121241835 -1.5423224624995022 -2.0772094798857843 -1.0926790796323012 -4.708539625377614 3.9897342503559763 0.0 0.0 0.0 0.0 0.0 0.0 0.0 0.0 0.0 0.0 0.0 0.0 7.08087449296828e-18 1.5347095727920532 1.6335530281066895 0.22033977508544922 0.0002584909088909626 0.0 7.862271982105478e-17 17.038423395948975 18.21648349708573 1.8270722951652694 0.002158937948441727 0.0 4.241653919219971 -1.542308983658888 -2.077223539352417 -1.0926945072463532 -4.708527509366171 3.9897396564483643 0.0 0.0 2.048594904252363e-22 -9.056591974931293e-42 -0.0 -0.0 -0.17023077607154846 1.457240104675293 2.2851274013519287 0.11268991231918335 0.0356641560792923 -0.07206348329782486 7.08087449296828e-18 1.5347095727920532 1.6335530281066895 0.22033977508544922 0.0002584909088909626 0.0 -0.3171361585160392 -0.32857877066455293 0.3078100074308141 -2.4838262070311865 1.9235640838388757 -1.3987203786869082e-05 -2.6018809110700444e-23 -5.107022869824683e-23 9.192097114282283e-23 -1.8246525658416634e-22 9.313340839341047e-23 9.590614188132123e-26 -1.0465411597928198 -0.9019063102801825 -0.3696961474160608 -0.07611957348151811 0.03726416114243708 -0.09257300561368571 -0.31713724723787373 -0.3285880833242544 0.3078119731179999 2.4838554809428057 -1.923555618762177 2.3044661275240205e-14 0.0 0.0 0.0 0.0 0.0 0.0 0 27.625 28.125 27.75 32.5625 35.6875 35.8125 0.641471 7 253 253 253 253 253 253 1 0.09576806426048279 0.019153613597154617 -9.385271072387695 0.0 1.0 0.0 47.654640197753906 47.737037658691406 0.5919508934020996 47.47026824951172 47.584930419921875 47.59926223754883 47.5275993347168 47.5275993347168 47.57059860229492 0 1 0.006833263865492147
7099.942999999999 4.241664121241835 -1.5423224624995022 -2.0772094798857843 -1.0926790796323012 -4.708539625377614 3.9897342503559763 0.0 0.0 0.0 0.0 0.0 0.0 0.0 0.0 0.0 0.0 0.0 0.0 3.223660820845323e-17 1.5347040891647339 1.6335726976394653 0.22033998370170593 0.0002584909088909626 0.0 3.5794023667882263e-16 17.03836303250905 18.21670251356631 1.8270740301238886 0.0021589379472699162 0.0 4.241683483123779 -1.5423276287368317 -2.0772578716278076 -1.0926944774440308 -4.708547298108236 3.9897360801696777 0.0 0.0 2.1503644641955595e-37 -0.0 -0.0 -0.0 -0.19690491259098053 1.4277589321136475 2.2757532596588135 0.09768906235694885 0.03665249049663544 -0.06254676729440689 3.223660820845323e-17 1.5347040891647339 1.6335726976394653 0.22033998370170593 0.0002584909088909626 0.0 -0.3171250720667857 -0.3285811108524294 0.3077864690366133 -2.4838198746156017 1.9234933785722244 3.204073858174123e-05 -2.7312102207408475e-38 -5.361264242598772e-38 9.648421114304925e-38 -1.915326086002488e-37 9.77544014149667e-38 1.0067539932641815e-40 -0.9735452441408222 -0.8018605320842925 -0.544541099425035 -0.0785387424749359 0.039007688448922426 -0.09115934623788927 -0.31713724723787373 -0.3285880833242544 0.3078119731179999 2.4838554809428057 -1.923555618762177 2.3044661275240205e-14 0.0 0.0 0.0 0.0 0.0 0.0 0 27.625 28.125 27.75 32.5625 35.6875 35.8125 0.643152 7 253 253 253 253 253 253 1 0.038307227194309235 0.05746084079146385 -9.481039047241211 0.0 1.0 0.0 47.62866973876953 47.723602294921875 0.6098535060882568 47.47026824951172 47.57059860229492 47.584930419921875 47.513267517089844 47.498931884765625 47.55626678466797 0 1 0.004832449770553185
7099.959 4.241664121241835 -1.5423224624995022 -2.0772094798857843 -1.0926790796323012 -4.708539625377614 3.9897342503559763 0.0 0.0 0.0 0.0 0.0 0.0 0.0 0.0 0.0 0.0 0.0 0.0 1.746778806224155e-17 1.534723162651062 1.6335538625717163 0.22033743560314178 0.0002582425076980144 0.0 1.9395416054125163e-16 17.038573856090814 18.216494190240535 1.8270529889151634 0.002156863186147041 0.0 4.241657733917236 -1.54231238112364 -2.0772202014923096 -1.0926874440959473 -4.70854360262026 3.989755153656006 0.0 0.0 -0.0 -0.0 -0.0 -0.0 -0.21156273782253265 1.4731521606445312 2.3000621795654297 0.1088026911020279 0.06261327862739563 -0.06945063173770905 1.746778806224155e-17 1.534723162651062 1.6335538625717163 0.22033743560314178 0.0002582425076980144 0.0 -0.3171372989909392 -0.3285811553952047 0.307810727604011 -2.483822827531765 1.9235846256327718 8.776805424977257e-06 0.0 0.0 0.0 0.0 0.0 0.0 -1.0981445629475517 -1.0220339097797253 -0.544810042556106 -0.07561138033648843 0.03336995539115253 -0.08837618192146171 -0.31713724723787373 -0.3285880833242544 0.3078119731179999 2.4838554809428057 -1.923555618762177 2.3044661275240205e-14 0.0 0.0 0.0 0.0 0.0 0.0 0 27.625 28.125 27.75 32.5625 35.6875 35.8125 0.649056 7 253 253 253 253 253 253 1 0.038307227194309235 0.07661445438861847 -9.423578262329102 0.0 1.0 0.0 47.62777328491211 47.71464920043945 0.5762841701507568 47.44160079956055 47.54193115234375 47.55626678466797 47.498931884765625 47.48460006713867 47.5275993347168 0 1 0.006795194560276439
7099.974999999999 4.241664121241835 -1.5423224624995022 -2.0772094798857843 -1.0926790796323012 -4.708539625377614 3.9897342503559763 0.0 0.0 0.0 0.0 0.0 0.0 0.0 0.0 0.0 0.0 0.0 0.0 -1.940339896742176e-17 1.5347967147827148 1.6335829496383667 0.22034084796905518 0.0002584909088909626 0.0 -2.1544626541521522e-16 17.039390236663742 18.216817959457615 1.8270811871661106 0.0021589379422176425 0.0 4.2416911125183105 -1.542327643637993 -2.0772111415863037 -1.092690960769989 -4.70854360262026 3.989720582962036 0.0 0.0 -0.0 -0.0 -0.0 -0.0 -0.1791868656873703 1.4456462860107422 2.2223572731018066 0.10134729743003845 0.05653133988380432 -0.0802631825208664 -1.940339896742176e-17 1.5347967147827148 1.6335829496383667 0.22034084796905518 0.0002584909088909626 0.0 -0.3171283301322462 -0.3285956623618028 0.307807780835964 -2.483880623342119 1.9234944054792886 1.1656429789926808e-05 0.0 0.0 0.0 0.0 0.0 0.0 -1.383569360120514 -0.9560807679617224 -0.38154765395112306 -0.07548592783308691 0.025621024221795262 -0.09144931569311429 -0.31713724723787373 -0.3285880833242544 0.3078119731179999 2.4838554809428057 -1.923555618762177 2.3044661275240205e-14 0.0 0.0 0.0 0.0 0.0 0.0 0 27.625 28.125 27.75 32.5625 35.6875 35.8125 0.639396 7 253 253 253 253 253 253 1 0.0 -0.038307227194309235 -9.461885452270508 0.0 1.0 0.0 47.65374755859375 47.75942611694336 0.6635612845420837 47.455936431884766 47.57059860229492 47.57059860229492 47.513267517089844 47.513267517089844 47.54193115234375 0 1 0.003720295308545416
7099.991 4.241664121241835 -1.5423224624995022 -2.0772094798857843 -1.0926790796323012 -4.708539625377614 3.9897342503559763 0.0 0.0 0.0 0.0 0.0 0.0 0.0 0.0 0.0 0.0 0.0 0.0 1.0332624051310189e-17 1.5348055362701416 1.6335597038269043 0.2203376144170761 0.0002584909088909626 0.0 1.1472862871289577e-16 17.039487684603063 18.216557788543327 1.827054359268247 0.0021589379593456364 0.0 4.2417073249816895 -1.5423242480358859 -2.0772111415863037 -1.0926636022380372 -4.708527509366171 3.989720582962036 0.0 0.0 -0.0 -0.0 -0.0 -0.0 -0.16038356721401215 1.4577209949493408 2.360891580581665 0.11937592923641205 0.0376950278878212 -0.057891979813575745 1.0332624051310189e-17 1.5348055362701416 1.6335597038269043 0.2203376144170761 0.0002584909088909626 0.0 -0.3171225734122115 -0.3286035260878736 0.3078119923325835 2.483902696975332 -1.9234790742053964 2.2257508304287767e-05 0.0 0.0 0.0 0.0 0.0 0.0 -1.187270930282493 -1.0159560625931823 -0.49667528490572044 -0.07519427451922768 0.034582664670101675 -0.08880498119289452 -0.31713724723787373 -0.3285880833242544 0.3078119731179999 2.4838554809428057 -1.923555618762177 2.3044661275240205e-14 0.0 0.0 0.0 0.0 0.0 0.0 0 27.625 28.125 27.75 32.5625 35.6875 35.8125 0.642636 7 253 253 253 253 253 253 1 -0.038307227194309235 0.09576806426048279 -9.404424667358398 0.0 1.0 0.0 47.63045883178711 47.72002029418945 0.5964226126670837 47.455936431884766 47.57059860229492 47.584930419921875 47.54193115234375 47.513267517089844 47.57059860229492 0 1 0.007063264300109476
7100.007 4.241664121241835 -1.5423224624995022 -2.0772094798857843 -1.0926790796323012 -4.708539625377614 3.9897342503559763 0.0 0.0 0.0 0.0 0.0 0.0 0.0 0.0 0.0 0.0 0.0 0.0 -2.6117634339272342e-18 1.5347901582717896 1.6335766315460205 0.220340758562088 0.0002582425076980144 0.0 -2.899980166787709e-17 17.039318417444566 18.216746448264974 1.827080455591074 0.0021568631688259096 0.0 4.2417073249816895 -1.5423310038498421 -2.07723069190979 -1.092690960769989 -4.7085400263415735 3.989755153656006 0.0 0.0 -0.0 -0.0 -0.0 -0.0 -0.15799647569656372 1.442291021347046 2.3594257831573486 0.1085662990808487 0.05932493507862091 -0.07240767776966095 -2.6117634339272342e-18 1.5347901582717896 1.6335766315460205 0.220340758562088 0.0002582425076980144 0.0 -0.3171204235101671 -0.32859652604815004 0.3077975420428595 -2.483844629774224 1.923503021668112 1.2838142337949197e-05 0.0 0.0 0.0 0.0 0.0 0.0 -1.2895556227466338 -0.8610223889566218 -0.44766914736509816 -0.0812558974179295 0.03271986984565783 -0.09313372240694694 -0.31713724723787373 -0.3285880833242544 0.3078119731179999 2.4838554809428057 -1.923555618762177 2.3044661275240205e-14 0.0 0.0 0.0 0.0 0.0 0.0 0 27.625 28.125 27.75 32.5625 35.6875 35.8125 0.646031 7 253 253 253 253 253 253 1 0.0 0.05746084079146385 -9.366117477416992 0.0 1.0 0.0 47.635833740234375 47.71554183959961 0.5762841701507568 47.48460006713867 47.584930419921875 47.584930419921875 47.5275993347168 47.498931884765625 47.55626678466797 0 1 0.0033446915853330953
7100.022999999999 4.241664121241835 -1.5423224624995022 -2.0772094798857843 -1.0926790796323012 -4.708539625377614 3.9897342503559763 0.0 0.0 0.0 0.0 0.0 0.0 0.0 0.0 0.0 0.0 0.0 0.0 3.541682980486645e-17 1.5347857475280762 1.6335722208023071 0.22033843398094177 0.0002582425076980144 0.0 3.9325194092682033e-16 17.03926872439734 18.21669675521775 1.82706112412307 0.0021568631815556895 0.0 4.241691589355469 -1.5423276287368317 -2.0771992206573486 -1.0926649135402222 -4.708531204854147 3.9897360801696777 0.0 0.0 -0.0 -0.0 -0.0 -0.0 -0.1656261831521988 1.4408793449401855 2.352064847946167 0.10600847005844116 0.04911702126264572 -0.07400308549404144 3.541682980486645e-17 1.5347857475280762 1.6335722208023071 0.22033843398094177 0.0002582425076980144 0.0 -0.31712975052681935 -0.328601662029583 0.30781573510065646 2.4838664921933957 -1.923513088615975 1.8656627431920268e-05 0.0 0.0 0.0 0.0 0.0 0.0 -0.9899925751996549 -1.0876096332145269 -0.3080762422690764 -0.07118880274815283 0.03650265204832747 -0.0919851073870654 -0.31713724723787373 -0.3285880833242544 0.3078119731179999 2.4838554809428057 -1.923555618762177 2.3044661275240205e-14 0.0 0.0 0.0 0.0 0.0 0.0 0 27.625 28.125 27.75 32.5625 35.6875 35.8125 0.639756 7 253 253 253 253 253 253 1 -0.019153613597154617 0.07661445438861847 -9.366117477416992 0.0 1.0 0.0 47.635833740234375 47.72718811035156 0.6210432648658752 47.455936431884766 47.57059860229492 47.55626678466797 47.513267517089844 47.498931884765625 47.54193115234375 0 1 0.007249247056772641
7100.039 4.241664121241835 -1.5423224624995022 -2.0772094798857843 -1.0926790796323012 -4.708539625377614 3.9897342503559763 0.0 0.0 0.0 0.0 0.0 0.0 0.0 0.0 0.0 0.0 0.0 0.0 -6.482127416633407e-17 1.5347362756729126 1.6335796117782593 0.2203398048877716 0.0002584909088909626 0.0 -7.197451757440078e-16 17.038719319330234 18.216779189447184 1.8270725094231526 0.002158937948298133 0.0 4.241684436798096 -1.5422935181162138 -2.07723069190979 -1.0926443499377747 -4.708559099827902 3.989748001098633 0.0 0.0 -0.0 -0.0 -0.0 -0.0 -0.16081975400447845 1.4410717487335205 2.2892801761627197 0.09512308239936829 0.04031659662723541 -0.06042409688234329 -6.482127416633407e-17 1.5347362756729126 1.6335796117782593 0.2203398048877716 0.0002584909088909626 0.0 -0.3171292552360482 -0.32858770438269896 0.3078185535304983 2.4838260453350993 -1.9235195412720227 -1.7464213487233765e-05 0.0 0.0 0.0 0.0 0.0 0.0 -0.9878856201195688 -0.8249393102046344 -0.45364769694981316 -0.08039033909726745 0.034301443121997344 -0.09026707122075796 -0.31713724723787373 -0.3285880833242544 0.3078119731179999 2.4838554809428057 -1.923555618762177 2.3044661275240205e-14 0.0 0.0 0.0 0.0 0.0 0.0 0 27.625 28.125 27.75 32.5625 35.6875 35.8125 0.640764 7 253 253 253 253 253 253 1 0.038307227194309235 0.15322890877723694 -9.385271072387695 0.0 1.0 0.0 47.6394157409668 47.71375274658203 0.6053765416145325 47.44160079956055 47.55626678466797 47.584930419921875 47.513267517089844 47.498931884765625 47.54193115234375 0 1 0.005815375052849284
7100.054999999999 4.241664121241835 -1.5423224624995022 -2.0772094798857843 -1.0926790796323012 -4.708539625377614 3.9897342503559763 0.0 0.0 0.0 0.0 0.0 0.0 0.0 0.0 0.0 0.0 0.0 0.0 2.7781188436116005e-17 1.534760594367981 1.6335914134979248 0.2203398048877716 0.0002574491663835943 0.0 3.08469341914523e-16 17.038990098073374 18.2169104322231 1.8270725052483359 0.0021502372832376718 0.0 4.241691589355469 -1.5423242480358859 -2.0772271156311035 -1.0927064281753083 -4.708547298108236 3.9897515773773193 0.0 0.0 -0.0 -0.0 -0.0 -0.0 -0.22005553543567657 1.380955457687378 2.295095205307007 0.11633966863155365 0.04291704297065735 -0.05920926481485367 2.7781188436116005e-17 1.534760594367981 1.6335914134979248 0.2203398048877716 0.0002574491663835943 0.0 -0.3171255570814033 -0.328589847576096 0.30780055198930356 -2.483829974892158 1.9235159468541043 2.5598336251767933e-05 0.0 0.0 0.0 0.0 0.0 0.0 -1.019827171459886 -0.7257698581864002 -0.3775383320158853 -0.08039611476825834 0.0360778550620507 -0.09210248777983158 -0.31713724723787373 -0.3285880833242544 0.3078119731179999 2.4838554809428057 -1.923555618762177 2.3044661275240205e-14 0.0 0.0 0.0 0.0 0.0 0.0 0 27.625 28.125 27.75 32.5625 35.6875 35.8125 0.642696 7 253 253 253 253 253 253 1 0.019153613597154617 0.019153613597154617 -9.404424667358398 0.0 1.0 0.0 47.610755920410156 47.712860107421875 0.6188021302223206 47.455936431884766 47.55626678466797 47.55626678466797 47.513267517089844 47.47026824951172 47.54193115234375 0 1 0.008285045623779297
7100.071 4.241664121241835 -1.5423224624995022 -2.0772094798857843 -1.0926790796323012 -4.708539625377614 3.9897342503559763 0.0 0.0 0.0 0.0 0.0 0.0 0.0 0.0 0.0 0.0 0.0 0.0 2.6719531898406246e-17 1.534719705581665 1.6335757970809937 0.22034023702144623 0.0002582425076980144 0.0 2.966811967952941e-16 17.03853573494816 18.216736989177168 1.8270761674449174 0.002156863171870735 0.0 4.241661071777344 -1.542308998560049 -2.07723069190979 -1.0926839274219056 -4.708559099827902 3.989732503890991 0.0 0.0 -0.0 -0.0 -0.0 -0.0 -0.14946240186691284 1.4943478107452393 2.2820324897766113 0.11859682202339172 0.04214319586753845 -0.07019481062889099 2.6719531898406246e-17 1.534719705581665 1.6335757970809937 0.22034023702144623 0.0002582425076980144 0.0 -0.31713618137406346 -0.3285787748812515 0.3078078481247454 -2.4838473402422334 1.9235519661575067 3.371507795253091e-05 0.0 0.0 0.0 0.0 0.0 0.0 -1.083670171996538 -0.7731358763583652 -0.4548153834179251 -0.07924720785898488 0.032584648666499516 -0.09299019628710188 -0.31713724723787373 -0.3285880833242544 0.3078119731179999 2.4838554809428057 -1.923555618762177 2.3044661275240205e-14 0.0 0.0 0.0 0.0 0.0 0.0 0 27.625 28.125 27.75 32.5625 35.6875 35.8125 0.643512 7 253 253 253 253 253 253 1 0.13407529890537262 -0.019153613597154617 -9.404424667358398 0.0 1.0 0.0 47.654640197753906 47.72718811035156 0.5919508934020996 47.47026824951172 47.57059860229492 47.584930419921875 47.513267517089844 47.513267517089844 47.55626678466797 0 1 0.0002765655517578125
7100.0869999999995 4.241664121241835 -1.5423224624995022 -2.0772094798857843 -1.0926790796323012 -4.708539625377614 3.9897342503559763 0.0 0.0 0.0 0.0 0.0 0.0 0.0 0.0 0.0 0.0 0.0 0.0 2.640898844411914e-17 1.5346988439559937 1.6335744857788086 0.22034034132957458 0.0002584909088909626 0.0 2.9323306504695505e-16 17.038304075742527 18.21672156446919 1.827077062078913 0.002158937945172518 0.0 4.241661071777344 -1.5423276417753478 -2.0772340297698975 -1.0926720064929505 -4.70854360262026 3.9897360801696777 0.0 0.0 -0.0 -0.0 -0.0 -0.0 -0.22247467935085297 1.4841394424438477 2.2605655193328857 0.1204603910446167 0.048052892088890076 -0.06902378797531128 2.640898844411914e-17 1.5346988439559937 1.6335744857788086 0.22034034132957458 0.0002584909088909626 0.0 -0.31713614247844957 -0.3285821169090297 0.30779940306192766 -2.483833825356711 1.923548512359931 1.2737053035426542e-05 0.0 0.0 0.0 0.0 0.0 0.0 -1.0191074606945896 -0.7928630095197475 -0.4423042157593688 -0.08017750789580527 0.03603450380016662 -0.0890087664765221 -0.31713724723787373 -0.3285880833242544 0.3078119731179999 2.4838554809428057 -1.923555618762177 2.3044661275240205e-14 0.0 0.0 0.0 0.0 0.0 0.0 0 27.625 28.125 27.75 32.5625 35.6875 35.8125 0.64938 7 253 253 253 253 253 253 1 0.0 0.05746084079146385 -9.404424667358398 0.0 1.0 0.0 47.61702346801758 47.72629165649414 0.5941867828369141 47.44160079956055 47.57059860229492 47.55626678466797 47.5275993347168 47.513267517089844 47.5275993347168 0 1 0.00043392181396484375
7100.103 4.241664121241835 -1.5423224624995022 -2.0772094798857843 -1.0926790796323012 -4.708539625377614 3.9897342503559763 0.0 0.0 0.0 0.0 0.0 0.0 0.0 0.0 0.0 0.0 0.0 0.0 -3.3274541206194965e-17 1.5346896648406982 1.633577823638916 0.2203378975391388 0.0002595726982690394 0.0 -3.694649723358386e-16 17.038201753460083 18.216760703270516 1.8270567905436326 0.0021679732635158373 0.0 4.241676330566406 -1.5423055824688454 -2.0772111415863037 -1.0927151304534455 -4.708547298108236 3.989720582962036 0.0 0.0 -0.0 -0.0 -0.0 -0.0 -0.12039637565612793 1.4725778102874756 2.273268938064575 0.11805546283721924 0.04498019814491272 -0.07853337377309799 -3.3274541206194965e-17 1.5346896648406982 1.633577823638916 0.2203378975391388 0.0002595726982690394 0.0 -0.31713098024573083 -0.3285857993883034 0.30781499741494356 -2.483865233037467 1.9235120398468861 1.8018095324866767e-05 0.0 0.0 0.0 0.0 0.0 0.0 -1.2276900990786743 -0.9084507490010222 -0.4639041896744611 -0.07664670080466125 0.030998074059974536 -0.08365878573169169 -0.31713724723787373 -0.3285880833242544 0.3078119731179999 2.4838554809428057 -1.923555618762177 2.3044661275240205e-14 0.0 0.0 0.0 0.0 0.0 0.0 0 27.625 28.125 27.75 32.5625 35.6875 35.8125 0.662172 7 253 253 253 253 253 253 1 0.038307227194309235 0.07661445438861847 -9.366117477416992 0.0 1.0 0.0 47.62419128417969 47.723602294921875 0.5718072056770325 47.44160079956055 47.54193115234375 47.55626678466797 47.513267517089844 47.455936431884766 47.513267517089844 0 1 0.0002555549144744873
7100.119 4.241664121241835 -1.5423224624995022 -2.0772094798857843 -1.0926790796323012 -4.708539625377614 3.9897342503559763 0.0 0.0 0.0 0.0 0.0 0.0 0.0 0.0 0.0 0.0 0.0 0.0 -5.856871517771924e-17 1.5347636938095093 1.633562684059143 0.2203383892774582 0.0002582425076980144 0.0 -6.503196678772352e-16 17.039024002886144 18.216591569721118 1.8270608774488908 0.002156863181701574 0.0 4.241676330566406 -1.5423329316875716 -2.0772147178649902 -1.0926874440959473 -4.70854360262026 3.989732503890991 0.0 0.0 -0.0 -0.0 -0.0 -0.0 -0.16889458894729614 1.4570178985595703 2.275056838989258 0.1298680603504181 0.059894755482673645 -0.0741516500711441 -5.856871517771924e-17 1.5347636938095093 1.633562684059143 0.2203383892774582 0.0002582425076980144 0.0 -0.31713323902236434 -0.32859108075075055 0.3078042191737789 -2.4838507983686626 1.9235243367016186 1.3215535786152093e-05 0.0 0.0 0.0 0.0 0.0 0.0 -0.9744249769863472 -0.6612512129444876 -0.34682566540830784 -0.07930262176272343 0.03726215647128767 -0.08299027810104469 -0.31713724723787373 -0.3285880833242544 0.3078119731179999 2.4838554809428057 -1.923555618762177 2.3044661275240205e-14 0.0 0.0 0.0 0.0 0.0 0.0 0 27.625 28.125 27.75 32.5625 35.6875 35.8125 0.642396 7 253 253 253 253 253 253 1 -0.019153613597154617 -0.019153613597154617 -9.346963882446289 0.0 1.0 0.0 47.6367301940918 47.74151611328125 0.5360020399093628 47.455936431884766 47.57059860229492 47.57059860229492 47.5275993347168 47.498931884765625 47.55626678466797 0 1 0.0001239776611328125
7100.134999999999 4.241664121241835 -1.5423224624995022 -2.0772094798857843 -1.0926790796323012 -4.708539625377614 3.9897342503559763 0.0 0.0 0.0 0.0 0.0 0.0 0.0 0.0 0.0 0.0 0.0 0.0 -3.6014993884305596e-17 1.5347422361373901 1.6335855722427368 0.22034074366092682 0.0002595726982690394 0.0 -3.9989367474516125e-16 17.038786504852247 18.21684552789659 1.827080323898908 0.0021679732483012634 0.0 4.241691589355469 -1.5423123531839629 -2.07723069190979 -1.0926944774440308 -4.70854360262026 3.9897360801696777 0.0 0.0 -0.0 -0.0 -0.0 -0.0 -0.16367046535015106 1.4840412139892578 2.2704083919525146 0.11611175537109375 0.04361535608768463 -0.059716448187828064 -3.6014993884305596e-17 1.5347422361373901 1.6335855722427368 0.22034074366092682 0.0002595726982690394 0.0 -0.3171245256475377 -0.3285886468660354 0.30780533092176166 -2.4838601132999383 1.923508408022364 1.3911858040025918e-05 0.0 0.0 0.0 0.0 0.0 0.0 -1.255837602692611 -0.7994171600666807 -0.5990542430751802 -0.07788062096586854 0.030660686519687338 -0.09052211719578192 -0.31713724723787373 -0.3285880833242544 0.3078119731179999 2.4838554809428057 -1.923555618762177 2.3044661275240205e-14 0.0 0.0 0.0 0.0 0.0 0.0 0 27.625 28.125 27.75 32.5625 35.6875 35.8125 0.645876 7 253 253 253 253 253 253 1 -0.038307227194309235 0.038307227194309235 -9.481039047241211 0.0 1.0 0.0 47.63762283325195 47.71464920043945 0.5941867828369141 47.455936431884766 47.584930419921875 47.584930419921875 47.54193115234375 47.513267517089844 47.57059860229492 0 1 0.00020503997802734375
7100.151 4.241664121241835 -1.5423224624995022 -2.0772094798857843 -1.0926790796323012 -4.708539625377614 3.9897342503559763 0.0 0.0 0.0 0.0 0.0 0.0 0.0 0.0 0.0 0.0 0.0 0.0 7.745434395623103e-19 1.5348048210144043 1.6335660219192505 0.22034063935279846 0.0002584909088909626 0.0 8.600168290982696e-18 17.039479541256114 18.21662973211354 1.8270794940842507 0.0021589379434445543 0.0 4.241653919219971 -1.5423208729228755 -2.0772111415863037 -1.0926839274219056 -4.708547298108236 3.989755153656006 0.0 0.0 -0.0 -0.0 -0.0 -0.0 -0.19580979645252228 1.4362707138061523 2.251047372817993 0.10258887708187103 0.0687270313501358 -0.05968731641769409 7.745434395623103e-19 1.5348048210144043 1.6335660219192505 0.22034063935279846 0.0002584909088909626 0.0 -0.3171407484590245 -0.3285834500507262 0.307811437729262 -2.483822897815426 1.9235922254026538 1.3288411082640303e-05 0.0 0.0 0.0 0.0 0.0 0.0 -1.104149976922838 -0.5935904228334509 -0.5141612000158212 -0.08212397961522334 0.033939759734635505 -0.09135818194091938 -0.31713724723787373 -0.3285880833242544 0.3078119731179999 2.4838554809428057 -1.923555618762177 2.3044661275240205e-14 0.0 0.0 0.0 0.0 0.0 0.0 0 27.625 28.125 27.75 32.5625 35.6875 35.8125 0.652596 7 253 253 253 253 253 253 1 0.07661445438861847 0.05746084079146385 -9.461885452270508 0.0 1.0 0.0 47.604488372802734 47.711063385009766 0.6076123714447021 47.44160079956055 47.54193115234375 47.55626678466797 47.513267517089844 47.47026824951172 47.5275993347168 0 1 8.519738912582397e-05
7100.1669999999995 4.241664121241835 -1.5423224624995022 -2.0772094798857843 -1.0926790796323012 -4.708539625377614 3.9897342503559763 0.0 0.0 0.0 0.0 0.0 0.0 0.0 0.0 0.0 0.0 0.0 0.0 1.2788297469672901e-17 1.5347110033035278 1.633554458618164 0.22033792734146118 0.0002595726982690394 0.0 1.419952785479599e-16 17.038438243345393 18.21649857550195 1.8270569630106244 0.0021679732634182127 0.0 4.241653919219971 -1.542308985521533 -2.07723069190979 -1.0926755231669922 -4.708527509366171 3.9897360801696777 0.0 0.0 -0.0 -0.0 -0.0 -0.0 -0.21351374685764313 1.4571466445922852 2.276013135910034 0.12784996628761292 0.05095410346984863 -0.07281718403100967 1.2788297469672901e-17 1.5347110033035278 1.633554458618164 0.22033792734146118 0.0002595726982690394 0.0 -0.31713609990803526 -0.32857867819036357 0.3078086915568202 -2.4838388969808003 1.9235666675142293 -1.7509718425192927e-05 0.0 0.0 0.0 0.0 0.0 0.0 -1.0784297035269794 -0.7983513926362772 -0.6310306147847191 -0.07939132179068982 0.03273553891178642 -0.0907543534843177 -0.31713724723787373 -0.3285880833242544 0.3078119731179999 2.4838554809428057 -1.923555618762177 2.3044661275240205e-14 0.0 0.0 0.0 0.0 0.0 0.0 0 27.625 28.125 27.75 32.5625 35.6875 35.8125 0.642768 7 253 253 253 253 253 253 1 0.0 0.019153613597154617 -9.481039047241211 0.0 1.0 0.0 47.657325744628906 47.74509811401367 0.5718072056770325 47.498931884765625 47.584930419921875 47.584930419921875 47.55626678466797 47.5275993347168 47.584930419921875 0 1 0.00024594204054058843
7100.183 4.241664121241835 -1.5423224624995022 -2.0772094798857843 -1.0926790796323012 -4.708539625377614 3.9897342503559763 0.0 0.0 0.0 0.0 0.0 0.0 0.0 0.0 0.0 0.0 0.0 0.0 -3.754987198478036e-21 1.5346977710723877 1.6335411071777344 0.22033606469631195 0.0002584909088909626 0.0 -4.1693625185429083e-20 17.038292243801592 18.216351343852537 1.827041559463932 0.002158937965777929 0.0 4.241700649261475 -1.542324261074402 -2.07723069190979 -1.0926720064929505 -4.708527509366171 3.9897360801696777 0.0 0.0 -0.0 -0.0 -0.0 -0.0 -0.16299813985824585 1.415750503540039 2.2694284915924072 0.11650031805038452 0.03607243299484253 -0.06745254993438721 -3.754987198478036e-21 1.5346977710723877 1.6335411071777344 0.22033606469631195 0.0002584909088909626 0.0 -0.3171219089557838 -0.3285957884593005 0.3078023757619768 -2.483874719448443 1.9235015427083435 -1.4058845132577842e-05 0.0 0.0 0.0 0.0 0.0 0.0 -1.2047904024435154 -0.9981534026827948 -0.4551911360055743 -0.07428783264116723 0.030882208458360743 -0.08597898604257247 -0.31713724723787373 -0.3285880833242544 0.3078119731179999 2.4838554809428057 -1.923555618762177 2.3044661275240205e-14 0.0 0.0 0.0 0.0 0.0 0.0 0 27.625 28.125 27.75 32.5625 35.6875 35.8125 0.655283 7 253 253 253 253 253 253 1 0.05746084079146385 0.0 -9.404424667358398 0.0 1.0 0.0 47.64299774169922 47.72897720336914 0.6098535060882568 47.455936431884766 47.584930419921875 47.584930419921875 47.54193115234375 47.513267517089844 47.55626678466797 0 1 0.00034766730095725507
7100.199 4.241664121241835 -1.5423224624995022 -2.0772094798857843 -1.0926790796323012 -4.708539625377614 3.9897342503559763 0.0 0.0 0.0 0.0 0.0 0.0 0.0 0.0 0.0 0.0 0.0 0.0 -2.892904711982114e-17 1.534778118133545 1.6335521936416626 0.22033850848674774 0.0002584909088909626 0.0 -3.2121464873981e-16 17.039185058686677 18.216474631572087 1.827061753348434 0.0021589379551178443 0.0 4.241669654846191 -1.5423157562366505 -2.077195882797241 -1.0926838976195832 -4.70854360262026 3.9897360801696777 0.0 0.0 -0.0 -0.0 -0.0 -0.0 -0.20475278794765472 1.4313445091247559 2.2678754329681396 0.12878623604774475 0.042852357029914856 -0.06412751227617264 -2.892904711982114e-17 1.534778118133545 1.6335521936416626 0.22033850848674774 0.0002584909088909626 0.0 -0.31713685163253275 -0.3285917511528282 0.30782052042767094 2.483846409186873 -1.9235412603056286 -1.6179703055004709e-06 0.0 0.0 0.0 0.0 0.0 0.0 -0.9864215202110234 -1.1454877616013053 -0.5832702994182729 -0.06883036807975616 0.03424325548356498 -0.0868464440714146 -0.31713724723787373 -0.3285880833242544 0.3078119731179999 2.4838554809428057 -1.923555618762177 2.3044661275240205e-14 0.0 0.0 0.0 0.0 0.0 0.0 0 27.625 28.125 27.75 32.5625 35.6875 35.8125 0.651864 7 253 253 253 253 253 253 1 0.13407529890537262 0.15322890877723694 -9.327810287475586 0.0 1.0 0.0 47.63493728637695 47.7164421081543 0.5852327942848206 47.455936431884766 47.57059860229492 47.57059860229492 47.513267517089844 47.48460006713867 47.54193115234375 0 1 0.00014421678012392175
7100.214999999999 4.241664121241835 -1.5423224624995022 -2.0772094798857843 -1.0926790796323012 -4.708539625377614 3.9897342503559763 0.0 0.0 0.0 0.0 0.0 0.0 0.0 0.0 0.0 0.0 0.0 0.0 -4.801239171027266e-17 1.5348262786865234 1.6335678100585938 0.2203398048877716 0.0002582425076980144 0.0 -5.331072031412514e-16 17.039718188808713 18.216648448659956 1.8270725292825778 0.002156863174355199 0.0 4.241703987121582 -1.5423276305994769 -2.07723069190979 -1.0926600855639954 -4.708527509366171 3.989748001098633 0.0 0.0 -0.0 -0.0 -0.0 -0.0 -0.20063762366771698 1.4872040748596191 2.2348430156707764 0.12303423881530762 0.0375763475894928 -0.07629643380641937 -4.801239171027266e-17 1.5348262786865234 1.6335678100585938 0.2203398048877716 0.0002582425076980144 0.0 -0.31712156767149297 -0.32859834469517724 0.3078020947116329 -2.483873148344238 1.923517287082213 -1.6592625680382904e-05 0.0 0.0 0.0 0.0 0.0 0.0 -1.1869460139789885 -0.925303875104051 -0.4288974382423858 -0.07432589966539684 0.03025224923591144 -0.08931648939746564 -0.31713724723787373 -0.3285880833242544 0.3078119731179999 2.4838554809428057 -1.923555618762177 2.3044661275240205e-14 0.0 0.0 0.0 0.0 0.0 0.0 0 27.625 28.125 27.75 32.5 35.6875 35.8125 0.712284 7 253 253 253 253 253 253 1 0.07661445438861847 0.038307227194309235 -9.461885452270508 0.0 1.0 0.0 47.645687103271484 47.74688720703125 0.5718072056770325 47.47026824951172 47.584930419921875 47.584930419921875 47.5275993347168 47.5275993347168 47.55626678466797 0 2 0.00020503997802734375
7100.231 4.241664121362322 -1.542322404466593 -2.077209401061607 -1.0926792164901808 -4.7085396251318326 3.9897342499879116 3.4420451695168603e-08 1.658082398665293e-05 2.2521199659683596e-05 -3.9102250105025224e-05 7.022308578616423e-08 -1.0516575085615651e-07 5.916015007869645e-06 0.002849828388354776 0.003870831671733702 -0.006720698982682664 1.206959051288164e-05 -1.8075363977626436e-05 -6.34689349681139e-05 1.537110447883606 1.6363970041275024 0.21952959895133972 0.0002610202645882964 -2.0944030438840855e-06 -0.000570993185113432 17.049180798727157 18.227738290055004 1.8260855117114068 0.0021691580310647597 -3.833958662003493e-06 4.241645812988281 -1.5423396968147536 -2.077242612838745 -1.092690960769989 -4.708527509366171 3.989720582962036 0.0 0.0 -0.0 -0.0 -0.0 -0.0 -0.20893500745296478 1.4890997409820557 2.2926228046417236 0.12287358939647675 0.03822089731693268 -0.07960699498653412 -6.34689349681139e-05 1.537110447883606 1.6363970041275024 0.21952959895133972 0.0002610202645882964 -2.0944030438840855e-06 -0.3171385819750779 -0.3285757367038384 0.3077883990251193 -2.483800841313748 1.9235226434730195 -4.3956751067821566e-07 0.0 0.0 0.0 0.0 0.0 0.0 -1.2161972094454707 -0.9563405723366026 -0.5730325703496707 -0.07556618140372642 0.031449381990231895 -0.09015021356849015 -0.3171372472378748 -0.32858808332425365 0.30781202015799997 2.483855480942806 -1.9235556187621772 2.3447395543940482e-14 -2.074423594174512e-21 -1.9786234460602393e-21 1.3440000000000003e-05 -5.054747632428335e-21 4.99242296348109e-21 2.4616895029578104e-21 0 27.625 28.125 27.75 32.5 35.6875 35.8125 0.91674 7 253 253 253 253 253 253 1 0.0 0.09576806426048279 -9.423578262329102 1.0 1.0 7.171004769932092e-05 47.617923736572266 47.7218132019043 0.6344689130783081 47.455936431884766 47.57059860229492 47.57059860229492 47.513267517089844 47.513267517089844 47.54193115234375 0 2 0.0008967998553352608
7100.246999999999 4.241664123454592 -1.5423213965918867 -2.077208032092753 -1.092681593347507 -4.708539620863281 3.9897342435953327 2.950323111516084e-07 0.00014212058695191527 0.0001930393522087293 -0.000335161880242449 6.019097201292749e-07 -9.014212911593247e-07 2.650679579011687e-05 0.01276856906520141 0.01734342992764786 -0.03011217338766276 5.407757797270163e-05 -8.098712702955556e-05 -0.00021543224283959717 1.5529224872589111 1.6562873125076294 0.21290142834186554 0.00027276022592559457 -1.8279004507348873e-05 -0.002558119216987523 17.085967866388692 18.265626602388576 1.8225815792268554 0.00217145805303324 -1.7178149074718062e-05 4.241684436798096 -1.542324261074402 -2.0772078037261963 -1.0926874440959473 -4.70854360262026 3.989732503890991 0.0 0.0 -0.0 -0.0 -0.0 -0.0 -0.18943607807159424 1.5428755283355713 2.294131278991699 0.11851836740970612 0.05630579590797424 -0.06899453699588776 -0.00021543224283959717 1.5529224872589111 1.6562873125076294 0.21290142834186554 0.00027276022592559457 -1.8279004507348873e-05 -0.317130882152552 -0.3285942526109041 0.30781110571842907 -2.483870703488789 1.9235236397441497 8.647785633776402e-06 0.0 0.0 0.0 0.0 0.0 0.0 -1.186160106510795 -0.9191713800992958 -0.5190950246907144 -0.07195902876624051 0.02601820801303202 -0.08867043818041628 -0.3171372472378584 -0.32858808332419165 0.3078128371180177 2.483855480942807 -1.9235556187621772 2.3367715404879607e-14 -6.036482479660427e-20 4.049007922929212e-20 0.00011519999999999993 1.1054513573911482e-19 -4.8387435409218096e-20 -7.093900933254765e-21 0 27.625 28.125 27.75 32.5 35.6875 35.8125 0.915228 7 253 253 253 253 253 253 1 0.0 0.09576806426048279 -9.404424667358398 1.0 1.0 0.0007056007956195456 47.6421012878418 47.7164421081543 0.6076123714447021 47.455936431884766 47.57059860229492 47.584930419921875 47.5275993347168 47.498931884765625 47.54193115234375 0 2 0.0028928092519409088
7100.263 4.241664129527347 -1.5423184712966513 -2.077204058683244 -1.0926884920922042 -4.708539608474036 3.98973422504106 0.0 0.0 0.0 0.0 0.0 0.0 0.0 0.0 0.0 0.0 0.0 0.0 0.007814719341695309 1.4485775232315063 1.5516842603683472 0.22507350146770477 0.0002273366117151454 3.047963218705263e-05 -1.490432134681654e-16 17.038851320299436 18.21691065137018 1.8270725188309807 0.0021568631743622054 0.0 4.241661071777344 -1.5423208710602303 -2.07723069190979 -1.0926755231669922 -4.708547298108236 3.989720582962036 0.0 0.0 6.13093718015989e-08 -0.0 -0.0 -0.0 -0.187294602394104 1.3907527923583984 2.142453193664551 0.1147129237651825 0.04775184392929077 -0.07482995092868805 0.007814719341695309 1.4485775232315063 1.5516842603683472 0.22507350146770477 0.0002273366117151454 3.047963218705263e-05 -0.3171362912372858 -0.3285815926605972 0.3078035048950149 -2.483854388458716 1.923533672754815 1.6512840756503328e-05 -7.786860833074654e-09 -1.528447358600308e-08 2.750945974102167e-08 -5.460753174818035e-08 2.7872131658765533e-08 2.8703215935506828e-11 -1.3059752263695525 -0.9687649782408361 -0.34690607061579426 -0.0747360924581209 0.0324279312050237 -0.0904709210749168 -0.31713724723766246 -0.32858808332384887 0.30781520831933595 2.483855480942804 -1.9235556187621803 2.9877139255877295e-14 0.0 0.0 0.0 0.0 0.0 0.0 0 27.625 28.125 27.75 32.5 35.6875 35.8125 0.737579 7 253 253 253 253 253 253 1 0.05746084079146385 0.05746084079146385 -9.346963882446289 0.10750000000000004 1.0 0.0 47.63225173950195 47.734352111816406 0.6210432648658752 47.47026824951172 47.57059860229492 47.584930419921875 47.5275993347168 47.513267517089844 47.54193115234375 0 0 0.002066294352213542
7100.2789999999995 4.241664129527347 -1.5423184712966513 -2.077204058683244 -1.0926884920922042 -4.708539608474036 3.98973422504106 0.0 0.0 0.0 0.0 0.0 0.0 0.0 0.0 0.0 0.0 0.0 0.0 0.0038878642953932285 1.5138964653015137 1.6187832355499268 0.21753904223442078 0.0002539471024647355 3.1224331564772e-08 -7.616123951207388e-16 17.039111694659773 18.21653918643374 1.827067622186829 0.0021589379514951883 0.0 4.241684436798096 -1.5422969174436112 -2.077221632003784 -1.0926790696433564 -4.7085400263415735 3.989720582962036 0.0 0.0 -1.0311263426215564e-13 -0.0 -0.0 -0.0 -0.16342991590499878 1.4586694240570068 2.2346527576446533 0.10608634352684021 0.05870164930820465 -0.06236864626407623 0.0038878642953932285 1.5138964653015137 1.6187832355499268 0.21753904223442078 0.0002539471024647355 3.1224331564772e-08 -0.3171273811817029 -0.3285881719657257 0.30781767008287386 2.483877692470587 -1.9235053146510077 3.343596153680002e-06 1.3094986913785462e-14 2.5705036533501552e-14 -4.626746164710928e-14 9.18422975472022e-14 -4.6874357548850844e-14 -4.827126203845371e-17 -1.145881614682241 -0.947291109707266 -0.7207047000356052 -0.08234842155793749 0.03239581842678943 -0.09203427131261802 -0.31713724723766246 -0.32858808332384887 0.30781520831933595 2.483855480942804 -1.9235556187621803 2.9877139255877295e-14 0.0 0.0 0.0 0.0 0.0 0.0 0 27.625 28.125 27.75 32.5 35.6875 35.8125 0.65514 7 253 253 253 253 253 253 1 0.07661445438861847 0.038307227194309235 -9.366117477416992 0.0 1.0 0.0 47.6394157409668 47.72092056274414 0.6389458775520325 47.44160079956055 47.57059860229492 47.55626678466797 47.513267517089844 47.498931884765625 47.54193115234375 0 1 0.0015375352328798424
7100.295 4.241664129527347 -1.5423184712966513 -2.077204058683244 -1.0926884920922042 -4.708539608474036 3.98973422504106 0.0 0.0 0.0 0.0 0.0 0.0 0.0 0.0 0.0 0.0 0.0 0.0 4.200506861222265e-17 1.5348283052444458 1.6335573196411133 0.22033773362636566 0.0002584909088909626 0.0 4.664046398477441e-16 17.03974065120471 18.21653183702015 1.8270553230043376 0.0021589379588158437 0.0 4.241684436798096 -1.5423090246370812 -2.077242612838745 -1.0926945072463532 -4.70854360262026 3.989732503890991 0.0 0.0 -1.0823501194394015e-28 -0.0 -0.0 -0.0 -0.22927187383174896 1.4480628967285156 2.243809700012207 0.0964413434267044 0.037243060767650604 -0.0692923367023468 4.200506861222265e-17 1.5348283052444458 1.6335573196411133 0.22033773362636566 0.0002584909088909626 0.0 -0.3171251412343973 -0.3285829730877418 0.30780143170743207 -2.483849969589506 1.9235076688559583 1.6423695592258945e-05 1.3746319105510705e-29 2.6983578386365354e-29 -4.856474496602776e-29 9.640479336320003e-29 -4.920295783353906e-29 -5.067084513022027e-32 -0.8311209305891547 -0.46493560521374455 -0.6331559392261541 -0.08382268475302793 0.040526918222575876 -0.0908333684642088 -0.31713724723766246 -0.32858808332384887 0.30781520831933595 2.483855480942804 -1.9235556187621803 2.9877139255877295e-14 0.0 0.0 0.0 0.0 0.0 0.0 0 27.625 28.125 27.75 32.5 35.6875 35.8125 0.64404 7 253 253 253 253 253 253 1 0.019153613597154617 0.05746084079146385 -9.423578262329102 0.0 1.0 0.0 47.635833740234375 47.73255920410156 0.5740430355072021 47.455936431884766 47.57059860229492 47.584930419921875 47.513267517089844 47.498931884765625 47.54193115234375 0 1 0.001412878433863322
7100.311 4.241664129527347 -1.5423184712966513 -2.077204058683244 -1.0926884920922042 -4.708539608474036 3.98973422504106 0.0 0.0 0.0 0.0 0.0 0.0 0.0 0.0 0.0 0.0 0.0 0.0 -1.1522862506518866e-17 1.5347667932510376 1.633553385734558 0.22033663094043732 0.0002582425076980144 0.0 -1.2794448343348815e-16 17.039059346936902 18.21648768578385 1.8270463105036445 0.002156863189577264 0.0 4.241653919219971 -1.5423089780709525 -2.0771803855895996 -1.0927029115012665 -4.708527509366171 3.9897241592407227 0.0 0.0 -1.1350517561031018e-43 -0.0 -0.0 -0.0 -0.2430436760187149 1.4673209190368652 2.2546041011810303 0.09877443313598633 0.0351375937461853 -0.0744570940732956 -1.1522862506518866e-17 1.5347667932510376 1.633553385734558 0.22033663094043732 0.0002582425076980144 0.0 -0.3171412626824739 -0.32858877923435675 0.30782853469396215 2.483842533666016 -1.9235459623854905 2.4107159096938455e-05 1.4415117051863503e-44 2.829427919303539e-44 -5.093133467812941e-44 1.010973470076963e-43 -5.160182646646845e-44 -5.313809624507223e-47 -1.3514542383428543 -0.9340565087550989 -0.34670213763921687 -0.0817325502190392 0.034243532327437765 -0.09219364631906819 -0.31713724723766246 -0.32858808332384887 0.30781520831933595 2.483855480942804 -1.9235556187621803 2.9877139255877295e-14 0.0 0.0 0.0 0.0 0.0 0.0 0 27.625 28.125 27.75 32.5 35.6875 35.8125 0.643308 7 253 253 253 253 253 253 1 0.0 0.038307227194309235 -9.308655738830566 0.0 1.0 0.0 47.64031219482422 47.72270965576172 0.6120893359184265 47.48460006713867 47.57059860229492 47.584930419921875 47.5275993347168 47.513267517089844 47.57059860229492 0 1 0.0017600592400413007
7100.326999999999 4.241664129527347 -1.5423184712966513 -2.077204058683244 -1.0926884920922042 -4.708539608474036 3.98973422504106 0.0 0.0 0.0 0.0 0.0 0.0 0.0 0.0 0.0 0.0 0.0 0.0 1.044547712946141e-17 1.5347375869750977 1.6335368156433105 0.2203386276960373 0.0002584909088909626 0.0 1.1598169691230183e-16 17.038734460787825 18.216302104629428 1.827062885323381 0.002158937954437502 0.0 4.241664409637451 -1.5423515767655154 -2.077242612838745 -1.0927063685706635 -4.70854360262026 3.9897360801696777 0.0 0.0 -0.0 -0.0 -0.0 -0.0 -0.19863349199295044 1.4785923957824707 2.291154623031616 0.10631513595581055 0.03482585400342941 -0.07524023205041885 1.044547712946141e-17 1.5347375869750977 1.6335368156433105 0.2203386276960373 0.0002584909088909626 0.0 -0.3171339945173008 -0.32858107422747845 0.30778167736102047 -2.4837849644031835 1.9235043134776986 3.2435916662923976e-05 0.0 0.0 0.0 0.0 0.0 0.0 -1.2190076454208782 -0.855942819315314 -0.5393423235100945 -0.07792284701948331 0.029703560754493392 -0.08773536183865668 -0.31713724723766246 -0.32858808332384887 0.30781520831933595 2.483855480942804 -1.9235556187621803 2.9877139255877295e-14 0.0 0.0 0.0 0.0 0.0 0.0 0 27.625 28.125 27.75 32.5 35.6875 35.8125 0.648708 7 253 253 253 253 253 253 1 0.019153613597154617 0.15322890877723694 -9.385271072387695 0.0 1.0 0.0 47.6680793762207 47.76301193237305 0.6299919486045837 47.47026824951172 47.59926223754883 47.61359786987305 47.54193115234375 47.54193115234375 47.57059860229492 0 1 0.003603829585093384
7100.343 4.241664129527347 -1.5423184712966513 -2.077204058683244 -1.0926884920922042 -4.708539608474036 3.98973422504106 0.0 0.0 0.0 0.0 0.0 0.0 0.0 0.0 0.0 0.0 0.0 0.0 -7.342842592963824e-17 1.5347824096679688 1.6335813999176025 0.22034236788749695 0.0002582425076980144 0.0 -8.153149581288607e-16 17.03923212489289 18.21680084682726 1.827093818914571 0.002156863158528638 0.0 4.241691589355469 -1.5423055936447163 -2.0771992206573486 -1.0926839274219056 -4.708527509366171 3.9897170066833496 0.0 0.0 -0.0 -0.0 -0.0 -0.0 -0.1464075893163681 1.4330964088439941 2.218299150466919 0.07957714796066284 0.03364354372024536 -0.05499138683080673 -7.342842592963824e-17 1.5347824096679688 1.6335813999176025 0.22034236788749695 0.0002582425076980144 0.0 -0.31712711916158726 -0.3285972825872207 0.30782345462087857 2.48388296659443 -1.9234880957078213 2.5213434130207224e-05 0.0 0.0 0.0 0.0 0.0 0.0 -0.9016950040293248 -0.7134053870721921 -0.5408297653869055 -0.07728830764334409 0.04094973174576402 -0.08941275345064434 -0.31713724723766246 -0.32858808332384887 0.30781520831933595 2.483855480942804 -1.9235556187621803 2.9877139255877295e-14 0.0 0.0 0.0 0.0 0.0 0.0 0 27.625 28.125 27.75 32.5 35.6875 35.8125 0.657204 7 253 253 253 253 253 253 1 0.019153613597154617 0.038307227194309235 -9.366117477416992 0.0 1.0 0.0 47.64657974243164 47.737037658691406 0.6120893359184265 47.48460006713867 47.584930419921875 47.61359786987305 47.5275993347168 47.513267517089844 47.55626678466797 0 1 0.002364317576090495
7100.3589999999995 4.241664129527347 -1.5423184712966513 -2.077204058683244 -1.0926884920922042 -4.708539608474036 3.98973422504106 0.0 0.0 0.0 0.0 0.0 0.0 0.0 0.0 0.0 0.0 0.0 0.0 -8.746324074185609e-18 1.5346534252166748 1.633554220199585 0.2203379124403 0.0002584909088909626 0.0 -9.711510135288973e-17 17.037800134905297 18.216497850555868 1.8270569180698015 0.0021589379579249955 0.0 4.241661071777344 -1.5423123531839629 -2.0772147178649902 -1.092690960769989 -4.708527509366171 3.989732503890991 0.0 0.0 -0.0 -0.0 -0.0 -0.0 -0.2205241173505783 1.4476938247680664 2.293320894241333 0.09201213717460632 0.051244720816612244 -0.06254684180021286 -8.746324074185609e-18 1.5346534252166748 1.633554220199585 0.2203379124403 0.0002584909088909626 0.0 -0.31713530948537993 -0.3285839901744895 0.3078128489822269 -2.4838469722393035 1.9235517090961234 -1.6621544716857844e-05 0.0 0.0 0.0 0.0 0.0 0.0 -1.0654537541684874 -1.0470349781463175 -0.5145734482544894 -0.07349406225781044 0.03367530778387222 -0.0894369203592408 -0.31713724723766246 -0.32858808332384887 0.30781520831933595 2.483855480942804 -1.9235556187621803 2.9877139255877295e-14 0.0 0.0 0.0 0.0 0.0 0.0 0 27.625 28.125 27.75 32.5 35.6875 35.8125 0.653231 7 253 253 253 253 253 253 1 0.05746084079146385 0.07661445438861847 -9.385271072387695 0.0 1.0 0.0 47.615234375 47.723602294921875 0.5740430355072021 47.44160079956055 47.55626678466797 47.57059860229492 47.48460006713867 47.498931884765625 47.54193115234375 0 1 0.0038426786978338753
7100.375 4.241664129527347 -1.5423184712966513 -2.077204058683244 -1.0926884920922042 -4.708539608474036 3.98973422504106 0.0 0.0 0.0 0.0 0.0 0.0 0.0 0.0 0.0 0.0 0.0 0.0 3.810616354830192e-18 1.5347790718078613 1.6335529088974 0.22033953666687012 0.0002582425076980144 0.0 4.2311303696289274e-17 17.039194382915245 18.2164831087276 1.8270704044599064 0.002156863175764252 0.0 4.241687774658203 -1.542308985521533 -2.077242612838745 -1.0926755231669922 -4.70854360262026 3.9897170066833496 0.0 0.0 -0.0 -0.0 -0.0 -0.0 -0.19317752122879028 1.4821228981018066 2.2350924015045166 0.09854990243911743 0.04220765829086304 -0.04902883619070053 3.810616354830192e-18 1.5347790718078613 1.6335529088974 0.22033953666687012 0.0002582425076980144 0.0 -0.31712489155142154 -0.3285857169742416 0.3078033430581308 -2.4838829261948803 1.9234956254160145 1.0799990264848188e-05 0.0 0.0 0.0 0.0 0.0 0.0 -1.2286382025324836 -0.6527775707110295 -0.5697656506410866 -0.08199215386777244 0.03269130486774421 -0.08848999779405216 -0.31713724723766246 -0.32858808332384887 0.30781520831933595 2.483855480942804 -1.9235556187621803 2.9877139255877295e-14 0.0 0.0 0.0 0.0 0.0 0.0 0 27.625 28.125 27.75 32.5 35.6875 35.8125 0.649272 7 253 253 253 253 253 253 1 0.019153613597154617 0.1149216815829277 -9.423578262329102 0.0 1.0 0.0 47.635833740234375 47.72270965576172 0.5897097587585449 47.455936431884766 47.55626678466797 47.57059860229492 47.498931884765625 47.48460006713867 47.54193115234375 0 1 0.002148440610864233
